(Generated by custom-packaging - grblHAL Multi-Axis)
G21  (mm)
G90  (absolute)
G1 Z10.000 F500
G1 B-0.00 F1000
G1 A295.000 F200 (ADVANCE MATERIAL)
G1 A351.956 F200 (ADVANCE MATERIAL)
G1 Z10.000 F500
G0 X1880.746 Y-151.956
M3 S4000 (Start Oscillation)
G1 Z10.000 F500
G1 B90.00 F1000
G1 Z0.000 F500
G1 X1880.746 Y-208.912 B90.00 F1000
G1 Z10.000 F500
G1 B180.00 F1000
G1 Z0.000 F500
G1 X1713.066 Y-208.912 B180.00 F1000
G1 Z10.000 F500
G1 B270.00 F1000
G1 Z0.000 F500
G1 X1713.066 Y-151.956 B270.00 F1000
G1 Z10.000 F500
G1 B360.00 F1000
G1 Z0.000 F500
G1 X1721.491 Y-151.956 B360.00 F1000
G1 Z10.000 F500
G1 B450.00 F1000
G1 Z0.000 F500
G1 X1721.491 Y-180.434 B450.00 F1000
G1 Z10.000 F500
G1 B360.00 F1000
G1 Z0.000 F500
G1 X1724.641 Y-180.434 B360.00 F1000
G1 Z10.000 F500
G1 B270.00 F1000
G1 Z0.000 F500
G1 X1724.641 Y-151.956 B270.00 F1000
G1 Z10.000 F500
G1 B360.00 F1000
G1 Z0.000 F500
G1 X1758.411 Y-151.956 B360.00 F1000
G1 Z10.000 F500
G1 B450.00 F1000
G1 Z0.000 F500
G1 X1758.411 Y-180.434 B450.00 F1000
G1 Z10.000 F500
G1 B360.00 F1000
G1 Z0.000 F500
G1 X1761.561 Y-180.434 B360.00 F1000
G1 Z10.000 F500
G1 B270.00 F1000
G1 Z0.000 F500
G1 X1761.561 Y-151.956 B270.00 F1000
G1 Z10.000 F500
G1 B360.00 F1000
G1 Z0.000 F500
G1 X1773.037 Y-151.956 B360.00 F1000
G1 Z10.000 F500
G1 B450.00 F1000
G1 Z0.000 F500
G1 X1773.037 Y-164.704 B450.00 F1000
G1 X1773.277 Y-166.371 B441.81 F1000
G1 X1773.517 Y-167.659 B439.45 F1000
G1 X1773.757 Y-168.679 B436.77 F1000
G1 X1773.997 Y-169.501 B433.74 F1000
G1 X1774.237 Y-170.195 B430.92 F1000
G1 X1774.477 Y-170.900 B431.20 F1000
G1 X1774.717 Y-171.549 B429.72 F1000
G1 X1774.957 Y-171.879 B413.98 F1000
G1 X1775.196 Y-172.057 B396.57 F1000
G1 X1775.436 Y-172.171 B385.39 F1000
G1 X1775.676 Y-172.251 B378.48 F1000
G1 X1775.916 Y-172.311 B374.20 F1000
G1 X1776.156 Y-172.357 B370.78 F1000
G1 X1776.396 Y-172.390 B367.92 F1000
G1 X1776.636 Y-172.411 B364.89 F1000
G1 X1776.876 Y-172.431 B364.80 F1000
G1 X1777.116 Y-172.445 B363.23 F1000
G1 X1777.355 Y-172.458 B363.23 F1000
G1 X1777.595 Y-172.468 B362.36 F1000
G1 X1777.835 Y-172.476 B362.01 F1000
G1 X1778.075 Y-172.483 B361.51 F1000
G1 X1778.315 Y-172.489 B361.51 F1000
G1 X1778.555 Y-172.495 B361.51 F1000
G1 X1778.795 Y-172.502 B361.51 F1000
G1 X1779.035 Y-172.508 B361.51 F1000
G1 X1779.275 Y-172.516 B361.93 F1000
G1 X1779.514 Y-172.525 B362.00 F1000
G1 Z10.000 F500
G1 B276.50 F1000
G1 Z0.000 F500
G1 X1779.754 Y-170.420 B276.50 F1000
G1 Z10.000 F500
G1 B381.70 F1000
G1 Z0.000 F500
G1 X1779.994 Y-170.515 B381.70 F1000
G1 Z10.000 F500
G1 B426.74 F1000
G1 Z0.000 F500
G1 X1780.234 Y-171.073 B426.74 F1000
G1 X1780.474 Y-171.554 B423.46 F1000
G1 X1780.714 Y-172.032 B423.34 F1000
G1 X1780.954 Y-172.509 B423.34 F1000
G1 Z10.000 F500
G1 B378.29 F1000
G1 Z0.000 F500
G1 X1781.194 Y-172.589 B378.29 F1000
G1 X1781.434 Y-172.600 B362.60 F1000
G1 X1781.673 Y-172.611 B362.60 F1000
G1 X1781.913 Y-172.621 B362.60 F1000
G1 X1782.153 Y-172.632 B362.60 F1000
G1 X1782.393 Y-172.643 B362.60 F1000
G1 X1782.633 Y-172.654 B362.60 F1000
G1 Z10.000 F500
G1 B275.64 F1000
G1 Z0.000 F500
G1 X1782.873 Y-170.225 B275.64 F1000
G1 Z10.000 F500
G1 B309.58 F1000
G1 Z0.000 F500
G1 X1783.113 Y-169.935 B309.58 F1000
G1 X1783.353 Y-169.645 B309.58 F1000
G1 X1783.592 Y-169.354 B309.58 F1000
G1 X1783.832 Y-169.064 B309.58 F1000
G1 X1784.072 Y-168.774 B309.58 F1000
G1 X1784.312 Y-168.484 B309.58 F1000
G1 X1784.552 Y-168.194 B309.58 F1000
G1 Z10.000 F500
G1 B445.72 F1000
G1 Z0.000 F500
G1 X1784.792 Y-171.399 B445.72 F1000
G1 Z10.000 F500
G1 B373.47 F1000
G1 Z0.000 F500
G1 X1785.032 Y-171.457 B373.47 F1000
G1 Z10.000 F500
G1 B434.47 F1000
G1 Z0.000 F500
G1 X1785.272 Y-172.320 B434.47 F1000
G1 Z10.000 F500
G1 B369.85 F1000
G1 Z0.000 F500
G1 X1785.512 Y-172.362 B369.85 F1000
G1 X1785.751 Y-172.379 B364.07 F1000
G1 Z10.000 F500
G1 B431.92 F1000
G1 Z0.000 F500
G1 X1785.991 Y-173.113 B431.92 F1000
G1 Z10.000 F500
G1 B378.97 F1000
G1 Z0.000 F500
G1 X1786.231 Y-173.196 B378.97 F1000
G1 X1786.471 Y-173.209 B363.14 F1000
G1 X1786.711 Y-173.215 B361.49 F1000
G1 X1786.951 Y-173.246 B367.35 F1000
G1 Z10.000 F500
G1 B428.89 F1000
G1 Z0.000 F500
G1 X1787.191 Y-173.868 B428.89 F1000
G1 Z10.000 F500
G1 B381.55 F1000
G1 Z0.000 F500
G1 X1787.431 Y-173.962 B381.55 F1000
G1 X1787.671 Y-173.980 B364.09 F1000
G1 X1787.910 Y-173.967 B357.13 F1000
G1 X1788.150 Y-173.971 B360.75 F1000
G1 X1788.390 Y-173.997 B366.36 F1000
G1 X1788.630 Y-174.059 B374.43 F1000
G1 Z10.000 F500
G1 B426.21 F1000
G1 Z0.000 F500
G1 X1788.870 Y-174.603 B426.21 F1000
G1 Z10.000 F500
G1 B370.83 F1000
G1 Z0.000 F500
G1 X1789.110 Y-174.649 B370.83 F1000
G1 X1789.350 Y-174.650 B360.19 F1000
G1 X1789.590 Y-174.627 B354.48 F1000
G1 X1789.830 Y-174.616 B357.43 F1000
G1 X1790.069 Y-174.626 B362.34 F1000
G1 X1790.309 Y-174.662 B368.58 F1000
G1 X1790.549 Y-174.741 B378.13 F1000
G1 Z10.000 F500
G1 B420.70 F1000
G1 Z0.000 F500
G1 X1790.789 Y-175.168 B420.70 F1000
G1 Z10.000 F500
G1 B370.98 F1000
G1 Z0.000 F500
G1 X1791.029 Y-175.215 B370.98 F1000
G1 X1791.269 Y-175.216 B360.33 F1000
G1 X1791.509 Y-175.184 B352.36 F1000
G1 X1791.749 Y-175.153 B352.69 F1000
G1 X1791.989 Y-175.143 B357.60 F1000
G1 X1792.228 Y-175.152 B362.26 F1000
G1 X1792.468 Y-175.186 B367.91 F1000
G1 X1792.708 Y-175.257 B376.52 F1000
G1 Z10.000 F500
G1 B412.67 F1000
G1 Z0.000 F500
G1 X1792.948 Y-175.571 B412.67 F1000
G1 Z10.000 F500
G1 B377.68 F1000
G1 Z0.000 F500
G1 X1793.188 Y-175.648 B377.68 F1000
G1 X1793.428 Y-175.663 B363.54 F1000
G1 X1793.668 Y-175.644 B355.58 F1000
G1 X1793.908 Y-175.592 B347.79 F1000
G1 X1794.147 Y-175.555 B351.16 F1000
G1 X1794.387 Y-175.538 B356.05 F1000
G1 X1794.627 Y-175.540 B360.37 F1000
G1 X1794.867 Y-175.562 B365.13 F1000
G1 X1795.107 Y-175.610 B371.45 F1000
G1 X1795.331 Y-175.714 B384.79 F1000
G1 Z10.000 F500
G1 B450.00 F1000
G1 Z0.000 F500
G1 X1795.331 Y-191.032 B450.00 F1000
G1 Z10.000 F500
G1 B360.00 F1000
G1 Z0.000 F500
G1 X1798.481 Y-191.032 B360.00 F1000
G1 Z10.000 F500
G1 B270.00 F1000
G1 Z0.000 F500
G1 X1798.481 Y-176.126 B270.00 F1000
G1 Z10.000 F500
G1 B365.36 F1000
G1 Z0.000 F500
G1 X1798.705 Y-176.147 B365.36 F1000
G1 X1798.945 Y-176.137 B357.62 F1000
G1 X1799.185 Y-176.095 B350.22 F1000
G1 X1799.425 Y-176.018 B342.07 F1000
G1 X1799.665 Y-175.956 B345.66 F1000
G1 X1799.905 Y-175.919 B351.19 F1000
G1 X1800.145 Y-175.900 B355.40 F1000
G1 X1800.385 Y-175.897 B359.35 F1000
G1 X1800.624 Y-175.911 B363.33 F1000
G1 X1800.864 Y-175.947 B368.41 F1000
G1 X1801.104 Y-176.013 B375.47 F1000
G1 X1801.344 Y-176.129 B385.80 F1000
G1 X1801.584 Y-176.171 B369.86 F1000
G1 X1801.824 Y-176.177 B361.42 F1000
G1 X1802.064 Y-176.156 B355.06 F1000
G1 X1802.304 Y-176.102 B347.26 F1000
G1 X1802.544 Y-176.008 B338.76 F1000
G1 X1802.783 Y-175.937 B343.42 F1000
G1 X1803.023 Y-175.894 B349.75 F1000
G1 X1803.263 Y-175.868 B353.87 F1000
G1 X1803.503 Y-175.856 B357.28 F1000
G1 X1803.743 Y-175.861 B361.18 F1000
G1 X1803.983 Y-175.883 B365.13 F1000
G1 X1804.223 Y-175.927 B370.31 F1000
G1 X1804.463 Y-176.006 B378.29 F1000
G1 X1804.702 Y-176.056 B371.90 F1000
G1 X1804.942 Y-176.069 B363.13 F1000
G1 X1805.182 Y-176.057 B356.93 F1000
G1 X1805.422 Y-176.016 B350.33 F1000
G1 X1805.662 Y-175.917 B337.66 F1000
G1 X1805.902 Y-175.807 B335.25 F1000
G1 X1806.142 Y-175.744 B345.41 F1000
G1 X1806.382 Y-175.704 B350.50 F1000
G1 X1806.622 Y-175.681 B354.42 F1000
G1 X1806.861 Y-175.671 B357.83 F1000
G1 X1807.101 Y-175.675 B360.91 F1000
G1 X1807.341 Y-175.693 B364.11 F1000
G1 X1807.581 Y-175.729 B368.53 F1000
G1 X1807.821 Y-175.786 B373.43 F1000
G1 X1808.061 Y-175.819 B367.86 F1000
G1 X1808.301 Y-175.823 B361.02 F1000
G1 X1808.541 Y-175.805 B355.62 F1000
G1 Z10.000 F500
G1 B281.76 F1000
G1 Z0.000 F500
G1 X1808.781 Y-174.652 B281.76 F1000
G1 Z10.000 F500
G1 B325.09 F1000
G1 Z0.000 F500
G1 X1809.020 Y-174.485 B325.09 F1000
G1 Z10.000 F500
G1 B286.85 F1000
G1 Z0.000 F500
G1 X1809.260 Y-173.693 B286.85 F1000
G1 Z10.000 F500
G1 B360.30 F1000
G1 Z0.000 F500
G1 X1809.500 Y-173.694 B360.30 F1000
G1 X1809.740 Y-173.696 B360.30 F1000
G1 X1809.980 Y-173.697 B360.30 F1000
G1 X1810.220 Y-173.698 B360.30 F1000
G1 X1810.460 Y-173.699 B360.30 F1000
G1 X1810.700 Y-173.701 B360.30 F1000
G1 X1810.940 Y-173.702 B360.30 F1000
G1 X1811.179 Y-173.703 B360.30 F1000
G1 X1811.419 Y-173.704 B360.30 F1000
G1 X1811.659 Y-173.706 B360.30 F1000
G1 X1811.899 Y-173.707 B360.30 F1000
G1 X1812.139 Y-173.708 B360.30 F1000
G1 X1812.379 Y-173.709 B360.30 F1000
G1 X1812.619 Y-173.712 B360.73 F1000
G1 X1812.859 Y-173.714 B360.35 F1000
G1 X1813.098 Y-173.711 B359.42 F1000
G1 X1813.338 Y-173.709 B359.42 F1000
G1 X1813.578 Y-173.707 B359.42 F1000
G1 X1813.818 Y-173.705 B359.50 F1000
G1 X1814.058 Y-173.703 B359.66 F1000
G1 X1814.298 Y-173.702 B359.66 F1000
G1 X1814.538 Y-173.700 B359.66 F1000
G1 X1814.778 Y-173.699 B359.66 F1000
G1 X1815.018 Y-173.698 B359.66 F1000
G1 X1815.257 Y-173.696 B359.66 F1000
G1 X1815.497 Y-173.695 B359.66 F1000
G1 X1815.737 Y-173.693 B359.66 F1000
G1 X1815.977 Y-173.692 B359.66 F1000
G1 X1816.217 Y-173.690 B359.66 F1000
G1 X1816.457 Y-173.688 B359.30 F1000
G1 X1816.697 Y-173.683 B358.88 F1000
G1 X1816.937 Y-173.678 B358.84 F1000
G1 X1817.177 Y-173.673 B358.84 F1000
G1 X1817.416 Y-173.668 B358.84 F1000
G1 X1817.656 Y-173.663 B358.84 F1000
G1 X1817.896 Y-173.660 B359.21 F1000
G1 X1818.136 Y-173.655 B358.86 F1000
G1 X1818.376 Y-173.652 B359.30 F1000
G1 X1818.616 Y-173.654 B360.38 F1000
G1 X1818.856 Y-173.656 B360.38 F1000
G1 X1819.096 Y-173.657 B360.38 F1000
G1 X1819.336 Y-173.659 B360.38 F1000
G1 X1819.575 Y-173.663 B360.94 F1000
G1 X1819.815 Y-173.670 B361.78 F1000
G1 X1820.055 Y-173.678 B361.78 F1000
G1 X1820.295 Y-173.685 B361.78 F1000
G1 X1820.535 Y-173.691 B361.31 F1000
G1 X1820.775 Y-173.695 B361.14 F1000
G1 X1821.015 Y-173.700 B361.14 F1000
G1 X1821.255 Y-173.707 B361.62 F1000
G1 X1821.495 Y-173.717 B362.36 F1000
G1 X1821.734 Y-173.727 B362.36 F1000
G1 X1821.974 Y-173.737 B362.36 F1000
G1 X1822.214 Y-173.746 B362.36 F1000
G1 X1822.454 Y-173.763 B364.05 F1000
G1 X1822.694 Y-173.788 B365.82 F1000
G1 X1822.934 Y-173.813 B365.87 F1000
G1 X1823.174 Y-173.837 B365.87 F1000
G1 X1823.414 Y-173.862 B365.87 F1000
G1 X1823.653 Y-173.888 B366.23 F1000
G1 X1823.893 Y-173.915 B366.45 F1000
G1 X1824.133 Y-173.945 B367.22 F1000
G1 X1824.373 Y-173.981 B368.53 F1000
G1 X1824.613 Y-174.016 B368.21 F1000
G1 X1824.853 Y-174.050 B368.05 F1000
G1 X1825.093 Y-174.069 B364.59 F1000
G1 X1825.333 Y-174.080 B362.46 F1000
G1 X1825.573 Y-174.077 B359.50 F1000
G1 X1825.812 Y-174.054 B354.34 F1000
G1 X1826.052 Y-174.029 B354.07 F1000
G1 X1826.292 Y-173.989 B350.47 F1000
G1 X1826.532 Y-173.944 B349.47 F1000
G1 X1826.772 Y-173.895 B348.39 F1000
G1 X1827.012 Y-173.843 B347.76 F1000
G1 X1827.252 Y-173.791 B347.76 F1000
G1 X1827.492 Y-173.739 B347.76 F1000
G1 X1827.732 Y-173.687 B347.76 F1000
G1 X1827.971 Y-173.631 B346.87 F1000
G1 X1828.211 Y-173.572 B346.23 F1000
G1 X1828.451 Y-173.513 B346.23 F1000
G1 X1828.691 Y-173.454 B346.23 F1000
G1 X1828.931 Y-173.397 B346.49 F1000
G1 X1829.171 Y-173.338 B346.21 F1000
G1 X1829.411 Y-173.275 B345.24 F1000
G1 X1829.651 Y-173.211 B345.24 F1000
G1 X1829.891 Y-173.147 B344.92 F1000
G1 X1830.130 Y-173.081 B344.71 F1000
G1 X1830.370 Y-173.016 B344.71 F1000
G1 X1830.610 Y-172.946 B343.75 F1000
G1 X1830.850 Y-172.871 B342.74 F1000
G1 X1831.090 Y-172.797 B342.74 F1000
G1 X1831.330 Y-172.723 B343.01 F1000
G1 X1831.570 Y-172.650 B343.06 F1000
G1 X1831.810 Y-172.576 B342.75 F1000
G1 X1832.050 Y-172.493 B341.00 F1000
G1 X1832.251 Y-172.424 B341.00 F1000
G1 Z10.000 F500
G1 B450.00 F1000
G1 Z0.000 F500
G1 X1832.251 Y-190.370 B450.00 F1000
G1 Z10.000 F500
G1 B360.00 F1000
G1 Z0.000 F500
G1 X1835.401 Y-190.370 B360.00 F1000
G1 Z10.000 F500
G1 B270.00 F1000
G1 Z0.000 F500
G1 X1835.401 Y-171.122 B270.00 F1000
G1 Z10.000 F500
G1 B333.76 F1000
G1 Z0.000 F500
G1 X1835.408 Y-171.119 B333.76 F1000
G1 X1835.648 Y-171.000 B333.62 F1000
G1 X1835.888 Y-170.874 B332.32 F1000
G1 X1836.128 Y-170.746 B331.88 F1000
G1 X1836.367 Y-170.617 B331.75 F1000
G1 X1836.607 Y-170.477 B329.65 F1000
G1 X1836.847 Y-170.336 B329.65 F1000
G1 X1837.087 Y-170.195 B329.59 F1000
G1 X1837.327 Y-170.040 B326.99 F1000
G1 X1837.567 Y-169.872 B325.01 F1000
G1 X1837.807 Y-169.706 B325.30 F1000
G1 X1838.047 Y-169.540 B325.30 F1000
G1 X1838.287 Y-169.373 B325.30 F1000
G1 X1838.526 Y-169.207 B325.30 F1000
G1 X1838.766 Y-169.028 B323.28 F1000
G1 X1839.006 Y-168.828 B320.08 F1000
G1 X1839.246 Y-168.627 B320.08 F1000
G1 X1839.486 Y-168.426 B320.08 F1000
G1 X1839.726 Y-168.226 B320.11 F1000
G1 X1839.966 Y-168.018 B319.11 F1000
G1 X1840.206 Y-167.781 B315.38 F1000
G1 X1840.446 Y-167.545 B315.38 F1000
G1 X1840.685 Y-167.305 B315.06 F1000
G1 X1840.925 Y-167.056 B313.89 F1000
G1 X1841.165 Y-166.781 B311.13 F1000
G1 X1841.405 Y-166.504 B310.86 F1000
G1 X1841.645 Y-166.226 B310.80 F1000
G1 X1841.885 Y-165.930 B309.01 F1000
G1 X1842.125 Y-165.611 B306.99 F1000
G1 X1842.365 Y-165.287 B306.51 F1000
G1 X1842.605 Y-164.955 B305.81 F1000
G1 X1842.844 Y-164.568 B301.80 F1000
G1 X1843.084 Y-164.164 B300.73 F1000
G1 X1843.324 Y-163.711 B297.87 F1000
G1 X1843.564 Y-163.187 B294.61 F1000
G1 X1843.804 Y-162.695 B295.99 F1000
G1 X1844.044 Y-162.200 B295.88 F1000
G1 X1844.284 Y-161.672 B294.42 F1000
G1 X1844.524 Y-161.145 B294.46 F1000
G1 X1844.763 Y-160.618 B294.46 F1000
G1 X1845.003 Y-160.019 B291.83 F1000
G1 X1845.243 Y-159.405 B291.35 F1000
G1 X1845.483 Y-158.799 B291.60 F1000
G1 X1845.723 Y-158.134 B289.84 F1000
G1 X1845.963 Y-157.459 B289.56 F1000
G1 X1846.203 Y-156.748 B288.64 F1000
G1 X1846.443 Y-156.049 B288.95 F1000
G1 X1846.683 Y-155.192 B285.64 F1000
G1 X1846.922 Y-154.463 B288.20 F1000
G1 X1847.162 Y-153.624 B285.97 F1000
G1 X1847.402 Y-152.633 B283.61 F1000
G1 X1847.568 Y-151.956 B283.74 F1000
G1 Z10.000 F500
G1 B360.00 F1000
G1 Z0.000 F500
G1 X1869.171 Y-151.956 B360.00 F1000
G1 Z10.000 F500
G1 B450.00 F1000
G1 Z0.000 F500
G1 X1869.171 Y-180.434 B450.00 F1000
G1 Z10.000 F500
G1 B360.00 F1000
G1 Z0.000 F500
G1 X1872.321 Y-180.434 B360.00 F1000
G1 Z10.000 F500
G1 B270.00 F1000
G1 Z0.000 F500
G1 X1872.321 Y-151.956 B270.00 F1000
G1 Z10.000 F500
G1 B360.00 F1000
G1 Z0.000 F500
G1 X1880.746 Y-151.956 B360.00 F1000
G1 Z10.000 F500
G1 A353.956 F200 (ADVANCE MATERIAL)
G1 Z10.000 F500
G0 X1176.746 Y-153.956
G1 Z10.000 F500
G1 B450.00 F1000
G1 Z0.000 F500
G1 X1176.746 Y-212.912 B450.00 F1000
G1 Z10.000 F500
G1 B540.00 F1000
G1 Z0.000 F500
G1 X1009.066 Y-212.912 B540.00 F1000
G1 Z10.000 F500
G1 B630.00 F1000
G1 Z0.000 F500
G1 X1009.066 Y-153.956 B630.00 F1000
G1 Z10.000 F500
G1 B720.00 F1000
G1 Z0.000 F500
G1 X1017.491 Y-153.956 B720.00 F1000
G1 Z10.000 F500
G1 B810.00 F1000
G1 Z0.000 F500
G1 X1017.491 Y-183.434 B810.00 F1000
G1 Z10.000 F500
G1 B720.00 F1000
G1 Z0.000 F500
G1 X1020.641 Y-183.434 B720.00 F1000
G1 Z10.000 F500
G1 B630.00 F1000
G1 Z0.000 F500
G1 X1020.641 Y-153.956 B630.00 F1000
G1 Z10.000 F500
G1 B720.00 F1000
G1 Z0.000 F500
G1 X1054.411 Y-153.956 B720.00 F1000
G1 Z10.000 F500
G1 B810.00 F1000
G1 Z0.000 F500
G1 X1054.411 Y-183.434 B810.00 F1000
G1 Z10.000 F500
G1 B720.00 F1000
G1 Z0.000 F500
G1 X1057.561 Y-183.434 B720.00 F1000
G1 Z10.000 F500
G1 B630.00 F1000
G1 Z0.000 F500
G1 X1057.561 Y-153.956 B630.00 F1000
G1 Z10.000 F500
G1 B720.00 F1000
G1 Z0.000 F500
G1 X1091.331 Y-153.956 B720.00 F1000
G1 Z10.000 F500
G1 B810.00 F1000
G1 Z0.000 F500
G1 X1091.331 Y-183.434 B810.00 F1000
G1 Z10.000 F500
G1 B720.00 F1000
G1 Z0.000 F500
G1 X1094.481 Y-183.434 B720.00 F1000
G1 Z10.000 F500
G1 B630.00 F1000
G1 Z0.000 F500
G1 X1094.481 Y-153.956 B630.00 F1000
G1 Z10.000 F500
G1 B720.00 F1000
G1 Z0.000 F500
G1 X1128.251 Y-153.956 B720.00 F1000
G1 Z10.000 F500
G1 B810.00 F1000
G1 Z0.000 F500
G1 X1128.251 Y-183.434 B810.00 F1000
G1 Z10.000 F500
G1 B720.00 F1000
G1 Z0.000 F500
G1 X1131.401 Y-183.434 B720.00 F1000
G1 Z10.000 F500
G1 B630.00 F1000
G1 Z0.000 F500
G1 X1131.401 Y-153.956 B630.00 F1000
G1 Z10.000 F500
G1 B720.00 F1000
G1 Z0.000 F500
G1 X1165.171 Y-153.956 B720.00 F1000
G1 Z10.000 F500
G1 B810.00 F1000
G1 Z0.000 F500
G1 X1165.171 Y-183.434 B810.00 F1000
G1 Z10.000 F500
G1 B720.00 F1000
G1 Z0.000 F500
G1 X1168.321 Y-183.434 B720.00 F1000
G1 Z10.000 F500
G1 B630.00 F1000
G1 Z0.000 F500
G1 X1168.321 Y-153.956 B630.00 F1000
G1 Z10.000 F500
G1 B720.00 F1000
G1 Z0.000 F500
G1 X1176.746 Y-153.956 B720.00 F1000
G1 Z10.000 F500
G1 Z10.000 F500
G0 X1352.746 Y-153.956
G1 Z10.000 F500
G1 B810.00 F1000
G1 Z0.000 F500
G1 X1352.746 Y-212.912 B810.00 F1000
G1 Z10.000 F500
G1 B900.00 F1000
G1 Z0.000 F500
G1 X1185.066 Y-212.912 B900.00 F1000
G1 Z10.000 F500
G1 B990.00 F1000
G1 Z0.000 F500
G1 X1185.066 Y-153.956 B990.00 F1000
G1 Z10.000 F500
G1 B1080.00 F1000
G1 Z0.000 F500
G1 X1193.491 Y-153.956 B1080.00 F1000
G1 Z10.000 F500
G1 B1170.00 F1000
G1 Z0.000 F500
G1 X1193.491 Y-183.434 B1170.00 F1000
G1 Z10.000 F500
G1 B1080.00 F1000
G1 Z0.000 F500
G1 X1196.641 Y-183.434 B1080.00 F1000
G1 Z10.000 F500
G1 B990.00 F1000
G1 Z0.000 F500
G1 X1196.641 Y-153.956 B990.00 F1000
G1 Z10.000 F500
G1 B1080.00 F1000
G1 Z0.000 F500
G1 X1230.411 Y-153.956 B1080.00 F1000
G1 Z10.000 F500
G1 B1170.00 F1000
G1 Z0.000 F500
G1 X1230.411 Y-183.434 B1170.00 F1000
G1 Z10.000 F500
G1 B1080.00 F1000
G1 Z0.000 F500
G1 X1233.561 Y-183.434 B1080.00 F1000
G1 Z10.000 F500
G1 B990.00 F1000
G1 Z0.000 F500
G1 X1233.561 Y-153.956 B990.00 F1000
G1 Z10.000 F500
G1 B1080.00 F1000
G1 Z0.000 F500
G1 X1267.331 Y-153.956 B1080.00 F1000
G1 Z10.000 F500
G1 B1170.00 F1000
G1 Z0.000 F500
G1 X1267.331 Y-183.434 B1170.00 F1000
G1 Z10.000 F500
G1 B1080.00 F1000
G1 Z0.000 F500
G1 X1270.481 Y-183.434 B1080.00 F1000
G1 Z10.000 F500
G1 B990.00 F1000
G1 Z0.000 F500
G1 X1270.481 Y-153.956 B990.00 F1000
G1 Z10.000 F500
G1 B1080.00 F1000
G1 Z0.000 F500
G1 X1304.251 Y-153.956 B1080.00 F1000
G1 Z10.000 F500
G1 B1170.00 F1000
G1 Z0.000 F500
G1 X1304.251 Y-183.434 B1170.00 F1000
G1 Z10.000 F500
G1 B1080.00 F1000
G1 Z0.000 F500
G1 X1307.401 Y-183.434 B1080.00 F1000
G1 Z10.000 F500
G1 B990.00 F1000
G1 Z0.000 F500
G1 X1307.401 Y-153.956 B990.00 F1000
G1 Z10.000 F500
G1 B1080.00 F1000
G1 Z0.000 F500
G1 X1341.171 Y-153.956 B1080.00 F1000
G1 Z10.000 F500
G1 B1170.00 F1000
G1 Z0.000 F500
G1 X1341.171 Y-183.434 B1170.00 F1000
G1 Z10.000 F500
G1 B1080.00 F1000
G1 Z0.000 F500
G1 X1344.321 Y-183.434 B1080.00 F1000
G1 Z10.000 F500
G1 B990.00 F1000
G1 Z0.000 F500
G1 X1344.321 Y-153.956 B990.00 F1000
G1 Z10.000 F500
G1 B1080.00 F1000
G1 Z0.000 F500
G1 X1352.746 Y-153.956 B1080.00 F1000
G1 Z10.000 F500
G1 Z10.000 F500
G0 X1528.746 Y-153.956
G1 Z10.000 F500
G1 B1170.00 F1000
G1 Z0.000 F500
G1 X1528.746 Y-212.912 B1170.00 F1000
G1 Z10.000 F500
G1 B1260.00 F1000
G1 Z0.000 F500
G1 X1520.321 Y-212.912 B1260.00 F1000
G1 Z10.000 F500
G1 B1350.00 F1000
G1 Z0.000 F500
G1 X1520.321 Y-183.434 B1350.00 F1000
G1 Z10.000 F500
G1 B1260.00 F1000
G1 Z0.000 F500
G1 X1517.171 Y-183.434 B1260.00 F1000
G1 Z10.000 F500
G1 B1170.00 F1000
G1 Z0.000 F500
G1 X1517.171 Y-212.912 B1170.00 F1000
G1 Z10.000 F500
G1 B1260.00 F1000
G1 Z0.000 F500
G1 X1483.401 Y-212.912 B1260.00 F1000
G1 Z10.000 F500
G1 B1350.00 F1000
G1 Z0.000 F500
G1 X1483.401 Y-183.434 B1350.00 F1000
G1 Z10.000 F500
G1 B1260.00 F1000
G1 Z0.000 F500
G1 X1480.251 Y-183.434 B1260.00 F1000
G1 Z10.000 F500
G1 B1170.00 F1000
G1 Z0.000 F500
G1 X1480.251 Y-212.912 B1170.00 F1000
G1 Z10.000 F500
G1 B1260.00 F1000
G1 Z0.000 F500
G1 X1446.481 Y-212.912 B1260.00 F1000
G1 Z10.000 F500
G1 B1350.00 F1000
G1 Z0.000 F500
G1 X1446.481 Y-183.434 B1350.00 F1000
G1 Z10.000 F500
G1 B1260.00 F1000
G1 Z0.000 F500
G1 X1443.331 Y-183.434 B1260.00 F1000
G1 Z10.000 F500
G1 B1170.00 F1000
G1 Z0.000 F500
G1 X1443.331 Y-212.912 B1170.00 F1000
G1 Z10.000 F500
G1 B1260.00 F1000
G1 Z0.000 F500
G1 X1409.561 Y-212.912 B1260.00 F1000
G1 Z10.000 F500
G1 B1350.00 F1000
G1 Z0.000 F500
G1 X1409.561 Y-183.434 B1350.00 F1000
G1 Z10.000 F500
G1 B1260.00 F1000
G1 Z0.000 F500
G1 X1406.411 Y-183.434 B1260.00 F1000
G1 Z10.000 F500
G1 B1170.00 F1000
G1 Z0.000 F500
G1 X1406.411 Y-212.912 B1170.00 F1000
G1 Z10.000 F500
G1 B1260.00 F1000
G1 Z0.000 F500
G1 X1372.641 Y-212.912 B1260.00 F1000
G1 Z10.000 F500
G1 B1350.00 F1000
G1 Z0.000 F500
G1 X1372.641 Y-183.434 B1350.00 F1000
G1 Z10.000 F500
G1 B1260.00 F1000
G1 Z0.000 F500
G1 X1369.491 Y-183.434 B1260.00 F1000
G1 Z10.000 F500
G1 B1170.00 F1000
G1 Z0.000 F500
G1 X1369.491 Y-212.912 B1170.00 F1000
G1 Z10.000 F500
G1 B1260.00 F1000
G1 Z0.000 F500
G1 X1361.066 Y-212.912 B1260.00 F1000
G1 Z10.000 F500
G1 B1350.00 F1000
G1 Z0.000 F500
G1 X1361.066 Y-153.956 B1350.00 F1000
G1 Z10.000 F500
G1 B1440.00 F1000
G1 Z0.000 F500
G1 X1528.746 Y-153.956 B1440.00 F1000
G1 Z10.000 F500
G1 Z10.000 F500
G0 X1704.746 Y-153.956
G1 Z10.000 F500
G1 B1530.00 F1000
G1 Z0.000 F500
G1 X1704.746 Y-212.912 B1530.00 F1000
G1 Z10.000 F500
G1 B1620.00 F1000
G1 Z0.000 F500
G1 X1696.321 Y-212.912 B1620.00 F1000
G1 Z10.000 F500
G1 B1710.00 F1000
G1 Z0.000 F500
G1 X1696.321 Y-183.434 B1710.00 F1000
G1 Z10.000 F500
G1 B1620.00 F1000
G1 Z0.000 F500
G1 X1693.171 Y-183.434 B1620.00 F1000
G1 Z10.000 F500
G1 B1530.00 F1000
G1 Z0.000 F500
G1 X1693.171 Y-212.912 B1530.00 F1000
G1 Z10.000 F500
G1 B1620.00 F1000
G1 Z0.000 F500
G1 X1659.401 Y-212.912 B1620.00 F1000
G1 Z10.000 F500
G1 B1710.00 F1000
G1 Z0.000 F500
G1 X1659.401 Y-183.434 B1710.00 F1000
G1 Z10.000 F500
G1 B1620.00 F1000
G1 Z0.000 F500
G1 X1656.251 Y-183.434 B1620.00 F1000
G1 Z10.000 F500
G1 B1530.00 F1000
G1 Z0.000 F500
G1 X1656.251 Y-212.912 B1530.00 F1000
G1 Z10.000 F500
G1 B1620.00 F1000
G1 Z0.000 F500
G1 X1622.481 Y-212.912 B1620.00 F1000
G1 Z10.000 F500
G1 B1710.00 F1000
G1 Z0.000 F500
G1 X1622.481 Y-183.434 B1710.00 F1000
G1 Z10.000 F500
G1 B1620.00 F1000
G1 Z0.000 F500
G1 X1619.331 Y-183.434 B1620.00 F1000
G1 Z10.000 F500
G1 B1530.00 F1000
G1 Z0.000 F500
G1 X1619.331 Y-212.912 B1530.00 F1000
G1 Z10.000 F500
G1 B1620.00 F1000
G1 Z0.000 F500
G1 X1585.561 Y-212.912 B1620.00 F1000
G1 Z10.000 F500
G1 B1710.00 F1000
G1 Z0.000 F500
G1 X1585.561 Y-183.434 B1710.00 F1000
G1 Z10.000 F500
G1 B1620.00 F1000
G1 Z0.000 F500
G1 X1582.411 Y-183.434 B1620.00 F1000
G1 Z10.000 F500
G1 B1530.00 F1000
G1 Z0.000 F500
G1 X1582.411 Y-212.912 B1530.00 F1000
G1 Z10.000 F500
G1 B1620.00 F1000
G1 Z0.000 F500
G1 X1548.641 Y-212.912 B1620.00 F1000
G1 Z10.000 F500
G1 B1710.00 F1000
G1 Z0.000 F500
G1 X1548.641 Y-183.434 B1710.00 F1000
G1 Z10.000 F500
G1 B1620.00 F1000
G1 Z0.000 F500
G1 X1545.491 Y-183.434 B1620.00 F1000
G1 Z10.000 F500
G1 B1530.00 F1000
G1 Z0.000 F500
G1 X1545.491 Y-212.912 B1530.00 F1000
G1 Z10.000 F500
G1 B1620.00 F1000
G1 Z0.000 F500
G1 X1537.066 Y-212.912 B1620.00 F1000
G1 Z10.000 F500
G1 B1710.00 F1000
G1 Z0.000 F500
G1 X1537.066 Y-153.956 B1710.00 F1000
G1 Z10.000 F500
G1 B1800.00 F1000
G1 Z0.000 F500
G1 X1704.746 Y-153.956 B1800.00 F1000
G1 Z10.000 F500
G1 A359.956 F200 (ADVANCE MATERIAL)
G1 Z10.000 F500
G0 X616.746 Y-159.956
G1 Z10.000 F500
G1 B1890.00 F1000
G1 Z0.000 F500
G1 X616.746 Y-216.912 B1890.00 F1000
G1 Z10.000 F500
G1 B1980.00 F1000
G1 Z0.000 F500
G1 X608.321 Y-216.912 B1980.00 F1000
G1 Z10.000 F500
G1 B2070.00 F1000
G1 Z0.000 F500
G1 X608.321 Y-188.434 B2070.00 F1000
G1 Z10.000 F500
G1 B1980.00 F1000
G1 Z0.000 F500
G1 X605.171 Y-188.434 B1980.00 F1000
G1 Z10.000 F500
G1 B1890.00 F1000
G1 Z0.000 F500
G1 X605.171 Y-216.912 B1890.00 F1000
G1 Z10.000 F500
G1 B1980.00 F1000
G1 Z0.000 F500
G1 X584.362 Y-216.912 B1980.00 F1000
G1 Z10.000 F500
G1 B2070.00 F1000
G1 Z0.000 F500
G1 X584.362 Y-216.269 B2070.00 F1000
G1 Z10.000 F500
G1 B2021.81 F1000
G1 Z0.000 F500
G1 X584.122 Y-216.055 B2021.81 F1000
G1 Z10.000 F500
G1 B2065.68 F1000
G1 Z0.000 F500
G1 X583.882 Y-212.881 B2065.68 F1000
G1 X583.642 Y-211.570 B2059.63 F1000
G1 X583.402 Y-210.692 B2054.73 F1000
G1 X583.162 Y-209.814 B2054.71 F1000
G1 X582.922 Y-208.082 B2062.12 F1000
G1 Z10.000 F500
G1 B1993.81 F1000
G1 Z0.000 F500
G1 X582.683 Y-208.023 B1993.81 F1000
G1 X582.443 Y-207.975 B1991.31 F1000
G1 Z10.000 F500
G1 B2040.39 F1000
G1 Z0.000 F500
G1 X582.203 Y-207.553 B2040.39 F1000
G1 X581.963 Y-207.084 B2042.88 F1000
G1 X581.723 Y-206.616 B2042.88 F1000
G1 X581.483 Y-206.177 B2041.35 F1000
G1 X581.243 Y-205.794 B2037.94 F1000
G1 X581.003 Y-205.411 B2037.91 F1000
G1 X580.763 Y-205.029 B2037.91 F1000
G1 X580.524 Y-204.651 B2037.58 F1000
G1 X580.284 Y-204.297 B2035.87 F1000
G1 X580.044 Y-203.983 B2032.62 F1000
G1 X579.804 Y-203.669 B2032.62 F1000
G1 X579.564 Y-203.339 B2034.01 F1000
G1 X579.324 Y-202.403 B2055.62 F1000
G1 Z10.000 F500
G1 B2006.04 F1000
G1 Z0.000 F500
G1 X579.084 Y-202.286 B2006.04 F1000
G1 X578.844 Y-202.276 B1982.22 F1000
G1 X578.605 Y-202.139 B2009.70 F1000
G1 X578.365 Y-201.870 B2028.34 F1000
G1 X578.125 Y-201.624 B2025.70 F1000
G1 X577.885 Y-201.387 B2024.68 F1000
G1 X577.645 Y-201.150 B2024.68 F1000
G1 X577.405 Y-200.912 B2024.68 F1000
G1 X577.165 Y-200.675 B2024.68 F1000
G1 X576.925 Y-200.438 B2024.68 F1000
G1 X576.685 Y-200.201 B2024.68 F1000
G1 X576.446 Y-199.963 B2024.68 F1000
G1 X576.206 Y-199.726 B2024.68 F1000
G1 X575.966 Y-199.489 B2024.68 F1000
G1 X575.726 Y-199.252 B2024.68 F1000
G1 X575.486 Y-199.014 B2024.68 F1000
G1 X575.246 Y-198.777 B2024.68 F1000
G1 X575.006 Y-198.584 B2018.75 F1000
G1 X574.766 Y-198.060 B2045.42 F1000
G1 X574.526 Y-197.827 B2024.10 F1000
G1 Z10.000 F500
G1 B1980.45 F1000
G1 Z0.000 F500
G1 X574.287 Y-197.826 B1980.45 F1000
G1 X574.047 Y-197.790 B1988.40 F1000
G1 Z10.000 F500
G1 B2023.92 F1000
G1 Z0.000 F500
G1 X573.807 Y-197.559 B2023.92 F1000
G1 X573.567 Y-197.379 B2016.88 F1000
G1 X573.327 Y-197.199 B2016.88 F1000
G1 X573.087 Y-197.019 B2016.88 F1000
G1 X572.847 Y-196.839 B2016.88 F1000
G1 X572.607 Y-196.659 B2016.88 F1000
G1 X572.367 Y-196.485 B2015.97 F1000
G1 X572.128 Y-196.314 B2015.57 F1000
G1 X571.888 Y-196.142 B2015.57 F1000
G1 X571.648 Y-195.970 B2015.57 F1000
G1 X571.408 Y-195.799 B2015.57 F1000
G1 X571.401 Y-195.794 B2015.57 F1000
G1 Z10.000 F500
G1 B2070.00 F1000
G1 Z0.000 F500
G1 X571.401 Y-177.320 B2070.00 F1000
G1 Z10.000 F500
G1 B1980.00 F1000
G1 Z0.000 F500
G1 X568.251 Y-177.320 B1980.00 F1000
G1 Z10.000 F500
G1 B1890.00 F1000
G1 Z0.000 F500
G1 X568.251 Y-193.747 B1890.00 F1000
G1 Z10.000 F500
G1 B2008.42 F1000
G1 Z0.000 F500
G1 X568.050 Y-193.638 B2008.42 F1000
G1 X567.810 Y-193.509 B2008.38 F1000
G1 X567.570 Y-193.380 B2008.24 F1000
G1 X567.330 Y-193.251 B2008.24 F1000
G1 X567.090 Y-193.122 B2008.24 F1000
G1 X566.850 Y-192.993 B2008.24 F1000
G1 X566.610 Y-192.864 B2008.24 F1000
G1 X566.370 Y-192.736 B2008.24 F1000
G1 X566.130 Y-192.608 B2007.91 F1000
G1 X565.891 Y-192.479 B2008.39 F1000
G1 X565.651 Y-192.351 B2008.12 F1000
G1 X565.411 Y-192.228 B2007.07 F1000
G1 X565.171 Y-192.105 B2007.07 F1000
G1 X564.931 Y-191.983 B2007.07 F1000
G1 X564.691 Y-191.860 B2007.07 F1000
G1 X564.451 Y-191.742 B2006.25 F1000
G1 X564.211 Y-191.626 B2005.77 F1000
G1 X563.971 Y-191.476 B2011.98 F1000
G1 X563.732 Y-191.132 B2035.17 F1000
G1 Z10.000 F500
G1 B1988.49 F1000
G1 Z0.000 F500
G1 X563.492 Y-191.096 B1988.49 F1000
G1 X563.252 Y-191.126 B1972.78 F1000
G1 X563.012 Y-191.121 B1981.17 F1000
G1 X562.772 Y-191.008 B2005.23 F1000
G1 X562.532 Y-190.909 B2002.48 F1000
G1 X562.292 Y-190.810 B2002.48 F1000
G1 X562.052 Y-190.717 B2001.14 F1000
G1 X561.812 Y-190.628 B2000.32 F1000
G1 X561.573 Y-190.539 B2000.32 F1000
G1 X561.333 Y-190.450 B2000.32 F1000
G1 X561.093 Y-190.362 B2000.32 F1000
G1 X560.853 Y-190.273 B2000.32 F1000
G1 X560.613 Y-190.184 B2000.32 F1000
G1 X560.373 Y-190.095 B2000.32 F1000
G1 X560.133 Y-190.006 B2000.32 F1000
G1 X559.893 Y-189.927 B1998.42 F1000
G1 X559.653 Y-189.848 B1998.16 F1000
G1 X559.414 Y-189.769 B1998.16 F1000
G1 X559.174 Y-189.690 B1998.16 F1000
G1 X558.934 Y-189.612 B1998.16 F1000
G1 X558.694 Y-189.533 B1998.16 F1000
G1 X558.454 Y-189.454 B1998.13 F1000
G1 X558.214 Y-189.380 B1997.21 F1000
G1 X557.974 Y-189.307 B1997.06 F1000
G1 X557.734 Y-189.218 B2000.31 F1000
G1 X557.495 Y-189.048 B2015.28 F1000
G1 X557.255 Y-188.936 B2005.13 F1000
G1 X557.015 Y-188.956 B1975.18 F1000
G1 X556.775 Y-188.994 B1970.91 F1000
G1 X556.535 Y-188.946 B1991.40 F1000
G1 X556.295 Y-188.882 B1994.95 F1000
G1 X556.055 Y-188.833 B1991.44 F1000
G1 X555.815 Y-188.785 B1991.31 F1000
G1 X555.575 Y-188.737 B1991.31 F1000
G1 X555.336 Y-188.689 B1991.31 F1000
G1 X555.096 Y-188.641 B1991.31 F1000
G1 X554.856 Y-188.594 B1991.22 F1000
G1 X554.616 Y-188.547 B1991.13 F1000
G1 X554.376 Y-188.499 B1991.13 F1000
G1 X554.136 Y-188.452 B1991.13 F1000
G1 X553.896 Y-188.417 B1988.31 F1000
G1 X553.656 Y-188.386 B1987.32 F1000
G1 X553.416 Y-188.355 B1987.32 F1000
G1 X553.177 Y-188.325 B1987.32 F1000
G1 X552.937 Y-188.294 B1987.32 F1000
G1 X552.697 Y-188.263 B1987.32 F1000
G1 X552.457 Y-188.232 B1987.32 F1000
G1 X552.217 Y-188.201 B1987.32 F1000
G1 X551.977 Y-188.170 B1987.32 F1000
G1 X551.737 Y-188.142 B1986.69 F1000
G1 X551.497 Y-188.131 B1982.80 F1000
G1 X551.257 Y-188.112 B1984.44 F1000
G1 X551.018 Y-188.058 B1992.77 F1000
G1 X550.778 Y-187.979 B1998.17 F1000
G1 X550.538 Y-187.918 B1994.35 F1000
G1 X550.298 Y-187.950 B1972.19 F1000
G1 X550.058 Y-187.987 B1971.29 F1000
G1 X549.818 Y-188.024 B1971.29 F1000
G1 X549.578 Y-188.033 B1977.82 F1000
G1 X549.338 Y-188.012 B1984.99 F1000
G1 X549.098 Y-188.013 B1979.69 F1000
G1 X548.859 Y-188.019 B1978.65 F1000
G1 X548.619 Y-188.025 B1978.65 F1000
G1 X548.379 Y-188.030 B1978.65 F1000
G1 X548.139 Y-188.036 B1978.62 F1000
G1 X547.899 Y-188.042 B1978.50 F1000
G1 X547.659 Y-188.049 B1978.50 F1000
G1 X547.419 Y-188.055 B1978.50 F1000
G1 X547.179 Y-188.063 B1978.22 F1000
G1 X546.940 Y-188.077 B1976.52 F1000
G1 X546.700 Y-188.103 B1973.88 F1000
G1 X546.460 Y-188.129 B1973.88 F1000
G1 X546.220 Y-188.154 B1973.88 F1000
G1 X545.980 Y-188.180 B1973.88 F1000
G1 X545.740 Y-188.206 B1973.88 F1000
G1 X545.500 Y-188.232 B1973.87 F1000
G1 X545.260 Y-188.257 B1973.88 F1000
G1 X545.020 Y-188.283 B1973.90 F1000
G1 X544.781 Y-188.311 B1973.41 F1000
G1 X544.541 Y-188.357 B1968.95 F1000
G1 X544.301 Y-188.375 B1975.78 F1000
G1 X544.061 Y-188.388 B1976.91 F1000
G1 X543.821 Y-188.433 B1969.49 F1000
G1 X543.581 Y-188.490 B1966.54 F1000
G1 X543.341 Y-188.547 B1966.54 F1000
G1 X543.101 Y-188.603 B1967.04 F1000
G1 X542.861 Y-188.656 B1967.47 F1000
G1 X542.622 Y-188.709 B1967.47 F1000
G1 X542.382 Y-188.763 B1967.47 F1000
G1 X542.142 Y-188.817 B1967.25 F1000
G1 X541.902 Y-188.881 B1965.14 F1000
G1 X541.662 Y-188.944 B1965.14 F1000
G1 X541.422 Y-189.008 B1965.14 F1000
G1 X541.182 Y-189.075 B1964.32 F1000
G1 X540.942 Y-189.154 B1961.72 F1000
G1 X540.702 Y-189.238 B1960.81 F1000
G1 X540.463 Y-189.321 B1960.81 F1000
G1 X540.223 Y-189.405 B1960.81 F1000
G1 X539.983 Y-189.488 B1960.81 F1000
G1 X539.743 Y-189.572 B1960.81 F1000
G1 X539.503 Y-189.655 B1960.81 F1000
G1 X539.263 Y-189.737 B1961.33 F1000
G1 X539.023 Y-189.816 B1961.75 F1000
G1 X538.783 Y-189.895 B1961.75 F1000
G1 X538.544 Y-189.974 B1961.75 F1000
G1 X538.304 Y-190.053 B1961.75 F1000
G1 X538.064 Y-190.132 B1961.75 F1000
G1 X537.824 Y-190.211 B1961.75 F1000
G1 X537.584 Y-190.290 B1961.75 F1000
G1 X537.344 Y-190.393 B1956.84 F1000
G1 X537.104 Y-190.497 B1956.46 F1000
G1 X536.864 Y-190.602 B1956.46 F1000
G1 X536.624 Y-190.706 B1956.46 F1000
G1 X536.385 Y-190.811 B1956.46 F1000
G1 X536.145 Y-190.915 B1956.46 F1000
G1 X535.905 Y-191.022 B1955.96 F1000
G1 X535.665 Y-191.130 B1955.75 F1000
G1 X535.425 Y-191.238 B1955.75 F1000
G1 X535.185 Y-191.347 B1955.75 F1000
G1 X534.945 Y-191.455 B1955.75 F1000
G1 X534.705 Y-191.563 B1955.75 F1000
G1 X534.481 Y-191.665 B1955.54 F1000
G1 Z10.000 F500
G1 B2070.00 F1000
G1 Z0.000 F500
G1 X534.481 Y-176.225 B2070.00 F1000
G1 Z10.000 F500
G1 B1980.00 F1000
G1 Z0.000 F500
G1 X531.331 Y-176.225 B1980.00 F1000
G1 Z10.000 F500
G1 B1890.00 F1000
G1 Z0.000 F500
G1 X531.331 Y-193.393 B1890.00 F1000
G1 Z10.000 F500
G1 B1948.23 F1000
G1 Z0.000 F500
G1 X531.107 Y-193.532 B1948.23 F1000
G1 X530.867 Y-193.680 B1948.23 F1000
G1 X530.627 Y-193.829 B1948.23 F1000
G1 X530.387 Y-193.978 B1948.23 F1000
G1 X530.147 Y-194.126 B1948.23 F1000
G1 X529.908 Y-194.275 B1948.23 F1000
G1 X529.668 Y-194.423 B1948.23 F1000
G1 X529.428 Y-194.575 B1947.73 F1000
G1 X529.188 Y-194.736 B1946.15 F1000
G1 X528.948 Y-194.897 B1946.15 F1000
G1 X528.708 Y-195.058 B1946.15 F1000
G1 X528.468 Y-195.218 B1946.15 F1000
G1 X528.228 Y-195.379 B1946.15 F1000
G1 X527.989 Y-195.542 B1945.94 F1000
G1 X527.749 Y-195.711 B1944.82 F1000
G1 X527.509 Y-195.880 B1944.82 F1000
G1 X527.269 Y-196.049 B1944.82 F1000
G1 X527.029 Y-196.218 B1944.82 F1000
G1 X526.789 Y-196.389 B1944.48 F1000
G1 X526.549 Y-196.572 B1942.67 F1000
G1 X526.309 Y-196.755 B1942.67 F1000
G1 X526.069 Y-196.938 B1942.67 F1000
G1 X525.830 Y-197.121 B1942.67 F1000
G1 X525.590 Y-197.304 B1942.67 F1000
G1 X525.350 Y-197.493 B1941.85 F1000
G1 X525.110 Y-197.689 B1940.72 F1000
G1 X524.870 Y-197.885 B1940.72 F1000
G1 X524.630 Y-198.081 B1940.72 F1000
G1 X524.390 Y-198.277 B1940.72 F1000
G1 X524.150 Y-198.483 B1939.41 F1000
G1 X523.910 Y-198.694 B1938.72 F1000
G1 X523.671 Y-198.904 B1938.72 F1000
G1 X523.431 Y-199.115 B1938.72 F1000
G1 X523.191 Y-199.325 B1938.72 F1000
G1 X522.951 Y-199.546 B1937.46 F1000
G1 X522.711 Y-199.766 B1937.46 F1000
G1 X522.471 Y-199.986 B1937.46 F1000
G1 X522.231 Y-200.206 B1937.46 F1000
G1 X521.991 Y-200.426 B1937.46 F1000
G1 X521.751 Y-200.658 B1935.95 F1000
G1 X521.512 Y-200.895 B1935.41 F1000
G1 X521.272 Y-201.131 B1935.41 F1000
G1 X521.032 Y-201.368 B1935.41 F1000
G1 X520.792 Y-201.604 B1935.39 F1000
G1 X520.552 Y-201.841 B1935.34 F1000
G1 X520.312 Y-202.080 B1935.16 F1000
G1 X520.072 Y-202.330 B1933.76 F1000
G1 X519.832 Y-202.599 B1931.76 F1000
G1 X519.592 Y-202.889 B1929.64 F1000
G1 X519.353 Y-203.178 B1929.64 F1000
G1 X519.113 Y-203.468 B1929.64 F1000
G1 X518.873 Y-204.456 B1903.65 F1000
G1 Z10.000 F500
G1 B1986.34 F1000
G1 Z0.000 F500
G1 X518.633 Y-204.429 B1986.34 F1000
G1 X518.393 Y-204.402 B1986.34 F1000
G1 X518.153 Y-204.382 B1984.93 F1000
G1 X517.913 Y-204.377 B1981.02 F1000
G1 X517.673 Y-204.388 B1977.38 F1000
G1 X517.434 Y-204.418 B1973.04 F1000
G1 X517.194 Y-204.470 B1967.73 F1000
G1 X516.954 Y-204.554 B1960.59 F1000
G1 X516.714 Y-204.718 B1945.75 F1000
G1 X516.474 Y-205.044 B1926.29 F1000
G1 X516.234 Y-205.374 B1926.07 F1000
G1 X515.994 Y-205.712 B1925.33 F1000
G1 X515.754 Y-206.055 B1924.98 F1000
G1 X515.514 Y-206.403 B1924.55 F1000
G1 X515.275 Y-206.760 B1923.91 F1000
G1 X515.035 Y-207.121 B1923.59 F1000
G1 X514.795 Y-207.487 B1923.23 F1000
G1 X514.555 Y-207.854 B1923.23 F1000
G1 X514.315 Y-208.227 B1922.70 F1000
G1 X514.075 Y-208.605 B1922.38 F1000
G1 X513.835 Y-208.988 B1922.11 F1000
G1 X513.595 Y-209.370 B1922.10 F1000
G1 X513.355 Y-209.763 B1921.37 F1000
G1 X513.116 Y-212.260 B1895.49 F1000
G1 X512.876 Y-212.669 B1920.42 F1000
G1 X512.636 Y-213.105 B1918.79 F1000
G1 X512.396 Y-213.604 B1915.70 F1000
G1 X512.156 Y-214.118 B1915.00 F1000
G1 X511.916 Y-214.664 B1913.74 F1000
G1 X511.676 Y-215.211 B1913.68 F1000
G1 X511.436 Y-216.214 B1903.45 F1000
G1 Z10.000 F500
G1 B1940.20 F1000
G1 Z0.000 F500
G1 X511.196 Y-216.414 B1940.20 F1000
G1 Z10.000 F500
G1 B1909.06 F1000
G1 Z0.000 F500
G1 X511.024 Y-216.912 B1909.06 F1000
G1 Z10.000 F500
G1 B1980.00 F1000
G1 Z0.000 F500
G1 X497.561 Y-216.912 B1980.00 F1000
G1 Z10.000 F500
G1 B2070.00 F1000
G1 Z0.000 F500
G1 X497.561 Y-188.434 B2070.00 F1000
G1 Z10.000 F500
G1 B1980.00 F1000
G1 Z0.000 F500
G1 X494.411 Y-188.434 B1980.00 F1000
G1 Z10.000 F500
G1 B1890.00 F1000
G1 Z0.000 F500
G1 X494.411 Y-216.912 B1890.00 F1000
G1 Z10.000 F500
G1 B1980.00 F1000
G1 Z0.000 F500
G1 X460.641 Y-216.912 B1980.00 F1000
G1 Z10.000 F500
G1 B2070.00 F1000
G1 Z0.000 F500
G1 X460.641 Y-188.434 B2070.00 F1000
G1 Z10.000 F500
G1 B1980.00 F1000
G1 Z0.000 F500
G1 X457.491 Y-188.434 B1980.00 F1000
G1 Z10.000 F500
G1 B1890.00 F1000
G1 Z0.000 F500
G1 X457.491 Y-216.912 B1890.00 F1000
G1 Z10.000 F500
G1 B1980.00 F1000
G1 Z0.000 F500
G1 X449.066 Y-216.912 B1980.00 F1000
G1 Z10.000 F500
G1 B2070.00 F1000
G1 Z0.000 F500
G1 X449.066 Y-159.956 B2070.00 F1000
G1 Z10.000 F500
G1 B2160.00 F1000
G1 Z0.000 F500
G1 X616.746 Y-159.956 B2160.00 F1000
G1 Z10.000 F500
G1 Z10.000 F500
G0 X792.746 Y-159.956
G1 Z10.000 F500
G1 B2250.00 F1000
G1 Z0.000 F500
G1 X792.746 Y-216.912 B2250.00 F1000
G1 Z10.000 F500
G1 B2340.00 F1000
G1 Z0.000 F500
G1 X625.066 Y-216.912 B2340.00 F1000
G1 Z10.000 F500
G1 B2430.00 F1000
G1 Z0.000 F500
G1 X625.066 Y-159.956 B2430.00 F1000
G1 Z10.000 F500
G1 B2520.00 F1000
G1 Z0.000 F500
G1 X633.491 Y-159.956 B2520.00 F1000
G1 Z10.000 F500
G1 B2610.00 F1000
G1 Z0.000 F500
G1 X633.491 Y-188.434 B2610.00 F1000
G1 Z10.000 F500
G1 B2520.00 F1000
G1 Z0.000 F500
G1 X636.641 Y-188.434 B2520.00 F1000
G1 Z10.000 F500
G1 B2430.00 F1000
G1 Z0.000 F500
G1 X636.641 Y-159.956 B2430.00 F1000
G1 Z10.000 F500
G1 B2520.00 F1000
G1 Z0.000 F500
G1 X656.319 Y-159.956 B2520.00 F1000
G1 Z10.000 F500
G1 B2609.41 F1000
G1 Z0.000 F500
G1 X656.491 Y-176.779 B2609.41 F1000
G1 X656.731 Y-179.347 B2604.66 F1000
G1 X656.971 Y-179.709 B2576.43 F1000
G1 X657.211 Y-179.859 B2552.00 F1000
G1 X657.451 Y-179.953 B2541.43 F1000
G1 X657.690 Y-180.008 B2532.99 F1000
G1 X657.930 Y-180.035 B2526.30 F1000
G1 X658.170 Y-180.035 B2520.02 F1000
G1 X658.410 Y-180.015 B2515.23 F1000
G1 X658.650 Y-179.980 B2511.66 F1000
G1 X658.890 Y-179.946 B2511.93 F1000
G1 X659.130 Y-179.911 B2511.83 F1000
G1 X659.370 Y-179.877 B2511.83 F1000
G1 X659.610 Y-179.842 B2511.83 F1000
G1 X659.849 Y-179.813 B2513.12 F1000
G1 X660.089 Y-179.785 B2513.21 F1000
G1 X660.329 Y-179.756 B2513.21 F1000
G1 Z10.000 F500
G1 B2436.42 F1000
G1 Z0.000 F500
G1 X660.569 Y-177.625 B2436.42 F1000
G1 Z10.000 F500
G1 B2521.66 F1000
G1 Z0.000 F500
G1 X660.809 Y-177.632 B2521.66 F1000
G1 X661.049 Y-177.639 B2521.66 F1000
G1 Z10.000 F500
G1 B2599.43 F1000
G1 Z0.000 F500
G1 X661.289 Y-178.925 B2599.43 F1000
G1 X661.529 Y-179.636 B2591.35 F1000
G1 Z10.000 F500
G1 B2514.27 F1000
G1 Z0.000 F500
G1 X661.769 Y-179.612 B2514.27 F1000
G1 X662.008 Y-179.599 B2516.81 F1000
G1 X662.248 Y-179.584 B2516.40 F1000
G1 X662.488 Y-179.569 B2516.49 F1000
G1 X662.728 Y-179.558 B2517.39 F1000
G1 X662.968 Y-179.547 B2517.39 F1000
G1 X663.208 Y-179.536 B2517.39 F1000
G1 X663.448 Y-179.525 B2517.39 F1000
G1 X663.688 Y-179.515 B2517.48 F1000
G1 X663.927 Y-179.504 B2517.49 F1000
G1 X664.167 Y-179.493 B2517.49 F1000
G1 X664.407 Y-179.483 B2517.49 F1000
G1 X664.647 Y-179.480 B2519.37 F1000
G1 X664.887 Y-179.493 B2522.99 F1000
G1 X665.127 Y-179.503 B2522.33 F1000
G1 X665.367 Y-179.500 B2519.43 F1000
G1 X665.607 Y-179.498 B2519.43 F1000
G1 X665.847 Y-179.495 B2519.43 F1000
G1 X666.086 Y-179.493 B2519.43 F1000
G1 X666.326 Y-179.491 B2519.43 F1000
G1 X666.566 Y-179.505 B2523.35 F1000
G1 X666.806 Y-179.526 B2525.05 F1000
G1 X667.046 Y-179.547 B2525.05 F1000
G1 X667.286 Y-179.568 B2525.05 F1000
G1 X667.526 Y-179.590 B2525.05 F1000
G1 X667.766 Y-179.609 B2524.54 F1000
G1 X668.006 Y-179.613 B2521.16 F1000
G1 X668.245 Y-179.620 B2521.54 F1000
G1 X668.485 Y-179.649 B2526.83 F1000
G1 X668.725 Y-179.677 B2526.83 F1000
G1 X668.965 Y-179.706 B2526.83 F1000
G1 X669.205 Y-179.735 B2526.83 F1000
G1 X669.445 Y-179.762 B2526.53 F1000
G1 X669.685 Y-179.784 B2525.26 F1000
G1 X669.925 Y-179.807 B2525.36 F1000
G1 X670.165 Y-179.848 B2529.64 F1000
G1 X670.404 Y-179.885 B2528.93 F1000
G1 X670.411 Y-179.886 B2527.08 F1000
G1 Z10.000 F500
G1 B2610.00 F1000
G1 Z0.000 F500
G1 X670.411 Y-198.502 B2610.00 F1000
G1 Z10.000 F500
G1 B2520.00 F1000
G1 Z0.000 F500
G1 X673.561 Y-198.502 B2520.00 F1000
G1 Z10.000 F500
G1 B2430.00 F1000
G1 Z0.000 F500
G1 X673.561 Y-180.404 B2430.00 F1000
G1 Z10.000 F500
G1 B2528.43 F1000
G1 Z0.000 F500
G1 X673.763 Y-180.434 B2528.43 F1000
G1 X674.003 Y-180.497 B2534.72 F1000
G1 X674.243 Y-180.560 B2534.72 F1000
G1 X674.482 Y-180.623 B2534.72 F1000
G1 X674.722 Y-180.686 B2534.72 F1000
G1 X674.962 Y-180.749 B2534.72 F1000
G1 X675.202 Y-180.812 B2534.72 F1000
G1 X675.442 Y-180.868 B2533.27 F1000
G1 X675.682 Y-180.919 B2531.99 F1000
G1 X675.922 Y-180.984 B2535.13 F1000
G1 X676.162 Y-181.049 B2535.11 F1000
G1 X676.402 Y-181.111 B2534.43 F1000
G1 X676.641 Y-181.172 B2534.43 F1000
G1 X676.881 Y-181.234 B2534.43 F1000
G1 X677.121 Y-181.296 B2534.43 F1000
G1 X677.361 Y-181.358 B2534.43 F1000
G1 X677.601 Y-181.445 B2539.99 F1000
G1 X677.841 Y-181.529 B2539.34 F1000
G1 X678.081 Y-181.589 B2534.11 F1000
G1 X678.321 Y-181.650 B2534.11 F1000
G1 X678.561 Y-181.710 B2534.11 F1000
G1 X678.800 Y-181.770 B2534.11 F1000
G1 X679.040 Y-181.831 B2534.11 F1000
G1 X679.280 Y-181.900 B2536.24 F1000
G1 X679.520 Y-181.987 B2539.86 F1000
G1 X679.760 Y-182.074 B2539.86 F1000
G1 X680.000 Y-182.160 B2539.86 F1000
G1 X680.240 Y-182.236 B2537.54 F1000
G1 X680.480 Y-182.291 B2532.77 F1000
G1 X680.720 Y-182.345 B2532.77 F1000
G1 X680.959 Y-182.399 B2532.77 F1000
G1 X681.199 Y-182.471 B2536.70 F1000
G1 X681.439 Y-182.547 B2537.41 F1000
G1 X681.679 Y-182.622 B2537.41 F1000
G1 X681.919 Y-182.697 B2537.41 F1000
G1 X682.159 Y-182.772 B2537.41 F1000
G1 X682.399 Y-182.848 B2537.41 F1000
G1 X682.639 Y-182.908 B2534.09 F1000
G1 X682.879 Y-182.956 B2531.48 F1000
G1 X683.118 Y-183.016 B2533.92 F1000
G1 X683.358 Y-183.075 B2533.92 F1000
G1 X683.598 Y-183.135 B2533.92 F1000
G1 X683.838 Y-183.194 B2533.92 F1000
G1 X684.078 Y-183.257 B2534.61 F1000
G1 X684.318 Y-183.322 B2535.22 F1000
G1 X684.558 Y-183.387 B2535.22 F1000
G1 X684.798 Y-183.453 B2535.22 F1000
G1 X685.037 Y-183.508 B2532.93 F1000
G1 X685.277 Y-183.560 B2532.22 F1000
G1 X685.517 Y-183.612 B2532.22 F1000
G1 X685.757 Y-183.663 B2532.22 F1000
G1 X685.997 Y-183.715 B2532.22 F1000
G1 X686.237 Y-183.771 B2533.01 F1000
G1 X686.477 Y-183.833 B2534.45 F1000
G1 X686.717 Y-183.889 B2533.23 F1000
G1 X686.957 Y-183.940 B2532.09 F1000
G1 X687.196 Y-183.992 B2532.09 F1000
G1 X687.436 Y-184.043 B2532.09 F1000
G1 X687.676 Y-184.095 B2532.09 F1000
G1 X687.916 Y-184.146 B2532.09 F1000
G1 X688.156 Y-184.197 B2532.09 F1000
G1 X688.396 Y-184.249 B2532.09 F1000
G1 X688.636 Y-184.300 B2532.09 F1000
G1 X688.876 Y-184.352 B2532.09 F1000
G1 X689.116 Y-184.403 B2532.09 F1000
G1 X689.355 Y-184.454 B2532.09 F1000
G1 X689.595 Y-184.506 B2532.09 F1000
G1 X689.835 Y-184.557 B2532.09 F1000
G1 X690.075 Y-184.615 B2533.45 F1000
G1 X690.315 Y-184.676 B2534.29 F1000
G1 X690.555 Y-184.737 B2534.29 F1000
G1 X690.795 Y-184.793 B2533.19 F1000
G1 X691.035 Y-184.844 B2532.03 F1000
G1 X691.275 Y-184.895 B2532.03 F1000
G1 X691.514 Y-184.955 B2534.07 F1000
G1 X691.754 Y-185.017 B2534.48 F1000
G1 X691.994 Y-185.078 B2534.23 F1000
G1 X692.234 Y-185.133 B2532.83 F1000
G1 X692.474 Y-185.187 B2532.83 F1000
G1 X692.714 Y-185.242 B2532.83 F1000
G1 X692.954 Y-185.305 B2534.75 F1000
G1 X693.194 Y-185.376 B2536.34 F1000
G1 X693.434 Y-185.446 B2536.34 F1000
G1 X693.673 Y-185.500 B2532.68 F1000
G1 X693.913 Y-185.545 B2530.55 F1000
G1 X694.153 Y-185.587 B2529.98 F1000
G1 X694.393 Y-185.626 B2529.31 F1000
G1 X694.633 Y-185.659 B2527.79 F1000
G1 X694.873 Y-185.690 B2527.44 F1000
G1 X695.113 Y-185.713 B2525.42 F1000
G1 X695.353 Y-185.739 B2526.09 F1000
G1 X695.592 Y-185.757 B2524.44 F1000
G1 X695.832 Y-185.772 B2523.49 F1000
G1 X696.072 Y-185.787 B2523.53 F1000
G1 X696.312 Y-185.792 B2521.40 F1000
G1 X696.552 Y-185.798 B2521.40 F1000
G1 X696.792 Y-185.804 B2521.40 F1000
G1 X697.032 Y-185.810 B2521.40 F1000
G1 X697.272 Y-185.814 B2521.04 F1000
G1 X697.512 Y-185.813 B2519.71 F1000
G1 X697.751 Y-185.811 B2519.58 F1000
G1 X697.991 Y-185.810 B2519.58 F1000
G1 X698.231 Y-185.720 B2499.44 F1000
G1 X698.471 Y-185.596 B2492.78 F1000
G1 Z10.000 F500
G1 B2432.66 F1000
G1 Z0.000 F500
G1 X698.711 Y-180.440 B2432.66 F1000
G1 Z10.000 F500
G1 B2520.00 F1000
G1 Z0.000 F500
G1 X698.951 Y-180.440 B2520.00 F1000
G1 Z10.000 F500
G1 B2607.41 F1000
G1 Z0.000 F500
G1 X699.191 Y-185.744 B2607.41 F1000
G1 Z10.000 F500
G1 B2554.82 F1000
G1 Z0.000 F500
G1 X699.431 Y-185.911 B2554.82 F1000
G1 X699.671 Y-186.013 B2543.10 F1000
G1 X699.910 Y-186.115 B2542.88 F1000
G1 X700.150 Y-186.207 B2541.12 F1000
G1 X700.390 Y-186.294 B2539.90 F1000
G1 X700.630 Y-186.379 B2539.51 F1000
G1 X700.870 Y-186.454 B2537.27 F1000
G1 X701.110 Y-186.523 B2536.21 F1000
G1 X701.350 Y-186.593 B2536.21 F1000
G1 X701.590 Y-186.657 B2534.86 F1000
G1 X701.830 Y-186.712 B2532.92 F1000
G1 X702.069 Y-186.767 B2532.96 F1000
G1 X702.309 Y-186.820 B2532.36 F1000
G1 X702.549 Y-186.861 B2529.75 F1000
G1 X702.789 Y-186.902 B2529.75 F1000
G1 X703.029 Y-186.941 B2529.21 F1000
G1 X703.269 Y-186.967 B2526.31 F1000
G1 X703.509 Y-186.993 B2526.06 F1000
G1 X703.749 Y-187.018 B2526.06 F1000
G1 X703.989 Y-187.036 B2524.26 F1000
G1 X704.228 Y-187.049 B2522.97 F1000
G1 X704.468 Y-187.062 B2523.10 F1000
G1 X704.708 Y-187.073 B2522.73 F1000
G1 X704.948 Y-187.073 B2520.10 F1000
G1 X705.188 Y-187.074 B2520.10 F1000
G1 X705.428 Y-187.073 B2519.85 F1000
G1 X705.668 Y-187.063 B2517.64 F1000
G1 X705.908 Y-187.051 B2516.98 F1000
G1 X706.147 Y-187.038 B2516.98 F1000
G1 X706.387 Y-187.024 B2516.64 F1000
G1 X706.627 Y-187.000 B2514.32 F1000
G1 X706.867 Y-186.976 B2514.32 F1000
G1 X707.107 Y-186.953 B2514.35 F1000
G1 X707.331 Y-186.926 B2513.12 F1000
G1 Z10.000 F500
G1 B2610.00 F1000
G1 Z0.000 F500
G1 X707.331 Y-201.788 B2610.00 F1000
G1 Z10.000 F500
G1 B2520.00 F1000
G1 Z0.000 F500
G1 X710.481 Y-201.788 B2520.00 F1000
G1 Z10.000 F500
G1 B2430.00 F1000
G1 Z0.000 F500
G1 X710.481 Y-186.293 B2430.00 F1000
G1 Z10.000 F500
G1 B2505.16 F1000
G1 Z0.000 F500
G1 X710.705 Y-186.233 B2505.16 F1000
G1 X710.945 Y-186.169 B2505.09 F1000
G1 X711.185 Y-186.098 B2503.34 F1000
G1 X711.425 Y-186.026 B2503.34 F1000
G1 X711.665 Y-185.954 B2503.36 F1000
G1 X711.905 Y-185.883 B2503.43 F1000
G1 X712.145 Y-185.782 B2497.29 F1000
G1 Z10.000 F500
G1 B2432.57 F1000
G1 Z0.000 F500
G1 X712.385 Y-180.440 B2432.57 F1000
G1 Z10.000 F500
G1 B2607.18 F1000
G1 Z0.000 F500
G1 X712.624 Y-185.317 B2607.18 F1000
G1 Z10.000 F500
G1 B2557.25 F1000
G1 Z0.000 F500
G1 X712.864 Y-185.500 B2557.25 F1000
G1 Z10.000 F500
G1 B2518.04 F1000
G1 Z0.000 F500
G1 X713.104 Y-185.491 B2518.04 F1000
G1 X713.344 Y-185.484 B2518.25 F1000
G1 X713.584 Y-185.477 B2518.29 F1000
G1 X713.824 Y-185.470 B2518.29 F1000
G1 X714.064 Y-185.464 B2518.58 F1000
G1 X714.304 Y-185.458 B2518.58 F1000
G1 X714.544 Y-185.452 B2518.58 F1000
G1 X714.783 Y-185.446 B2518.58 F1000
G1 X715.023 Y-185.437 B2517.92 F1000
G1 X715.263 Y-185.427 B2517.53 F1000
G1 X715.503 Y-185.418 B2517.97 F1000
G1 X715.743 Y-185.410 B2518.07 F1000
G1 X715.983 Y-185.402 B2518.07 F1000
G1 X716.223 Y-185.394 B2518.07 F1000
G1 X716.463 Y-185.386 B2518.02 F1000
G1 X716.702 Y-185.377 B2517.85 F1000
G1 X716.942 Y-185.368 B2517.85 F1000
G1 X717.182 Y-185.359 B2517.85 F1000
G1 X717.422 Y-185.350 B2517.85 F1000
G1 X717.662 Y-185.341 B2517.85 F1000
G1 X717.902 Y-185.332 B2517.85 F1000
G1 X718.142 Y-185.322 B2517.72 F1000
G1 X718.382 Y-185.311 B2517.31 F1000
G1 X718.622 Y-185.301 B2517.58 F1000
G1 X718.861 Y-185.291 B2517.75 F1000
G1 X719.101 Y-185.282 B2517.76 F1000
G1 X719.341 Y-185.273 B2517.79 F1000
G1 X719.581 Y-185.264 B2517.79 F1000
G1 X719.821 Y-185.254 B2517.79 F1000
G1 X720.061 Y-185.245 B2517.79 F1000
G1 X720.301 Y-185.236 B2517.79 F1000
G1 X720.541 Y-185.227 B2517.92 F1000
G1 X720.781 Y-185.216 B2517.40 F1000
G1 X721.020 Y-185.209 B2518.39 F1000
G1 X721.260 Y-185.207 B2519.46 F1000
G1 X721.500 Y-185.213 B2521.41 F1000
G1 X721.740 Y-185.228 B2523.55 F1000
G1 X721.980 Y-185.247 B2524.53 F1000
G1 X722.220 Y-185.272 B2526.01 F1000
G1 X722.460 Y-185.298 B2526.01 F1000
G1 X722.700 Y-185.318 B2524.81 F1000
G1 X722.940 Y-185.336 B2524.45 F1000
G1 X723.179 Y-185.343 B2521.54 F1000
G1 X723.419 Y-185.334 B2517.84 F1000
G1 X723.659 Y-185.313 B2514.98 F1000
G1 X723.899 Y-185.283 B2513.00 F1000
G1 X724.139 Y-185.250 B2512.09 F1000
G1 X724.379 Y-185.216 B2511.89 F1000
G1 X724.619 Y-185.179 B2511.27 F1000
G1 X724.859 Y-185.139 B2510.61 F1000
G1 X725.098 Y-185.104 B2511.66 F1000
G1 X725.338 Y-185.068 B2511.56 F1000
G1 X725.578 Y-185.040 B2513.23 F1000
G1 X725.818 Y-185.016 B2514.37 F1000
G1 X726.058 Y-184.997 B2515.50 F1000
G1 X726.298 Y-184.983 B2516.65 F1000
G1 X726.538 Y-184.973 B2517.50 F1000
G1 X726.778 Y-184.963 B2517.52 F1000
G1 X727.018 Y-184.952 B2517.47 F1000
G1 X727.257 Y-184.941 B2517.47 F1000
G1 X727.497 Y-184.931 B2517.47 F1000
G1 X727.737 Y-184.920 B2517.38 F1000
G1 X727.977 Y-184.909 B2517.30 F1000
G1 X728.217 Y-184.897 B2517.30 F1000
G1 X728.457 Y-184.886 B2517.30 F1000
G1 X728.697 Y-184.874 B2517.19 F1000
G1 X728.937 Y-184.862 B2517.15 F1000
G1 X729.177 Y-184.850 B2517.15 F1000
G1 X729.416 Y-184.838 B2517.15 F1000
G1 X729.656 Y-184.826 B2517.14 F1000
G1 X729.896 Y-184.814 B2517.11 F1000
G1 X730.136 Y-184.802 B2517.11 F1000
G1 X730.376 Y-184.790 B2517.11 F1000
G1 X730.616 Y-184.778 B2517.11 F1000
G1 X730.856 Y-184.766 B2517.11 F1000
G1 X731.096 Y-184.754 B2517.11 F1000
G1 X731.336 Y-184.742 B2517.11 F1000
G1 X731.575 Y-184.729 B2517.10 F1000
G1 X731.815 Y-184.717 B2517.10 F1000
G1 X732.055 Y-184.705 B2517.10 F1000
G1 X732.295 Y-184.693 B2517.10 F1000
G1 X732.535 Y-184.681 B2517.10 F1000
G1 X732.775 Y-184.669 B2517.10 F1000
G1 X733.015 Y-184.657 B2517.10 F1000
G1 X733.255 Y-184.644 B2517.10 F1000
G1 X733.495 Y-184.632 B2517.10 F1000
G1 X733.734 Y-184.620 B2517.03 F1000
G1 X733.974 Y-184.606 B2516.62 F1000
G1 X734.214 Y-184.592 B2516.62 F1000
G1 X734.454 Y-184.577 B2516.62 F1000
G1 X734.694 Y-184.563 B2516.62 F1000
G1 X734.934 Y-184.549 B2516.62 F1000
G1 X735.174 Y-184.535 B2516.62 F1000
G1 X735.414 Y-184.521 B2516.62 F1000
G1 X735.653 Y-184.506 B2516.62 F1000
G1 X735.893 Y-184.492 B2516.62 F1000
G1 X736.133 Y-184.478 B2516.62 F1000
G1 X736.373 Y-184.464 B2516.75 F1000
G1 X736.613 Y-184.450 B2516.59 F1000
G1 X736.853 Y-184.432 B2515.70 F1000
G1 X737.093 Y-184.414 B2515.63 F1000
G1 X737.333 Y-184.398 B2516.28 F1000
G1 X737.573 Y-184.383 B2516.30 F1000
G1 X737.812 Y-184.367 B2516.30 F1000
G1 X738.052 Y-184.352 B2516.30 F1000
G1 X738.292 Y-184.336 B2516.30 F1000
G1 X738.532 Y-184.321 B2516.30 F1000
G1 X738.772 Y-184.303 B2515.72 F1000
G1 X739.012 Y-184.284 B2515.45 F1000
G1 X739.252 Y-184.263 B2515.01 F1000
G1 X739.492 Y-184.242 B2515.01 F1000
G1 X739.732 Y-184.217 B2514.11 F1000
G1 X739.971 Y-184.191 B2513.91 F1000
G1 X740.211 Y-184.166 B2513.91 F1000
G1 X740.451 Y-184.140 B2513.91 F1000
G1 X740.691 Y-184.116 B2514.13 F1000
G1 X740.931 Y-184.093 B2514.51 F1000
G1 X741.171 Y-184.069 B2514.51 F1000
G1 X741.411 Y-184.046 B2514.51 F1000
G1 X741.651 Y-184.023 B2514.51 F1000
G1 X741.891 Y-184.000 B2514.51 F1000
G1 X742.130 Y-183.972 B2513.28 F1000
G1 X742.370 Y-183.940 B2512.30 F1000
G1 X742.610 Y-183.907 B2512.30 F1000
G1 X742.850 Y-183.873 B2511.95 F1000
G1 X743.090 Y-183.836 B2511.07 F1000
G1 X743.330 Y-183.800 B2511.62 F1000
G1 X743.570 Y-183.765 B2511.62 F1000
G1 X743.810 Y-183.729 B2511.62 F1000
G1 X744.050 Y-183.692 B2511.12 F1000
G1 X744.251 Y-183.660 B2511.06 F1000
G1 Z10.000 F500
G1 B2610.00 F1000
G1 Z0.000 F500
G1 X744.251 Y-200.148 B2610.00 F1000
G1 Z10.000 F500
G1 B2520.00 F1000
G1 Z0.000 F500
G1 X747.401 Y-200.148 B2520.00 F1000
G1 Z10.000 F500
G1 B2430.00 F1000
G1 Z0.000 F500
G1 X747.401 Y-183.038 B2430.00 F1000
G1 Z10.000 F500
G1 B2507.28 F1000
G1 Z0.000 F500
G1 X747.408 Y-183.037 B2507.28 F1000
G1 X747.648 Y-182.974 B2505.24 F1000
G1 X747.888 Y-182.906 B2504.35 F1000
G1 X748.128 Y-182.839 B2504.35 F1000
G1 X748.367 Y-182.772 B2504.35 F1000
G1 X748.607 Y-182.706 B2504.61 F1000
G1 X748.847 Y-182.641 B2504.73 F1000
G1 X749.087 Y-182.575 B2504.73 F1000
G1 X749.327 Y-182.510 B2504.84 F1000
G1 X749.567 Y-182.446 B2505.06 F1000
G1 X749.807 Y-182.366 B2501.45 F1000
G1 X750.047 Y-182.287 B2501.88 F1000
G1 X750.287 Y-182.211 B2502.36 F1000
G1 X750.526 Y-182.136 B2502.72 F1000
G1 X750.766 Y-182.065 B2503.41 F1000
G1 X751.006 Y-181.997 B2504.18 F1000
G1 X751.246 Y-181.933 B2505.20 F1000
G1 X751.486 Y-181.858 B2502.64 F1000
G1 X751.726 Y-181.783 B2502.45 F1000
G1 X751.966 Y-181.694 B2499.65 F1000
G1 X752.206 Y-181.605 B2499.65 F1000
G1 X752.446 Y-181.517 B2499.84 F1000
G1 X752.685 Y-181.431 B2500.44 F1000
G1 X752.925 Y-181.347 B2500.54 F1000
G1 X753.165 Y-181.262 B2500.51 F1000
G1 X753.405 Y-181.176 B2500.39 F1000
G1 X753.645 Y-181.091 B2500.39 F1000
G1 X753.885 Y-180.994 B2498.04 F1000
G1 X754.125 Y-180.870 B2492.63 F1000
G1 X754.365 Y-180.745 B2492.60 F1000
G1 X754.605 Y-180.621 B2492.55 F1000
G1 X754.844 Y-180.496 B2492.55 F1000
G1 X755.084 Y-180.372 B2492.55 F1000
G1 X755.324 Y-180.246 B2492.38 F1000
G1 X755.564 Y-180.120 B2492.25 F1000
G1 X755.804 Y-179.994 B2492.25 F1000
G1 X756.044 Y-179.833 B2486.14 F1000
G1 X756.284 Y-179.661 B2484.34 F1000
G1 X756.524 Y-179.488 B2484.34 F1000
G1 X756.763 Y-179.317 B2484.38 F1000
G1 X757.003 Y-179.145 B2484.40 F1000
G1 X757.243 Y-178.973 B2484.40 F1000
G1 X757.483 Y-178.801 B2484.40 F1000
G1 X757.723 Y-178.630 B2484.40 F1000
G1 X757.963 Y-178.408 B2477.25 F1000
G1 X758.203 Y-178.181 B2476.60 F1000
G1 X758.443 Y-177.954 B2476.60 F1000
G1 X758.683 Y-177.727 B2476.60 F1000
G1 X758.922 Y-177.500 B2476.60 F1000
G1 X759.162 Y-177.274 B2476.60 F1000
G1 X759.402 Y-177.047 B2476.60 F1000
G1 X759.642 Y-176.774 B2471.30 F1000
G1 X759.882 Y-176.503 B2471.54 F1000
G1 X760.122 Y-176.232 B2471.48 F1000
G1 X760.362 Y-175.967 B2472.25 F1000
G1 X760.602 Y-175.710 B2472.94 F1000
G1 X760.842 Y-175.457 B2473.53 F1000
G1 X761.081 Y-175.192 B2472.08 F1000
G1 X761.321 Y-174.909 B2470.38 F1000
G1 X761.561 Y-174.632 B2470.90 F1000
G1 X761.801 Y-174.371 B2472.49 F1000
G1 X762.041 Y-174.110 B2472.64 F1000
G1 X762.281 Y-173.850 B2472.68 F1000
G1 X762.521 Y-173.577 B2471.27 F1000
G1 X762.761 Y-173.302 B2471.15 F1000
G1 X763.001 Y-173.027 B2471.10 F1000
G1 X763.240 Y-172.735 B2469.42 F1000
G1 X763.480 Y-172.448 B2469.85 F1000
G1 X763.720 Y-172.159 B2469.75 F1000
G1 X763.960 Y-171.871 B2469.75 F1000
G1 X764.200 Y-171.582 B2469.69 F1000
G1 X764.440 Y-171.281 B2468.53 F1000
G1 X764.680 Y-170.972 B2467.87 F1000
G1 X764.920 Y-170.676 B2469.03 F1000
G1 X765.160 Y-170.382 B2469.19 F1000
G1 X765.399 Y-170.089 B2469.27 F1000
G1 X765.639 Y-169.786 B2468.37 F1000
G1 X765.879 Y-169.473 B2467.53 F1000
G1 X766.119 Y-169.163 B2467.72 F1000
G1 X766.359 Y-168.859 B2468.22 F1000
G1 X766.599 Y-168.550 B2467.84 F1000
G1 X766.839 Y-168.221 B2466.15 F1000
G1 X767.079 Y-167.893 B2466.15 F1000
G1 X767.318 Y-167.572 B2466.79 F1000
G1 X767.558 Y-167.259 B2467.45 F1000
G1 X767.798 Y-166.955 B2468.26 F1000
G1 X768.038 Y-166.643 B2467.60 F1000
G1 X768.278 Y-166.329 B2467.33 F1000
G1 X768.518 Y-166.014 B2467.33 F1000
G1 X768.758 Y-165.692 B2466.69 F1000
G1 X768.998 Y-165.355 B2465.45 F1000
G1 X769.238 Y-165.001 B2464.09 F1000
G1 X769.477 Y-164.649 B2464.25 F1000
G1 X769.717 Y-164.295 B2464.12 F1000
G1 X769.957 Y-163.938 B2463.91 F1000
G1 X770.197 Y-163.568 B2462.98 F1000
G1 X770.437 Y-163.176 B2461.43 F1000
G1 X770.677 Y-162.783 B2461.43 F1000
G1 X770.917 Y-162.395 B2461.74 F1000
G1 X771.157 Y-162.008 B2461.80 F1000
G1 X771.397 Y-161.592 B2459.95 F1000
G1 X771.636 Y-161.135 B2457.70 F1000
G1 X771.876 Y-160.681 B2457.85 F1000
G1 X772.116 Y-160.231 B2458.04 F1000
G1 X772.263 Y-159.956 B2458.04 F1000
G1 Z10.000 F500
G1 B2520.00 F1000
G1 Z0.000 F500
G1 X781.171 Y-159.956 B2520.00 F1000
G1 Z10.000 F500
G1 B2610.00 F1000
G1 Z0.000 F500
G1 X781.171 Y-188.434 B2610.00 F1000
G1 Z10.000 F500
G1 B2520.00 F1000
G1 Z0.000 F500
G1 X784.321 Y-188.434 B2520.00 F1000
G1 Z10.000 F500
G1 B2430.00 F1000
G1 Z0.000 F500
G1 X784.321 Y-159.956 B2430.00 F1000
G1 Z10.000 F500
G1 B2520.00 F1000
G1 Z0.000 F500
G1 X792.746 Y-159.956 B2520.00 F1000
G1 Z10.000 F500
G1 Z10.000 F500
G0 X968.746 Y-159.956
G1 Z10.000 F500
G1 B2610.00 F1000
G1 Z0.000 F500
G1 X968.746 Y-216.912 B2610.00 F1000
G1 Z10.000 F500
G1 B2700.00 F1000
G1 Z0.000 F500
G1 X801.066 Y-216.912 B2700.00 F1000
G1 Z10.000 F500
G1 B2790.00 F1000
G1 Z0.000 F500
G1 X801.066 Y-159.956 B2790.00 F1000
G1 Z10.000 F500
G1 B2880.00 F1000
G1 Z0.000 F500
G1 X809.491 Y-159.956 B2880.00 F1000
G1 Z10.000 F500
G1 B2970.00 F1000
G1 Z0.000 F500
G1 X809.491 Y-188.434 B2970.00 F1000
G1 Z10.000 F500
G1 B2880.00 F1000
G1 Z0.000 F500
G1 X812.641 Y-188.434 B2880.00 F1000
G1 Z10.000 F500
G1 B2790.00 F1000
G1 Z0.000 F500
G1 X812.641 Y-167.111 B2790.00 F1000
G1 Z10.000 F500
G1 B2958.59 F1000
G1 Z0.000 F500
G1 X812.820 Y-168.000 B2958.59 F1000
G1 X813.060 Y-168.625 B2949.00 F1000
G1 X813.300 Y-169.202 B2947.43 F1000
G1 X813.540 Y-169.611 B2939.65 F1000
G1 X813.780 Y-169.958 B2935.32 F1000
G1 X814.020 Y-170.310 B2935.73 F1000
G1 X814.260 Y-170.607 B2931.02 F1000
G1 X814.500 Y-170.836 B2923.69 F1000
G1 X814.739 Y-171.065 B2923.69 F1000
G1 X814.979 Y-171.298 B2924.22 F1000
G1 X815.219 Y-171.533 B2924.41 F1000
G1 X815.459 Y-171.707 B2915.82 F1000
G1 X815.699 Y-171.862 B2912.91 F1000
G1 X815.939 Y-172.017 B2912.91 F1000
G1 X816.179 Y-172.172 B2912.91 F1000
G1 X816.419 Y-172.327 B2912.91 F1000
G1 X816.659 Y-172.471 B2910.92 F1000
G1 X816.898 Y-172.574 B2903.21 F1000
G1 X817.138 Y-172.677 B2903.18 F1000
G1 X817.378 Y-172.779 B2903.18 F1000
G1 X817.618 Y-172.882 B2903.18 F1000
G1 X817.858 Y-172.985 B2903.18 F1000
G1 X818.098 Y-173.090 B2903.59 F1000
G1 X818.338 Y-173.166 B2897.71 F1000
G1 X818.578 Y-173.233 B2895.61 F1000
G1 X818.818 Y-173.300 B2895.61 F1000
G1 X819.057 Y-173.367 B2895.61 F1000
G1 X819.297 Y-173.435 B2895.78 F1000
G1 X819.537 Y-173.507 B2896.66 F1000
G1 X819.777 Y-173.579 B2896.66 F1000
G1 X820.017 Y-173.627 B2891.36 F1000
G1 X820.257 Y-173.666 B2889.20 F1000
G1 X820.497 Y-173.705 B2889.20 F1000
G1 X820.737 Y-173.745 B2889.61 F1000
G1 X820.976 Y-173.789 B2890.47 F1000
G1 X821.216 Y-173.834 B2890.47 F1000
G1 X821.456 Y-173.878 B2890.47 F1000
G1 X821.696 Y-173.912 B2887.98 F1000
G1 X821.936 Y-173.927 B2883.70 F1000
G1 X822.176 Y-173.945 B2884.22 F1000
G1 X822.416 Y-173.966 B2885.11 F1000
G1 X822.656 Y-173.988 B2885.11 F1000
G1 X822.896 Y-174.009 B2885.11 F1000
G1 X823.135 Y-174.031 B2885.11 F1000
G1 X823.375 Y-174.052 B2885.11 F1000
G1 X823.615 Y-174.052 B2879.88 F1000
G1 X823.855 Y-174.054 B2880.44 F1000
G1 X824.095 Y-174.054 B2880.22 F1000
G1 X824.335 Y-174.052 B2879.39 F1000
G1 X824.575 Y-174.049 B2879.39 F1000
G1 X824.815 Y-174.047 B2879.39 F1000
G1 X825.055 Y-174.046 B2879.87 F1000
G1 X825.294 Y-174.040 B2878.52 F1000
G1 X825.534 Y-174.021 B2875.36 F1000
G1 X825.774 Y-174.001 B2875.36 F1000
G1 X826.014 Y-173.982 B2875.36 F1000
G1 X826.254 Y-173.962 B2875.36 F1000
G1 X826.494 Y-173.944 B2875.66 F1000
G1 X826.734 Y-173.932 B2877.18 F1000
G1 X826.974 Y-173.917 B2876.45 F1000
G1 X827.214 Y-173.884 B2872.01 F1000
G1 X827.453 Y-173.850 B2872.01 F1000
G1 X827.693 Y-173.816 B2872.01 F1000
G1 X827.933 Y-173.784 B2872.41 F1000
G1 X828.173 Y-173.759 B2873.84 F1000
G1 X828.413 Y-173.733 B2873.84 F1000
G1 X828.653 Y-173.705 B2873.47 F1000
G1 X828.893 Y-173.661 B2869.56 F1000
G1 X829.133 Y-173.617 B2869.56 F1000
G1 X829.372 Y-173.573 B2869.56 F1000
G1 X829.612 Y-173.528 B2869.56 F1000
G1 X829.852 Y-173.484 B2869.56 F1000
G1 X830.092 Y-173.440 B2869.56 F1000
G1 X830.332 Y-173.396 B2869.56 F1000
G1 X830.572 Y-173.349 B2868.96 F1000
G1 X830.812 Y-173.299 B2868.33 F1000
G1 X831.052 Y-173.250 B2868.33 F1000
G1 X831.292 Y-173.201 B2868.61 F1000
G1 X831.531 Y-173.168 B2872.12 F1000
G1 X831.771 Y-173.135 B2872.12 F1000
G1 X832.011 Y-173.086 B2868.52 F1000
G1 X832.251 Y-173.033 B2867.40 F1000
G1 X832.491 Y-172.979 B2867.40 F1000
G1 X832.731 Y-172.925 B2867.40 F1000
G1 X832.971 Y-172.872 B2867.41 F1000
G1 X833.211 Y-172.831 B2870.31 F1000
G1 X833.451 Y-172.790 B2870.31 F1000
G1 X833.690 Y-172.749 B2870.31 F1000
G1 X833.930 Y-172.708 B2870.31 F1000
G1 X834.170 Y-172.667 B2870.31 F1000
G1 X834.410 Y-172.624 B2869.81 F1000
G1 X834.650 Y-172.581 B2869.77 F1000
G1 X834.890 Y-172.537 B2869.77 F1000
G1 X835.130 Y-172.500 B2871.19 F1000
G1 X835.370 Y-172.471 B2873.04 F1000
G1 X835.610 Y-172.442 B2873.04 F1000
G1 X835.849 Y-172.412 B2873.04 F1000
G1 X836.089 Y-172.383 B2873.04 F1000
G1 X836.329 Y-172.354 B2873.04 F1000
G1 X836.569 Y-172.325 B2873.04 F1000
G1 X836.809 Y-172.295 B2873.04 F1000
G1 X837.049 Y-172.270 B2873.96 F1000
G1 X837.289 Y-172.259 B2877.50 F1000
G1 X837.529 Y-172.249 B2877.50 F1000
G1 X837.769 Y-172.238 B2877.50 F1000
G1 X838.008 Y-172.232 B2878.40 F1000
G1 X838.248 Y-172.227 B2878.84 F1000
G1 X838.488 Y-172.222 B2878.84 F1000
G1 X838.728 Y-172.217 B2878.84 F1000
G1 X838.968 Y-172.207 B2877.50 F1000
G1 X839.208 Y-172.198 B2877.87 F1000
G1 X839.448 Y-172.200 B2880.45 F1000
G1 X839.688 Y-172.212 B2883.01 F1000
G1 X839.927 Y-172.230 B2884.23 F1000
G1 X840.167 Y-172.252 B2885.23 F1000
G1 X840.407 Y-172.274 B2885.23 F1000
G1 X840.647 Y-172.297 B2885.51 F1000
G1 X840.887 Y-172.333 B2888.62 F1000
G1 X841.127 Y-172.370 B2888.62 F1000
G1 X841.367 Y-172.406 B2888.62 F1000
G1 X841.607 Y-172.442 B2888.62 F1000
G1 X841.847 Y-172.482 B2889.43 F1000
G1 X842.086 Y-172.539 B2893.35 F1000
G1 X842.326 Y-172.600 B2894.32 F1000
G1 X842.566 Y-172.662 B2894.32 F1000
G1 X842.806 Y-172.723 B2894.32 F1000
G1 X843.046 Y-172.784 B2894.32 F1000
G1 X843.286 Y-172.845 B2894.23 F1000
G1 X843.526 Y-172.922 B2897.83 F1000
G1 X843.766 Y-173.007 B2899.55 F1000
G1 X844.006 Y-173.093 B2899.55 F1000
G1 X844.245 Y-173.178 B2899.55 F1000
G1 X844.485 Y-173.263 B2899.55 F1000
G1 X844.725 Y-173.351 B2900.15 F1000
G1 X844.965 Y-173.458 B2904.10 F1000
G1 X845.205 Y-173.566 B2904.10 F1000
G1 X845.445 Y-173.673 B2904.10 F1000
G1 X845.685 Y-173.780 B2904.10 F1000
G1 X845.925 Y-173.879 B2902.31 F1000
G1 X846.165 Y-173.989 B2904.62 F1000
G1 X846.404 Y-174.116 B2907.94 F1000
G1 X846.411 Y-174.119 B2907.94 F1000
G1 Z10.000 F500
G1 B2970.00 F1000
G1 Z0.000 F500
G1 X846.411 Y-195.949 B2970.00 F1000
G1 Z10.000 F500
G1 B2880.00 F1000
G1 Z0.000 F500
G1 X849.561 Y-195.949 B2880.00 F1000
G1 Z10.000 F500
G1 B2790.00 F1000
G1 Z0.000 F500
G1 X849.561 Y-175.993 B2790.00 F1000
G1 Z10.000 F500
G1 B2915.21 F1000
G1 Z0.000 F500
G1 X849.763 Y-176.135 B2915.21 F1000
G1 X850.003 Y-176.305 B2915.21 F1000
G1 X850.243 Y-176.474 B2915.21 F1000
G1 X850.482 Y-176.643 B2915.21 F1000
G1 X850.722 Y-176.812 B2915.21 F1000
G1 X850.962 Y-176.986 B2915.89 F1000
G1 X851.202 Y-177.185 B2919.64 F1000
G1 X851.442 Y-177.384 B2919.64 F1000
G1 X851.682 Y-177.582 B2919.64 F1000
G1 X851.922 Y-177.781 B2919.64 F1000
G1 X852.162 Y-177.976 B2919.15 F1000
G1 X852.402 Y-178.165 B2918.16 F1000
G1 X852.641 Y-178.353 B2918.16 F1000
G1 X852.881 Y-178.542 B2918.16 F1000
G1 X853.121 Y-178.730 B2918.16 F1000
G1 X853.361 Y-178.919 B2918.16 F1000
G1 X853.601 Y-179.107 B2918.16 F1000
G1 X853.841 Y-179.296 B2918.16 F1000
G1 X854.081 Y-179.484 B2918.16 F1000
G1 X854.321 Y-179.682 B2919.49 F1000
G1 X854.561 Y-179.893 B2921.35 F1000
G1 X854.800 Y-180.104 B2921.35 F1000
G1 X855.040 Y-180.315 B2921.35 F1000
G1 X855.280 Y-180.526 B2921.35 F1000
G1 X855.520 Y-180.737 B2921.35 F1000
G1 X855.760 Y-180.948 B2921.35 F1000
G1 X856.000 Y-181.160 B2921.35 F1000
G1 X856.240 Y-181.371 B2921.35 F1000
G1 X856.480 Y-181.582 B2921.35 F1000
G1 X856.720 Y-181.793 B2921.35 F1000
G1 X856.959 Y-182.004 B2921.35 F1000
G1 X857.199 Y-182.215 B2921.35 F1000
G1 X857.439 Y-182.426 B2921.35 F1000
G1 X857.679 Y-182.643 B2922.15 F1000
G1 X857.919 Y-182.864 B2922.63 F1000
G1 X858.159 Y-183.085 B2922.63 F1000
G1 X858.399 Y-183.306 B2922.63 F1000
G1 X858.639 Y-183.527 B2922.63 F1000
G1 X858.879 Y-183.747 B2922.63 F1000
G1 X859.118 Y-183.968 B2922.63 F1000
G1 X859.358 Y-184.189 B2922.63 F1000
G1 X859.598 Y-184.410 B2922.63 F1000
G1 X859.838 Y-184.634 B2923.01 F1000
G1 X860.078 Y-184.860 B2923.41 F1000
G1 X860.318 Y-185.087 B2923.41 F1000
G1 X860.558 Y-185.314 B2923.41 F1000
G1 X860.798 Y-185.544 B2923.78 F1000
G1 X861.037 Y-185.776 B2923.96 F1000
G1 X861.277 Y-186.005 B2923.75 F1000
G1 X861.517 Y-186.233 B2923.55 F1000
G1 X861.757 Y-186.465 B2924.05 F1000
G1 X861.997 Y-186.692 B2923.40 F1000
G1 X862.237 Y-186.909 B2922.08 F1000
G1 X862.477 Y-187.103 B2919.01 F1000
G1 X862.717 Y-187.262 B2913.61 F1000
G1 X862.957 Y-187.396 B2909.06 F1000
G1 X863.196 Y-187.504 B2904.35 F1000
G1 X863.436 Y-187.592 B2900.13 F1000
G1 X863.676 Y-187.645 B2892.32 F1000
G1 X863.916 Y-187.706 B2894.36 F1000
G1 X864.156 Y-187.756 B2891.69 F1000
G1 X864.396 Y-187.808 B2892.26 F1000
G1 X864.636 Y-187.863 B2892.98 F1000
G1 X864.876 Y-187.918 B2892.98 F1000
G1 X865.116 Y-187.974 B2892.98 F1000
G1 X865.355 Y-188.029 B2892.98 F1000
G1 X865.595 Y-188.085 B2893.20 F1000
G1 X865.835 Y-188.142 B2893.31 F1000
G1 X866.075 Y-188.199 B2893.31 F1000
G1 X866.315 Y-188.255 B2893.31 F1000
G1 X866.555 Y-188.312 B2893.31 F1000
G1 X866.795 Y-188.369 B2893.31 F1000
G1 X867.035 Y-188.426 B2893.31 F1000
G1 X867.275 Y-188.482 B2893.31 F1000
G1 X867.514 Y-188.539 B2893.31 F1000
G1 X867.754 Y-188.593 B2892.68 F1000
G1 X867.994 Y-188.638 B2890.55 F1000
G1 X868.234 Y-188.692 B2892.71 F1000
G1 X868.474 Y-188.751 B2893.80 F1000
G1 X868.714 Y-188.812 B2894.30 F1000
G1 X868.954 Y-188.873 B2894.30 F1000
G1 X869.194 Y-188.934 B2894.30 F1000
G1 X869.434 Y-188.996 B2894.30 F1000
G1 X869.673 Y-189.057 B2894.30 F1000
G1 X869.913 Y-189.121 B2894.94 F1000
G1 X870.153 Y-189.187 B2895.53 F1000
G1 X870.393 Y-189.254 B2895.53 F1000
G1 X870.633 Y-189.321 B2895.53 F1000
G1 X870.873 Y-189.387 B2895.53 F1000
G1 X871.113 Y-189.454 B2895.53 F1000
G1 X871.353 Y-189.521 B2895.53 F1000
G1 X871.592 Y-189.587 B2895.44 F1000
G1 X871.832 Y-189.655 B2895.78 F1000
G1 X872.072 Y-189.722 B2895.78 F1000
G1 X872.312 Y-189.790 B2895.78 F1000
G1 X872.552 Y-189.858 B2895.78 F1000
G1 X872.792 Y-189.926 B2895.78 F1000
G1 X873.032 Y-189.994 B2895.78 F1000
G1 X873.272 Y-190.061 B2895.69 F1000
G1 X873.512 Y-190.128 B2895.68 F1000
G1 X873.751 Y-190.199 B2896.31 F1000
G1 X873.991 Y-190.262 B2894.83 F1000
G1 X874.231 Y-190.329 B2895.65 F1000
G1 X874.471 Y-190.398 B2896.06 F1000
G1 X874.711 Y-190.477 B2898.23 F1000
G1 X874.951 Y-190.549 B2896.63 F1000
G1 X875.191 Y-190.621 B2896.79 F1000
G1 X875.431 Y-190.694 B2896.79 F1000
G1 X875.671 Y-190.766 B2896.79 F1000
G1 X875.910 Y-190.838 B2896.79 F1000
G1 X876.150 Y-190.911 B2896.79 F1000
G1 X876.390 Y-190.967 B2893.26 F1000
G1 X876.630 Y-191.020 B2892.39 F1000
G1 X876.870 Y-191.073 B2892.39 F1000
G1 X877.110 Y-191.125 B2892.39 F1000
G1 X877.350 Y-191.178 B2892.39 F1000
G1 X877.590 Y-191.231 B2892.39 F1000
G1 X877.830 Y-191.296 B2895.24 F1000
G1 X878.069 Y-191.354 B2893.43 F1000
G1 X878.309 Y-191.407 B2892.48 F1000
G1 X878.549 Y-191.462 B2892.97 F1000
G1 X878.789 Y-191.517 B2892.97 F1000
G1 X879.029 Y-191.572 B2892.97 F1000
G1 X879.269 Y-191.628 B2892.97 F1000
G1 X879.509 Y-191.683 B2892.97 F1000
G1 X879.749 Y-191.735 B2892.21 F1000
G1 X879.989 Y-191.773 B2889.14 F1000
G1 X880.228 Y-191.812 B2889.14 F1000
G1 X880.468 Y-191.846 B2888.01 F1000
G1 X880.708 Y-191.878 B2887.71 F1000
G1 X880.948 Y-191.928 B2891.67 F1000
G1 X881.188 Y-191.977 B2891.68 F1000
G1 X881.428 Y-192.030 B2892.30 F1000
G1 X881.668 Y-192.082 B2892.30 F1000
G1 X881.908 Y-192.126 B2890.44 F1000
G1 X882.147 Y-192.156 B2887.19 F1000
G1 X882.387 Y-192.183 B2886.29 F1000
G1 X882.627 Y-192.204 B2885.09 F1000
G1 X882.867 Y-192.231 B2886.39 F1000
G1 X883.107 Y-192.251 B2884.76 F1000
G1 X883.331 Y-192.277 B2886.66 F1000
G1 Z10.000 F500
G1 B2970.00 F1000
G1 Z0.000 F500
G1 X883.331 Y-204.683 B2970.00 F1000
G1 Z10.000 F500
G1 B2880.00 F1000
G1 Z0.000 F500
G1 X886.481 Y-204.683 B2880.00 F1000
G1 Z10.000 F500
G1 B2790.00 F1000
G1 Z0.000 F500
G1 X886.481 Y-192.555 B2790.00 F1000
G1 Z10.000 F500
G1 B2883.51 F1000
G1 Z0.000 F500
G1 X886.705 Y-192.569 B2883.51 F1000
G1 X886.945 Y-192.586 B2884.01 F1000
G1 X887.185 Y-192.597 B2882.61 F1000
G1 X887.425 Y-192.608 B2882.71 F1000
G1 X887.665 Y-192.619 B2882.71 F1000
G1 X887.905 Y-192.631 B2882.71 F1000
G1 X888.145 Y-192.642 B2882.71 F1000
G1 X888.385 Y-192.653 B2882.71 F1000
G1 X888.624 Y-192.665 B2882.71 F1000
G1 X888.864 Y-192.676 B2882.71 F1000
G1 X889.104 Y-192.687 B2882.71 F1000
G1 X889.344 Y-192.699 B2882.71 F1000
G1 X889.584 Y-192.710 B2882.71 F1000
G1 X889.824 Y-192.722 B2882.71 F1000
G1 X890.064 Y-192.727 B2881.34 F1000
G1 X890.304 Y-192.733 B2881.28 F1000
G1 X890.544 Y-192.738 B2881.28 F1000
G1 X890.783 Y-192.743 B2881.28 F1000
G1 X891.023 Y-192.749 B2881.28 F1000
G1 X891.263 Y-192.754 B2881.28 F1000
G1 X891.503 Y-192.753 B2879.72 F1000
G1 X891.743 Y-192.748 B2878.78 F1000
G1 X891.983 Y-192.743 B2878.78 F1000
G1 X892.223 Y-192.738 B2878.78 F1000
G1 X892.463 Y-192.732 B2878.78 F1000
G1 X892.702 Y-192.727 B2878.78 F1000
G1 X892.942 Y-192.722 B2878.78 F1000
G1 X893.182 Y-192.718 B2878.88 F1000
G1 X893.422 Y-192.715 B2879.37 F1000
G1 X893.662 Y-192.710 B2878.90 F1000
G1 X893.902 Y-192.700 B2877.66 F1000
G1 X894.142 Y-192.691 B2877.66 F1000
G1 X894.382 Y-192.686 B2878.88 F1000
G1 X894.622 Y-192.684 B2879.60 F1000
G1 X894.861 Y-192.677 B2878.33 F1000
G1 X895.101 Y-192.688 B2882.48 F1000
G1 X895.341 Y-192.714 B2886.29 F1000
G1 X895.581 Y-192.741 B2886.48 F1000
G1 X895.821 Y-192.786 B2890.58 F1000
G1 X896.061 Y-192.814 B2886.60 F1000
G1 X896.301 Y-192.830 B2883.82 F1000
G1 X896.541 Y-192.820 B2877.68 F1000
G1 X896.781 Y-192.798 B2874.72 F1000
G1 X897.020 Y-192.772 B2873.69 F1000
G1 X897.260 Y-192.740 B2872.48 F1000
G1 X897.500 Y-192.706 B2871.95 F1000
G1 X897.740 Y-192.669 B2871.25 F1000
G1 X897.980 Y-192.632 B2871.28 F1000
G1 X898.220 Y-192.598 B2871.92 F1000
G1 X898.460 Y-192.567 B2872.70 F1000
G1 X898.700 Y-192.539 B2873.32 F1000
G1 X898.940 Y-192.517 B2874.67 F1000
G1 X899.179 Y-192.491 B2873.77 F1000
G1 X899.419 Y-192.468 B2874.62 F1000
G1 X899.659 Y-192.448 B2875.09 F1000
G1 X899.899 Y-192.432 B2876.20 F1000
G1 X900.139 Y-192.416 B2876.29 F1000
G1 X900.379 Y-192.401 B2876.29 F1000
G1 X900.619 Y-192.385 B2876.29 F1000
G1 X900.859 Y-192.370 B2876.29 F1000
G1 X901.098 Y-192.354 B2876.29 F1000
G1 X901.338 Y-192.338 B2876.29 F1000
G1 X901.578 Y-192.323 B2876.29 F1000
G1 X901.818 Y-192.305 B2875.82 F1000
G1 X902.058 Y-192.287 B2875.60 F1000
G1 X902.298 Y-192.266 B2875.11 F1000
G1 X902.538 Y-192.244 B2874.74 F1000
G1 X902.778 Y-192.222 B2874.74 F1000
G1 X903.018 Y-192.200 B2874.74 F1000
G1 X903.257 Y-192.178 B2874.74 F1000
G1 X903.497 Y-192.156 B2874.74 F1000
G1 X903.737 Y-192.134 B2874.74 F1000
G1 X903.977 Y-192.112 B2874.74 F1000
G1 X904.217 Y-192.090 B2874.74 F1000
G1 X904.457 Y-192.068 B2874.76 F1000
G1 X904.697 Y-192.046 B2874.77 F1000
G1 X904.937 Y-192.019 B2873.56 F1000
G1 X905.177 Y-191.992 B2873.56 F1000
G1 X905.416 Y-191.965 B2873.56 F1000
G1 X905.656 Y-191.938 B2873.56 F1000
G1 X905.896 Y-191.911 B2873.56 F1000
G1 X906.136 Y-191.884 B2873.56 F1000
G1 X906.376 Y-191.856 B2873.56 F1000
G1 X906.616 Y-191.829 B2873.56 F1000
G1 X906.856 Y-191.802 B2873.56 F1000
G1 X907.096 Y-191.776 B2873.63 F1000
G1 X907.336 Y-191.749 B2873.72 F1000
G1 X907.575 Y-191.723 B2873.72 F1000
G1 X907.815 Y-191.689 B2871.96 F1000
G1 X908.055 Y-191.655 B2871.90 F1000
G1 X908.295 Y-191.621 B2871.90 F1000
G1 X908.535 Y-191.586 B2871.90 F1000
G1 X908.775 Y-191.552 B2871.90 F1000
G1 X909.015 Y-191.518 B2871.90 F1000
G1 X909.255 Y-191.484 B2871.90 F1000
G1 X909.495 Y-191.450 B2871.90 F1000
G1 X909.734 Y-191.416 B2871.90 F1000
G1 X909.974 Y-191.382 B2871.91 F1000
G1 X910.214 Y-191.348 B2871.91 F1000
G1 X910.454 Y-191.313 B2871.91 F1000
G1 X910.694 Y-191.279 B2871.91 F1000
G1 X910.934 Y-191.245 B2871.91 F1000
G1 X911.174 Y-191.211 B2871.91 F1000
G1 X911.414 Y-191.177 B2871.91 F1000
G1 X911.653 Y-191.143 B2871.91 F1000
G1 X911.893 Y-191.109 B2871.91 F1000
G1 X912.133 Y-191.075 B2871.91 F1000
G1 X912.373 Y-191.041 B2871.91 F1000
G1 X912.613 Y-191.007 B2871.91 F1000
G1 X912.853 Y-190.972 B2871.91 F1000
G1 X913.093 Y-190.938 B2871.91 F1000
G1 X913.333 Y-190.904 B2871.91 F1000
G1 X913.573 Y-190.865 B2870.65 F1000
G1 X913.812 Y-190.820 B2869.52 F1000
G1 X914.052 Y-190.776 B2869.52 F1000
G1 X914.292 Y-190.732 B2869.52 F1000
G1 X914.532 Y-190.687 B2869.52 F1000
G1 X914.772 Y-190.646 B2870.24 F1000
G1 X915.012 Y-190.606 B2870.58 F1000
G1 X915.252 Y-190.566 B2870.58 F1000
G1 X915.492 Y-190.527 B2870.58 F1000
G1 X915.732 Y-190.487 B2870.58 F1000
G1 X915.971 Y-190.447 B2870.58 F1000
G1 X916.211 Y-190.407 B2870.49 F1000
G1 X916.451 Y-190.359 B2868.71 F1000
G1 X916.691 Y-190.311 B2868.71 F1000
G1 X916.931 Y-190.263 B2868.71 F1000
G1 X917.171 Y-190.215 B2868.71 F1000
G1 X917.411 Y-190.167 B2868.71 F1000
G1 X917.651 Y-190.120 B2868.71 F1000
G1 X917.891 Y-190.072 B2868.71 F1000
G1 X918.130 Y-190.024 B2868.71 F1000
G1 X918.370 Y-189.976 B2868.71 F1000
G1 X918.610 Y-189.928 B2868.71 F1000
G1 X918.850 Y-189.880 B2868.71 F1000
G1 X919.090 Y-189.832 B2868.56 F1000
G1 X919.330 Y-189.781 B2868.02 F1000
G1 X919.570 Y-189.735 B2869.15 F1000
G1 X919.810 Y-189.689 B2869.15 F1000
G1 X920.050 Y-189.643 B2869.15 F1000
G1 X920.251 Y-189.602 B2868.45 F1000
G1 Z10.000 F500
G1 B2970.00 F1000
G1 Z0.000 F500
G1 X920.251 Y-203.071 B2970.00 F1000
G1 Z10.000 F500
G1 B2880.00 F1000
G1 Z0.000 F500
G1 X923.401 Y-203.071 B2880.00 F1000
G1 Z10.000 F500
G1 B2790.00 F1000
G1 Z0.000 F500
G1 X923.401 Y-188.851 B2790.00 F1000
G1 Z10.000 F500
G1 B2867.22 F1000
G1 Z0.000 F500
G1 X923.408 Y-188.850 B2867.22 F1000
G1 X923.648 Y-188.796 B2867.34 F1000
G1 X923.888 Y-188.750 B2869.28 F1000
G1 X924.128 Y-188.717 B2872.12 F1000
G1 X924.367 Y-188.706 B2877.39 F1000
G1 X924.607 Y-188.752 B2890.86 F1000
G1 X924.847 Y-188.825 B2896.98 F1000
G1 X925.087 Y-188.853 B2886.50 F1000
G1 X925.327 Y-188.830 B2874.64 F1000
G1 X925.567 Y-188.772 B2866.36 F1000
G1 X925.807 Y-188.700 B2863.30 F1000
G1 X926.047 Y-188.619 B2861.39 F1000
G1 X926.287 Y-188.533 B2860.14 F1000
G1 X926.526 Y-188.443 B2859.46 F1000
G1 X926.766 Y-188.351 B2859.00 F1000
G1 X927.006 Y-188.253 B2857.81 F1000
G1 X927.246 Y-188.155 B2857.78 F1000
G1 X927.486 Y-188.056 B2857.64 F1000
G1 X927.726 Y-187.954 B2856.91 F1000
G1 X927.966 Y-187.850 B2856.64 F1000
G1 X928.206 Y-187.747 B2856.65 F1000
G1 X928.446 Y-187.643 B2856.65 F1000
G1 X928.685 Y-187.544 B2857.54 F1000
G1 X928.925 Y-187.445 B2857.68 F1000
G1 X929.165 Y-187.347 B2857.72 F1000
G1 X929.405 Y-187.249 B2857.69 F1000
G1 X929.645 Y-187.150 B2857.59 F1000
G1 X929.885 Y-187.053 B2858.08 F1000
G1 X930.125 Y-186.955 B2857.75 F1000
G1 X930.365 Y-186.865 B2859.31 F1000
G1 X930.605 Y-186.777 B2859.96 F1000
G1 X930.844 Y-186.692 B2860.38 F1000
G1 X931.084 Y-186.609 B2860.99 F1000
G1 X931.324 Y-186.523 B2860.36 F1000
G1 X931.564 Y-186.437 B2860.14 F1000
G1 X931.804 Y-186.353 B2860.83 F1000
G1 X932.044 Y-186.276 B2862.07 F1000
G1 X932.284 Y-186.198 B2862.07 F1000
G1 X932.524 Y-186.120 B2861.91 F1000
G1 X932.763 Y-186.032 B2859.90 F1000
G1 X933.003 Y-185.944 B2860.00 F1000
G1 X933.243 Y-185.858 B2860.21 F1000
G1 X933.483 Y-185.772 B2860.21 F1000
G1 X933.723 Y-185.686 B2860.21 F1000
G1 X933.963 Y-185.594 B2859.14 F1000
G1 X934.203 Y-185.502 B2859.05 F1000
G1 X934.443 Y-185.406 B2858.23 F1000
G1 X934.683 Y-185.315 B2859.18 F1000
G1 X934.922 Y-185.232 B2860.82 F1000
G1 X935.162 Y-185.148 B2860.82 F1000
G1 X935.402 Y-185.057 B2859.05 F1000
G1 X935.642 Y-184.956 B2857.26 F1000
G1 X935.882 Y-184.854 B2856.88 F1000
G1 X936.122 Y-184.750 B2856.69 F1000
G1 X936.362 Y-184.647 B2856.69 F1000
G1 X936.602 Y-184.543 B2856.69 F1000
G1 X936.842 Y-184.430 B2854.71 F1000
G1 X937.081 Y-184.315 B2854.31 F1000
G1 X937.321 Y-184.199 B2854.31 F1000
G1 X937.561 Y-184.084 B2854.31 F1000
G1 X937.801 Y-183.957 B2852.17 F1000
G1 X938.041 Y-183.836 B2853.26 F1000
G1 X938.281 Y-183.719 B2853.86 F1000
G1 X938.521 Y-183.601 B2853.86 F1000
G1 X938.761 Y-183.483 B2853.86 F1000
G1 X939.001 Y-183.339 B2848.95 F1000
G1 X939.240 Y-183.194 B2848.86 F1000
G1 X939.480 Y-183.049 B2848.79 F1000
G1 X939.720 Y-182.902 B2848.66 F1000
G1 X939.960 Y-182.737 B2845.45 F1000
G1 X940.200 Y-182.559 B2843.43 F1000
G1 X940.440 Y-182.381 B2843.43 F1000
G1 X940.680 Y-182.217 B2845.60 F1000
G1 X940.920 Y-182.038 B2843.25 F1000
G1 X941.160 Y-181.857 B2842.93 F1000
G1 X941.399 Y-181.677 B2843.12 F1000
G1 X941.639 Y-181.497 B2843.12 F1000
G1 X941.879 Y-181.317 B2843.12 F1000
G1 X942.119 Y-181.137 B2843.12 F1000
G1 X942.359 Y-180.957 B2843.12 F1000
G1 X942.599 Y-180.776 B2842.94 F1000
G1 X942.839 Y-180.575 B2840.05 F1000
G1 X943.079 Y-180.374 B2840.05 F1000
G1 X943.318 Y-180.182 B2841.44 F1000
G1 X943.558 Y-180.002 B2843.12 F1000
G1 X943.798 Y-179.822 B2843.12 F1000
G1 X944.038 Y-179.631 B2841.38 F1000
G1 X944.278 Y-179.408 B2837.17 F1000
G1 X944.518 Y-179.186 B2837.17 F1000
G1 X944.758 Y-178.964 B2837.22 F1000
G1 X944.998 Y-178.759 B2839.50 F1000
G1 X945.238 Y-178.542 B2837.86 F1000
G1 X945.477 Y-178.301 B2834.89 F1000
G1 X945.717 Y-178.068 B2835.83 F1000
G1 X945.957 Y-177.867 B2840.02 F1000
G1 X946.197 Y-177.666 B2840.02 F1000
G1 X946.437 Y-177.449 B2837.91 F1000
G1 X946.677 Y-177.210 B2835.08 F1000
G1 X946.917 Y-176.971 B2835.08 F1000
G1 X947.157 Y-176.739 B2835.95 F1000
G1 X947.397 Y-176.515 B2836.92 F1000
G1 X947.636 Y-176.283 B2836.03 F1000
G1 X947.876 Y-176.029 B2833.28 F1000
G1 X948.116 Y-175.774 B2833.28 F1000
G1 X948.356 Y-175.523 B2833.68 F1000
G1 X948.596 Y-175.278 B2834.47 F1000
G1 X948.836 Y-175.034 B2834.47 F1000
G1 X949.076 Y-174.790 B2834.47 F1000
G1 X949.316 Y-174.545 B2834.47 F1000
G1 X949.556 Y-174.301 B2834.47 F1000
G1 X949.795 Y-174.050 B2833.74 F1000
G1 X950.035 Y-173.793 B2833.00 F1000
G1 X950.275 Y-173.536 B2833.00 F1000
G1 X950.515 Y-173.277 B2832.87 F1000
G1 X950.755 Y-173.007 B2831.65 F1000
G1 X950.995 Y-172.713 B2829.13 F1000
G1 X951.235 Y-172.394 B2826.94 F1000
G1 X951.475 Y-172.037 B2823.91 F1000
G1 X951.715 Y-171.643 B2821.36 F1000
G1 X951.954 Y-171.182 B2817.49 F1000
G1 X952.194 Y-170.703 B2816.59 F1000
G1 X952.434 Y-170.142 B2813.16 F1000
G1 X952.674 Y-169.406 B2808.06 F1000
G1 X952.914 Y-168.443 B2803.99 F1000
G1 X953.154 Y-167.509 B2804.40 F1000
G1 X953.394 Y-166.580 B2804.46 F1000
G1 X953.634 Y-165.577 B2803.46 F1000
G1 X953.873 Y-164.215 B2799.99 F1000
G1 X954.113 Y-162.837 B2799.87 F1000
G1 X954.353 Y-160.899 B2797.06 F1000
G1 X954.433 Y-159.956 B2794.85 F1000
G1 Z10.000 F500
G1 B2880.00 F1000
G1 Z0.000 F500
G1 X957.171 Y-159.956 B2880.00 F1000
G1 Z10.000 F500
G1 B2970.00 F1000
G1 Z0.000 F500
G1 X957.171 Y-188.434 B2970.00 F1000
G1 Z10.000 F500
G1 B2880.00 F1000
G1 Z0.000 F500
G1 X960.321 Y-188.434 B2880.00 F1000
G1 Z10.000 F500
G1 B2790.00 F1000
G1 Z0.000 F500
G1 X960.321 Y-159.956 B2790.00 F1000
G1 Z10.000 F500
G1 B2880.00 F1000
G1 Z0.000 F500
G1 X968.746 Y-159.956 B2880.00 F1000
G1 Z10.000 F500
G1 A391.956 F200 (ADVANCE MATERIAL)
G1 Z10.000 F500
G0 X1960.746 Y-191.956
G1 Z10.000 F500
G1 B2970.00 F1000
G1 Z0.000 F500
G1 X1960.746 Y-248.912 B2970.00 F1000
G1 Z10.000 F500
G1 B3060.00 F1000
G1 Z0.000 F500
G1 X1952.321 Y-248.912 B3060.00 F1000
G1 Z10.000 F500
G1 B3150.00 F1000
G1 Z0.000 F500
G1 X1952.321 Y-220.434 B3150.00 F1000
G1 Z10.000 F500
G1 B3060.00 F1000
G1 Z0.000 F500
G1 X1949.171 Y-220.434 B3060.00 F1000
G1 Z10.000 F500
G1 B2970.00 F1000
G1 Z0.000 F500
G1 X1949.171 Y-248.912 B2970.00 F1000
G1 Z10.000 F500
G1 B3060.00 F1000
G1 Z0.000 F500
G1 X1943.235 Y-248.912 B3060.00 F1000
G1 Z10.000 F500
G1 B3150.00 F1000
G1 Z0.000 F500
G1 X1943.235 Y-237.802 B3150.00 F1000
G1 X1942.995 Y-236.689 B3137.84 F1000
G1 X1942.755 Y-235.832 B3134.38 F1000
G1 X1942.515 Y-235.179 B3129.81 F1000
G1 X1942.275 Y-234.616 B3126.93 F1000
G1 X1942.035 Y-234.054 B3126.89 F1000
G1 X1941.795 Y-233.570 B3123.63 F1000
G1 X1941.556 Y-233.071 B3124.31 F1000
G1 X1941.316 Y-232.563 B3124.75 F1000
G1 X1941.076 Y-232.143 B3120.21 F1000
G1 X1940.836 Y-231.733 B3119.68 F1000
G1 X1940.596 Y-231.276 B3122.31 F1000
G1 X1940.356 Y-230.806 B3122.96 F1000
G1 X1940.116 Y-230.479 B3113.74 F1000
G1 X1939.876 Y-230.172 B3111.97 F1000
G1 X1939.636 Y-229.834 B3114.66 F1000
G1 X1939.397 Y-229.513 B3113.24 F1000
G1 X1939.157 Y-229.192 B3113.24 F1000
G1 X1938.917 Y-228.871 B3113.24 F1000
G1 X1938.677 Y-228.549 B3113.24 F1000
G1 X1938.437 Y-228.231 B3113.03 F1000
G1 X1938.197 Y-227.931 B3111.35 F1000
G1 X1937.957 Y-227.631 B3111.35 F1000
G1 X1937.717 Y-227.331 B3111.35 F1000
G1 X1937.477 Y-227.031 B3111.31 F1000
G1 X1937.238 Y-226.747 B3109.82 F1000
G1 X1936.998 Y-226.423 B3113.51 F1000
G1 X1936.758 Y-226.018 B3119.36 F1000
G1 X1936.518 Y-225.830 B3098.17 F1000
G1 X1936.278 Y-225.653 B3096.31 F1000
G1 X1936.038 Y-225.425 B3103.56 F1000
G1 X1935.798 Y-225.159 B3107.95 F1000
G1 X1935.558 Y-224.906 B3106.53 F1000
G1 X1935.318 Y-224.656 B3106.25 F1000
G1 X1935.079 Y-224.405 B3106.25 F1000
G1 X1934.839 Y-224.154 B3106.25 F1000
G1 X1934.599 Y-223.915 B3104.89 F1000
G1 X1934.359 Y-223.680 B3104.49 F1000
G1 X1934.119 Y-223.444 B3104.49 F1000
G1 X1933.879 Y-223.208 B3104.49 F1000
G1 X1933.639 Y-222.973 B3104.49 F1000
G1 X1933.399 Y-222.737 B3104.49 F1000
G1 X1933.160 Y-222.523 B3101.80 F1000
G1 X1932.920 Y-222.261 B3107.53 F1000
G1 X1932.680 Y-221.901 B3116.29 F1000
G1 X1932.440 Y-221.769 B3088.80 F1000
G1 X1932.200 Y-221.625 B3090.97 F1000
G1 X1931.960 Y-221.440 B3097.66 F1000
G1 X1931.720 Y-221.230 B3101.22 F1000
G1 X1931.480 Y-221.020 B3101.22 F1000
G1 X1931.240 Y-220.810 B3101.22 F1000
G1 X1931.001 Y-220.601 B3100.97 F1000
G1 X1930.761 Y-220.393 B3100.94 F1000
G1 X1930.521 Y-220.185 B3100.94 F1000
G1 X1930.281 Y-219.977 B3100.94 F1000
G1 X1930.041 Y-219.772 B3100.45 F1000
G1 X1929.801 Y-219.570 B3100.12 F1000
G1 X1929.561 Y-219.368 B3100.12 F1000
G1 X1929.321 Y-219.166 B3100.12 F1000
G1 X1929.081 Y-218.968 B3099.58 F1000
G1 X1928.842 Y-218.779 B3098.14 F1000
G1 X1928.602 Y-218.556 B3102.93 F1000
G1 X1928.362 Y-218.262 B3110.81 F1000
G1 X1928.122 Y-218.098 B3094.33 F1000
G1 X1927.882 Y-217.998 B3082.62 F1000
G1 X1927.642 Y-217.837 B3093.86 F1000
G1 X1927.402 Y-217.663 B3096.04 F1000
G1 X1927.162 Y-217.490 B3095.77 F1000
G1 X1926.922 Y-217.317 B3095.76 F1000
G1 X1926.683 Y-217.144 B3095.76 F1000
G1 X1926.443 Y-216.971 B3095.76 F1000
G1 X1926.203 Y-216.799 B3095.76 F1000
G1 X1925.963 Y-216.626 B3095.76 F1000
G1 X1925.723 Y-216.453 B3095.76 F1000
G1 X1925.483 Y-216.280 B3095.76 F1000
G1 X1925.243 Y-216.108 B3095.76 F1000
G1 X1925.003 Y-215.946 B3093.96 F1000
G1 X1924.763 Y-215.790 B3093.04 F1000
G1 X1924.524 Y-215.634 B3093.04 F1000
G1 X1924.284 Y-215.478 B3093.04 F1000
G1 X1924.044 Y-215.315 B3094.21 F1000
G1 X1923.804 Y-215.113 B3100.05 F1000
G1 X1923.564 Y-214.891 B3102.84 F1000
G1 X1923.324 Y-214.794 B3082.07 F1000
G1 X1923.084 Y-214.711 B3078.97 F1000
G1 X1922.844 Y-214.584 B3087.92 F1000
G1 X1922.605 Y-214.453 B3088.61 F1000
G1 X1922.365 Y-214.319 B3089.19 F1000
G1 X1922.125 Y-214.179 B3090.37 F1000
G1 X1921.885 Y-214.037 B3090.57 F1000
G1 X1921.645 Y-213.895 B3090.57 F1000
G1 X1921.405 Y-213.754 B3090.57 F1000
G1 X1921.165 Y-213.618 B3089.47 F1000
G1 X1920.925 Y-213.497 B3086.86 F1000
G1 X1920.685 Y-213.375 B3086.86 F1000
G1 X1920.446 Y-213.254 B3086.86 F1000
G1 X1920.206 Y-213.134 B3086.55 F1000
G1 X1919.966 Y-213.017 B3086.05 F1000
G1 X1919.726 Y-212.899 B3086.05 F1000
G1 X1919.486 Y-212.767 B3088.84 F1000
G1 X1919.246 Y-212.640 B3087.86 F1000
G1 X1919.006 Y-212.524 B3085.98 F1000
G1 X1918.766 Y-212.394 B3088.37 F1000
G1 X1918.526 Y-212.237 B3093.28 F1000
G1 X1918.287 Y-212.082 B3092.80 F1000
G1 X1918.047 Y-212.035 B3071.05 F1000
G1 X1917.807 Y-211.973 B3074.49 F1000
G1 X1917.567 Y-211.853 B3086.62 F1000
G1 X1917.327 Y-211.746 B3083.96 F1000
G1 X1917.087 Y-211.644 B3083.07 F1000
G1 X1916.847 Y-211.542 B3083.07 F1000
G1 X1916.607 Y-211.441 B3082.78 F1000
G1 X1916.367 Y-211.351 B3080.58 F1000
G1 X1916.128 Y-211.261 B3080.58 F1000
G1 X1915.888 Y-211.171 B3080.58 F1000
G1 X1915.648 Y-211.081 B3080.58 F1000
G1 X1915.408 Y-210.991 B3080.58 F1000
G1 X1915.401 Y-210.988 B3080.58 F1000
G1 Z10.000 F500
G1 B3150.00 F1000
G1 Z0.000 F500
G1 X1915.401 Y-201.175 B3150.00 F1000
G1 Z10.000 F500
G1 B3060.00 F1000
G1 Z0.000 F500
G1 X1912.251 Y-201.175 B3060.00 F1000
G1 Z10.000 F500
G1 B2970.00 F1000
G1 Z0.000 F500
G1 X1912.251 Y-209.818 B2970.00 F1000
G1 Z10.000 F500
G1 B3070.48 F1000
G1 Z0.000 F500
G1 X1912.050 Y-209.781 B3070.48 F1000
G1 X1911.810 Y-209.685 B3081.92 F1000
G1 X1911.570 Y-209.610 B3077.21 F1000
G1 X1911.330 Y-209.539 B3076.59 F1000
G1 X1911.090 Y-209.467 B3076.59 F1000
G1 X1910.850 Y-209.398 B3076.01 F1000
G1 X1910.610 Y-209.335 B3074.85 F1000
G1 X1910.370 Y-209.271 B3074.85 F1000
G1 X1910.130 Y-209.208 B3074.85 F1000
G1 X1909.891 Y-209.144 B3074.85 F1000
G1 X1909.651 Y-209.081 B3074.82 F1000
G1 X1909.411 Y-209.017 B3074.79 F1000
G1 X1909.171 Y-208.954 B3074.79 F1000
G1 X1908.931 Y-208.891 B3074.79 F1000
G1 X1908.691 Y-208.827 B3074.79 F1000
G1 X1908.451 Y-208.764 B3074.79 F1000
G1 X1908.211 Y-208.701 B3074.79 F1000
G1 X1907.971 Y-208.637 B3074.78 F1000
G1 X1907.732 Y-208.574 B3074.76 F1000
G1 X1907.492 Y-208.511 B3074.76 F1000
G1 X1907.252 Y-208.439 B3076.65 F1000
G1 X1907.012 Y-208.366 B3076.96 F1000
G1 X1906.772 Y-208.268 B3082.25 F1000
G1 X1906.532 Y-208.200 B3075.77 F1000
G1 X1906.292 Y-208.181 B3064.50 F1000
G1 X1906.052 Y-208.164 B3064.03 F1000
G1 X1905.812 Y-208.121 B3070.14 F1000
G1 X1905.573 Y-208.073 B3071.49 F1000
G1 X1905.333 Y-208.026 B3071.02 F1000
G1 X1905.093 Y-207.986 B3069.41 F1000
G1 X1904.853 Y-207.946 B3069.41 F1000
G1 X1904.613 Y-207.906 B3069.62 F1000
G1 X1904.373 Y-207.863 B3070.15 F1000
G1 X1904.133 Y-207.820 B3070.15 F1000
G1 X1903.893 Y-207.777 B3070.15 F1000
G1 X1903.653 Y-207.734 B3070.15 F1000
G1 X1903.414 Y-207.691 B3070.15 F1000
G1 X1903.174 Y-207.648 B3070.15 F1000
G1 X1902.934 Y-207.605 B3070.15 F1000
G1 X1902.694 Y-207.562 B3070.24 F1000
G1 X1902.454 Y-207.518 B3070.28 F1000
G1 X1902.214 Y-207.475 B3070.28 F1000
G1 X1901.974 Y-207.434 B3069.70 F1000
G1 X1901.734 Y-207.393 B3069.61 F1000
G1 X1901.495 Y-207.353 B3069.61 F1000
G1 X1901.255 Y-207.312 B3069.61 F1000
G1 X1901.015 Y-207.277 B3068.36 F1000
G1 X1900.775 Y-207.241 B3068.47 F1000
G1 X1900.535 Y-207.174 B3075.62 F1000
G1 X1900.295 Y-207.106 B3075.73 F1000
G1 X1900.055 Y-207.095 B3062.73 F1000
G1 X1899.815 Y-207.105 B3057.56 F1000
G1 X1899.575 Y-207.084 B3065.01 F1000
G1 X1899.336 Y-207.059 B3066.12 F1000
G1 X1899.096 Y-207.028 B3067.19 F1000
G1 X1898.856 Y-206.998 B3067.19 F1000
G1 X1898.616 Y-206.970 B3066.69 F1000
G1 X1898.376 Y-206.944 B3066.05 F1000
G1 X1898.136 Y-206.919 B3066.05 F1000
G1 X1897.896 Y-206.894 B3066.05 F1000
G1 X1897.656 Y-206.868 B3066.05 F1000
G1 X1897.416 Y-206.843 B3066.05 F1000
G1 X1897.177 Y-206.817 B3066.05 F1000
G1 X1896.937 Y-206.793 B3065.75 F1000
G1 X1896.697 Y-206.770 B3065.55 F1000
G1 X1896.457 Y-206.747 B3065.55 F1000
G1 X1896.217 Y-206.723 B3065.55 F1000
G1 X1895.977 Y-206.700 B3065.55 F1000
G1 X1895.737 Y-206.677 B3065.55 F1000
G1 X1895.497 Y-206.653 B3065.55 F1000
G1 X1895.257 Y-206.623 B3067.25 F1000
G1 X1895.018 Y-206.592 B3067.27 F1000
G1 X1894.778 Y-206.562 B3067.27 F1000
G1 X1894.538 Y-206.531 B3067.27 F1000
G1 X1894.298 Y-206.501 B3067.17 F1000
G1 X1894.058 Y-206.457 B3070.38 F1000
G1 X1893.818 Y-206.400 B3073.27 F1000
G1 X1893.578 Y-206.363 B3068.75 F1000
G1 X1893.338 Y-206.379 B3056.34 F1000
G1 X1893.098 Y-206.390 B3057.42 F1000
G1 X1892.859 Y-206.381 B3062.15 F1000
G1 X1892.619 Y-206.366 B3063.48 F1000
G1 X1892.379 Y-206.348 B3064.36 F1000
G1 X1892.139 Y-206.329 B3064.36 F1000
G1 X1891.899 Y-206.303 B3066.32 F1000
G1 X1891.659 Y-206.272 B3067.35 F1000
G1 X1891.419 Y-206.247 B3065.91 F1000
G1 X1891.179 Y-206.228 B3064.39 F1000
G1 X1890.940 Y-206.209 B3064.56 F1000
G1 X1890.700 Y-206.190 B3064.56 F1000
G1 X1890.460 Y-206.171 B3064.56 F1000
G1 X1890.220 Y-206.152 B3064.56 F1000
G1 X1889.980 Y-206.133 B3064.56 F1000
G1 X1889.740 Y-206.114 B3064.56 F1000
G1 X1889.500 Y-206.095 B3064.56 F1000
G1 X1889.260 Y-206.076 B3064.56 F1000
G1 X1889.020 Y-206.057 B3064.51 F1000
G1 X1888.781 Y-206.038 B3064.44 F1000
G1 X1888.541 Y-206.019 B3064.44 F1000
G1 X1888.301 Y-206.001 B3064.44 F1000
G1 X1888.061 Y-205.982 B3064.44 F1000
G1 X1887.821 Y-205.964 B3064.44 F1000
G1 X1887.581 Y-205.945 B3064.44 F1000
G1 X1887.341 Y-205.920 B3065.88 F1000
G1 X1887.101 Y-205.890 B3067.11 F1000
G1 X1886.861 Y-205.856 B3068.24 F1000
G1 X1886.622 Y-205.829 B3066.22 F1000
G1 X1886.382 Y-205.832 B3059.36 F1000
G1 X1886.142 Y-205.833 B3059.72 F1000
G1 X1885.902 Y-205.826 B3061.84 F1000
G1 X1885.662 Y-205.810 B3063.74 F1000
G1 X1885.422 Y-205.794 B3063.74 F1000
G1 X1885.182 Y-205.779 B3063.74 F1000
G1 X1884.942 Y-205.762 B3063.94 F1000
G1 X1884.702 Y-205.745 B3064.00 F1000
G1 X1884.463 Y-205.729 B3064.00 F1000
G1 X1884.223 Y-205.712 B3064.00 F1000
G1 X1883.983 Y-205.695 B3064.00 F1000
G1 X1883.743 Y-205.678 B3064.00 F1000
G1 X1883.503 Y-205.662 B3063.89 F1000
G1 X1883.263 Y-205.647 B3063.66 F1000
G1 X1883.023 Y-205.631 B3063.66 F1000
G1 X1882.783 Y-205.616 B3063.66 F1000
G1 X1882.544 Y-205.600 B3063.66 F1000
G1 X1882.304 Y-205.585 B3063.66 F1000
G1 X1882.064 Y-205.570 B3063.66 F1000
G1 X1881.824 Y-205.554 B3063.66 F1000
G1 X1881.584 Y-205.539 B3063.66 F1000
G1 X1881.344 Y-205.524 B3063.66 F1000
G1 X1881.104 Y-205.508 B3063.66 F1000
G1 X1880.864 Y-205.493 B3063.65 F1000
G1 X1880.624 Y-205.478 B3063.65 F1000
G1 X1880.385 Y-205.464 B3063.36 F1000
G1 X1880.145 Y-205.454 B3062.36 F1000
G1 X1879.905 Y-205.432 B3065.08 F1000
G1 X1879.665 Y-205.411 B3065.03 F1000
G1 X1879.425 Y-205.399 B3062.84 F1000
G1 X1879.185 Y-205.387 B3062.83 F1000
G1 X1878.945 Y-205.376 B3062.83 F1000
G1 X1878.705 Y-205.362 B3063.13 F1000
G1 X1878.481 Y-205.352 B3062.73 F1000
G1 Z10.000 F500
G1 B3150.00 F1000
G1 Z0.000 F500
G1 X1878.481 Y-198.622 B3150.00 F1000
G1 Z10.000 F500
G1 B3060.00 F1000
G1 Z0.000 F500
G1 X1875.331 Y-198.622 B3060.00 F1000
G1 Z10.000 F500
G1 B2970.00 F1000
G1 Z0.000 F500
G1 X1875.331 Y-205.236 B2970.00 F1000
G1 Z10.000 F500
G1 B3061.46 F1000
G1 Z0.000 F500
G1 X1875.107 Y-205.230 B3061.46 F1000
G1 X1874.867 Y-205.222 B3061.90 F1000
G1 X1874.627 Y-205.214 B3061.90 F1000
G1 X1874.387 Y-205.206 B3061.90 F1000
G1 X1874.147 Y-205.201 B3061.23 F1000
G1 X1873.908 Y-205.199 B3060.53 F1000
G1 X1873.668 Y-205.196 B3060.53 F1000
G1 X1873.428 Y-205.194 B3060.69 F1000
G1 X1873.188 Y-205.189 B3061.00 F1000
G1 X1872.948 Y-205.185 B3061.00 F1000
G1 X1872.708 Y-205.181 B3061.00 F1000
G1 X1872.468 Y-205.179 B3060.57 F1000
G1 X1872.228 Y-205.177 B3060.43 F1000
G1 X1871.989 Y-205.175 B3060.43 F1000
G1 X1871.749 Y-205.175 B3060.11 F1000
G1 X1871.509 Y-205.176 B3059.66 F1000
G1 X1871.269 Y-205.177 B3059.66 F1000
G1 X1871.029 Y-205.179 B3059.66 F1000
G1 X1870.789 Y-205.180 B3059.66 F1000
G1 X1870.549 Y-205.182 B3059.66 F1000
G1 X1870.309 Y-205.183 B3059.66 F1000
G1 X1870.069 Y-205.184 B3059.66 F1000
G1 X1869.830 Y-205.186 B3059.66 F1000
G1 X1869.590 Y-205.187 B3059.67 F1000
G1 X1869.350 Y-205.189 B3059.68 F1000
G1 X1869.110 Y-205.195 B3058.58 F1000
G1 X1868.870 Y-205.202 B3058.13 F1000
G1 X1868.630 Y-205.210 B3058.13 F1000
G1 X1868.390 Y-205.218 B3058.21 F1000
G1 X1868.150 Y-205.224 B3058.43 F1000
G1 X1867.910 Y-205.231 B3058.43 F1000
G1 X1867.671 Y-205.237 B3058.43 F1000
G1 X1867.431 Y-205.244 B3058.35 F1000
G1 X1867.191 Y-205.250 B3058.64 F1000
G1 X1866.951 Y-205.258 B3058.01 F1000
G1 X1866.711 Y-205.270 B3057.17 F1000
G1 X1866.471 Y-205.282 B3057.26 F1000
G1 X1866.231 Y-205.284 B3059.56 F1000
G1 X1865.991 Y-205.306 B3054.60 F1000
G1 X1865.751 Y-205.320 B3056.84 F1000
G1 X1865.512 Y-205.333 B3056.89 F1000
G1 X1865.272 Y-205.346 B3056.72 F1000
G1 X1865.032 Y-205.360 B3056.72 F1000
G1 X1864.792 Y-205.374 B3056.72 F1000
G1 X1864.552 Y-205.393 B3055.39 F1000
G1 X1864.312 Y-205.414 B3055.13 F1000
G1 X1864.072 Y-205.437 B3054.47 F1000
G1 X1863.832 Y-205.460 B3054.46 F1000
G1 X1863.592 Y-205.483 B3054.46 F1000
G1 X1863.353 Y-205.507 B3054.46 F1000
G1 X1863.113 Y-205.530 B3054.46 F1000
G1 X1862.873 Y-205.553 B3054.46 F1000
G1 X1862.633 Y-205.578 B3053.98 F1000
G1 X1862.393 Y-205.607 B3053.14 F1000
G1 X1862.153 Y-205.636 B3053.14 F1000
G1 X1861.913 Y-205.665 B3053.14 F1000
G1 X1861.673 Y-205.694 B3053.14 F1000
G1 X1861.434 Y-205.723 B3053.07 F1000
G1 X1861.194 Y-205.755 B3052.36 F1000
G1 X1860.954 Y-205.787 B3052.36 F1000
G1 X1860.714 Y-205.827 B3050.69 F1000
G1 X1860.474 Y-205.868 B3050.34 F1000
G1 X1860.234 Y-205.908 B3050.34 F1000
G1 X1859.994 Y-205.949 B3050.34 F1000
G1 X1859.754 Y-205.990 B3050.34 F1000
G1 X1859.514 Y-206.031 B3050.34 F1000
G1 X1859.275 Y-206.077 B3049.14 F1000
G1 X1859.035 Y-206.132 B3047.15 F1000
G1 X1858.795 Y-206.186 B3047.14 F1000
G1 X1858.555 Y-206.241 B3047.14 F1000
G1 X1858.315 Y-206.296 B3047.14 F1000
G1 X1858.075 Y-206.351 B3047.14 F1000
G1 X1857.835 Y-206.417 B3044.45 F1000
G1 X1857.595 Y-206.487 B3043.91 F1000
G1 X1857.355 Y-206.556 B3043.86 F1000
G1 X1857.116 Y-206.628 B3043.24 F1000
G1 X1856.876 Y-206.704 B3042.38 F1000
G1 X1856.636 Y-206.795 B3039.35 F1000
G1 X1856.396 Y-206.885 B3039.47 F1000
G1 X1856.156 Y-206.975 B3039.47 F1000
G1 X1855.916 Y-207.073 B3037.61 F1000
G1 X1855.676 Y-207.185 B3034.97 F1000
G1 X1855.436 Y-207.297 B3034.99 F1000
G1 X1855.196 Y-207.415 B3033.91 F1000
G1 X1854.957 Y-207.555 B3029.60 F1000
G1 X1854.717 Y-207.699 B3029.16 F1000
G1 X1854.477 Y-207.845 B3028.67 F1000
G1 X1854.237 Y-207.991 B3028.67 F1000
G1 X1853.997 Y-208.144 B3027.36 F1000
G1 X1853.757 Y-208.306 B3026.00 F1000
G1 X1853.517 Y-208.472 B3025.38 F1000
G1 X1853.277 Y-208.638 B3025.30 F1000
G1 Z10.000 F500
G1 B2994.68 F1000
G1 Z0.000 F500
G1 X1853.037 Y-209.160 B2994.68 F1000
G1 Z10.000 F500
G1 B3069.66 F1000
G1 Z0.000 F500
G1 X1852.798 Y-209.119 B3069.66 F1000
G1 X1852.558 Y-209.129 B3057.68 F1000
G1 Z10.000 F500
G1 B3024.65 F1000
G1 Z0.000 F500
G1 X1852.318 Y-209.299 B3024.65 F1000
G1 X1852.078 Y-209.469 B3024.65 F1000
G1 X1851.838 Y-209.639 B3024.65 F1000
G1 X1851.598 Y-209.812 B3024.22 F1000
G1 X1851.358 Y-210.000 B3021.88 F1000
G1 X1851.118 Y-210.189 B3021.88 F1000
G1 X1850.879 Y-210.377 B3021.88 F1000
G1 X1850.639 Y-210.565 B3021.88 F1000
G1 X1850.399 Y-210.753 B3021.88 F1000
G1 X1850.159 Y-210.942 B3021.88 F1000
G1 X1849.919 Y-211.130 B3021.88 F1000
G1 X1849.679 Y-211.318 B3021.88 F1000
G1 X1849.439 Y-211.506 B3021.88 F1000
G1 X1849.199 Y-211.695 B3021.88 F1000
G1 X1848.959 Y-211.883 B3021.88 F1000
G1 X1848.720 Y-212.071 B3021.88 F1000
G1 X1848.480 Y-212.259 B3021.88 F1000
G1 X1848.240 Y-212.448 B3021.88 F1000
G1 X1848.000 Y-212.636 B3021.88 F1000
G1 X1847.760 Y-212.824 B3021.88 F1000
G1 X1847.520 Y-213.013 B3021.78 F1000
G1 X1847.280 Y-213.211 B3020.51 F1000
G1 X1847.040 Y-213.425 B3018.29 F1000
G1 X1846.800 Y-213.644 B3017.58 F1000
G1 X1846.561 Y-213.863 B3017.58 F1000
G1 X1846.321 Y-214.082 B3017.58 F1000
G1 X1846.081 Y-214.301 B3017.58 F1000
G1 X1845.841 Y-214.521 B3017.58 F1000
G1 X1845.601 Y-214.740 B3017.58 F1000
G1 X1845.361 Y-214.959 B3017.58 F1000
G1 X1845.121 Y-215.178 B3017.58 F1000
G1 X1844.881 Y-215.397 B3017.58 F1000
G1 X1844.641 Y-215.617 B3017.58 F1000
G1 X1844.402 Y-215.838 B3017.29 F1000
G1 X1844.162 Y-216.082 B3014.50 F1000
G1 X1843.922 Y-216.326 B3014.50 F1000
G1 X1843.682 Y-216.570 B3014.50 F1000
G1 X1843.442 Y-216.814 B3014.50 F1000
G1 X1843.202 Y-217.059 B3014.50 F1000
G1 X1842.962 Y-217.303 B3014.50 F1000
G1 X1842.722 Y-217.548 B3014.37 F1000
G1 X1842.482 Y-217.794 B3014.32 F1000
G1 X1842.243 Y-218.039 B3014.32 F1000
G1 X1842.003 Y-218.285 B3014.32 F1000
G1 X1841.763 Y-218.531 B3014.32 F1000
G1 X1841.561 Y-218.757 B3011.76 F1000
G1 Z10.000 F500
G1 B3150.00 F1000
G1 Z0.000 F500
G1 X1841.561 Y-206.250 B3150.00 F1000
G1 Z10.000 F500
G1 B3060.00 F1000
G1 Z0.000 F500
G1 X1838.411 Y-206.250 B3060.00 F1000
G1 Z10.000 F500
G1 B2970.00 F1000
G1 Z0.000 F500
G1 X1838.411 Y-222.474 B2970.00 F1000
G1 Z10.000 F500
G1 B3007.57 F1000
G1 Z0.000 F500
G1 X1838.404 Y-222.483 B3007.57 F1000
G1 X1838.165 Y-222.795 B3007.57 F1000
G1 X1837.925 Y-223.107 B3007.57 F1000
G1 X1837.685 Y-223.419 B3007.57 F1000
G1 X1837.445 Y-223.730 B3007.57 F1000
G1 X1837.205 Y-224.042 B3007.57 F1000
G1 X1836.965 Y-224.354 B3007.57 F1000
G1 X1836.725 Y-224.698 B3004.91 F1000
G1 X1836.485 Y-225.045 B3004.65 F1000
G1 X1836.245 Y-225.392 B3004.65 F1000
G1 X1836.006 Y-225.740 B3004.56 F1000
G1 X1835.766 Y-226.093 B3004.23 F1000
G1 X1835.526 Y-226.445 B3004.23 F1000
G1 X1835.286 Y-226.798 B3004.23 F1000
G1 X1835.046 Y-227.151 B3004.23 F1000
G1 X1834.806 Y-227.511 B3003.66 F1000
G1 X1834.566 Y-227.901 B3001.57 F1000
G1 X1834.326 Y-228.292 B3001.57 F1000
G1 X1834.086 Y-228.682 B3001.57 F1000
G1 X1833.847 Y-229.073 B3001.57 F1000
G1 X1833.607 Y-229.463 B3001.57 F1000
G1 X1833.367 Y-229.859 B3001.22 F1000
G1 X1833.127 Y-230.245 B3001.85 F1000
G1 X1832.887 Y-230.630 B3001.95 F1000
G1 X1832.647 Y-231.408 B2987.13 F1000
G1 Z10.000 F500
G1 B3028.80 F1000
G1 Z0.000 F500
G1 X1832.407 Y-231.553 B3028.80 F1000
G1 X1832.167 Y-231.984 B2999.10 F1000
G1 X1831.927 Y-232.427 B2998.45 F1000
G1 X1831.688 Y-232.854 B2999.30 F1000
G1 X1831.448 Y-234.696 B2977.42 F1000
G1 Z10.000 F500
G1 B3060.00 F1000
G1 Z0.000 F500
G1 X1831.208 Y-234.696 B3060.00 F1000
G1 X1830.968 Y-234.696 B3060.00 F1000
G1 X1830.728 Y-234.696 B3060.00 F1000
G1 X1830.488 Y-234.696 B3060.00 F1000
G1 X1830.248 Y-234.696 B3060.00 F1000
G1 X1830.008 Y-234.696 B3060.00 F1000
G1 X1829.769 Y-234.696 B3060.00 F1000
G1 X1829.529 Y-234.696 B3060.00 F1000
G1 X1829.289 Y-234.696 B3060.00 F1000
G1 X1829.049 Y-234.696 B3060.00 F1000
G1 X1828.809 Y-234.696 B3060.00 F1000
G1 X1828.569 Y-234.696 B3060.00 F1000
G1 X1828.329 Y-234.696 B3060.00 F1000
G1 X1828.089 Y-234.696 B3060.00 F1000
G1 X1827.849 Y-234.696 B3060.00 F1000
G1 X1827.610 Y-234.696 B3060.00 F1000
G1 X1827.370 Y-234.696 B3060.00 F1000
G1 X1827.130 Y-234.696 B3060.00 F1000
G1 X1826.890 Y-234.696 B3060.00 F1000
G1 X1826.650 Y-234.696 B3060.00 F1000
G1 X1826.410 Y-234.696 B3060.00 F1000
G1 X1826.170 Y-234.696 B3060.00 F1000
G1 X1825.930 Y-234.696 B3060.00 F1000
G1 X1825.690 Y-234.696 B3060.00 F1000
G1 X1825.451 Y-234.696 B3060.00 F1000
G1 X1825.211 Y-234.696 B3060.00 F1000
G1 X1824.971 Y-234.696 B3060.00 F1000
G1 X1824.731 Y-234.696 B3060.00 F1000
G1 X1824.491 Y-234.696 B3060.00 F1000
G1 Z10.000 F500
G1 B3029.28 F1000
G1 Z0.000 F500
G1 X1824.251 Y-234.839 B3029.28 F1000
G1 X1824.011 Y-234.975 B3030.37 F1000
G1 X1823.771 Y-234.998 B3054.52 F1000
G1 Z10.000 F500
G1 B2970.00 F1000
G1 Z0.000 F500
G1 X1823.771 Y-248.912 B2970.00 F1000
G1 Z10.000 F500
G1 B3060.00 F1000
G1 Z0.000 F500
G1 X1804.641 Y-248.912 B3060.00 F1000
G1 Z10.000 F500
G1 B3150.00 F1000
G1 Z0.000 F500
G1 X1804.641 Y-220.434 B3150.00 F1000
G1 Z10.000 F500
G1 B3060.00 F1000
G1 Z0.000 F500
G1 X1801.491 Y-220.434 B3060.00 F1000
G1 Z10.000 F500
G1 B2970.00 F1000
G1 Z0.000 F500
G1 X1801.491 Y-248.912 B2970.00 F1000
G1 Z10.000 F500
G1 B3060.00 F1000
G1 Z0.000 F500
G1 X1793.066 Y-248.912 B3060.00 F1000
G1 Z10.000 F500
G1 B3150.00 F1000
G1 Z0.000 F500
G1 X1793.066 Y-191.956 B3150.00 F1000
G1 Z10.000 F500
G1 B3240.00 F1000
G1 Z0.000 F500
G1 X1960.746 Y-191.956 B3240.00 F1000
G1 Z10.000 F500
G1 A401.956 F200 (ADVANCE MATERIAL)
G1 Z10.000 F500
G0 X746.363 Y-201.956
G1 Z10.000 F500
G1 B3330.00 F1000
G1 Z0.000 F500
G1 X746.363 Y-260.912 B3330.00 F1000
G1 Z10.000 F500
G1 B3420.00 F1000
G1 Z0.000 F500
G1 X665.066 Y-260.912 B3420.00 F1000
G1 Z10.000 F500
G1 B3510.00 F1000
G1 Z0.000 F500
G1 X665.066 Y-201.956 B3510.00 F1000
G1 Z10.000 F500
G1 B3600.00 F1000
G1 Z0.000 F500
G1 X673.491 Y-201.956 B3600.00 F1000
G1 Z10.000 F500
G1 B3690.00 F1000
G1 Z0.000 F500
G1 X673.491 Y-231.434 B3690.00 F1000
G1 Z10.000 F500
G1 B3600.00 F1000
G1 Z0.000 F500
G1 X676.641 Y-231.434 B3600.00 F1000
G1 Z10.000 F500
G1 B3510.00 F1000
G1 Z0.000 F500
G1 X676.641 Y-201.956 B3510.00 F1000
G1 Z10.000 F500
G1 B3600.00 F1000
G1 Z0.000 F500
G1 X688.815 Y-201.956 B3600.00 F1000
G1 Z10.000 F500
G1 B3690.00 F1000
G1 Z0.000 F500
G1 X688.815 Y-231.434 B3690.00 F1000
G1 Z10.000 F500
G1 B3600.00 F1000
G1 Z0.000 F500
G1 X691.965 Y-231.434 B3600.00 F1000
G1 Z10.000 F500
G1 B3510.00 F1000
G1 Z0.000 F500
G1 X691.965 Y-201.956 B3510.00 F1000
G1 Z10.000 F500
G1 B3600.00 F1000
G1 Z0.000 F500
G1 X704.139 Y-201.956 B3600.00 F1000
G1 Z10.000 F500
G1 B3690.00 F1000
G1 Z0.000 F500
G1 X704.139 Y-231.434 B3690.00 F1000
G1 Z10.000 F500
G1 B3600.00 F1000
G1 Z0.000 F500
G1 X707.289 Y-231.434 B3600.00 F1000
G1 Z10.000 F500
G1 B3510.00 F1000
G1 Z0.000 F500
G1 X707.289 Y-201.956 B3510.00 F1000
G1 Z10.000 F500
G1 B3600.00 F1000
G1 Z0.000 F500
G1 X719.463 Y-201.956 B3600.00 F1000
G1 Z10.000 F500
G1 B3690.00 F1000
G1 Z0.000 F500
G1 X719.463 Y-231.434 B3690.00 F1000
G1 Z10.000 F500
G1 B3600.00 F1000
G1 Z0.000 F500
G1 X722.613 Y-231.434 B3600.00 F1000
G1 Z10.000 F500
G1 B3510.00 F1000
G1 Z0.000 F500
G1 X722.613 Y-201.956 B3510.00 F1000
G1 Z10.000 F500
G1 B3600.00 F1000
G1 Z0.000 F500
G1 X734.788 Y-201.956 B3600.00 F1000
G1 Z10.000 F500
G1 B3690.00 F1000
G1 Z0.000 F500
G1 X734.788 Y-231.434 B3690.00 F1000
G1 Z10.000 F500
G1 B3600.00 F1000
G1 Z0.000 F500
G1 X737.938 Y-231.434 B3600.00 F1000
G1 Z10.000 F500
G1 B3510.00 F1000
G1 Z0.000 F500
G1 X737.938 Y-201.956 B3510.00 F1000
G1 Z10.000 F500
G1 B3600.00 F1000
G1 Z0.000 F500
