(Generated by custom-packaging - grblHAL Multi-Axis)
M8 (Lights ON)

G21  (mm)
G90  (absolute)
G1 Z10.000 F1000
G1 B-0.00 F2000
G1 Z10.000 F1000
G1 B90.00 F2000
G1 Z10.000 F1000
G0 X79.631 Y19.140
M3 S2000 (Start Oscillation)
G1 Z10.000 F1000
G1 B90.00 F2000
G0 X79.631 Y19.140
G1 Z0.000 F1000
G1 X79.631 Y0.272 B90.00 F2000
G1 X79.631 Y0.272 B90.00 F2000
G1 Z10.000 F1000
G1 B180.00 F2000
G0 X79.631 Y0.272
G1 Z0.000 F1000
G1 X76.481 Y0.272 B180.00 F2000
G1 X76.481 Y0.272 B180.00 F2000
G1 Z10.000 F1000
G1 B270.00 F2000
G0 X76.481 Y0.272
G1 Z0.000 F1000
G1 X76.481 Y19.140 B270.00 F2000
G1 X76.481 Y19.140 B270.00 F2000
G1 Z10.000 F1000
G1 B180.00 F2000
G0 X76.481 Y19.140
G1 Z0.000 F1000
G1 X74.101 Y19.140 B180.00 F2000
G1 X74.101 Y19.140 B180.00 F2000
G1 Z10.000 F1000
G1 B90.45 F2000
G0 X74.101 Y19.140
G1 Z0.000 F1000
G1 X74.064 Y14.540 B90.45 F2000
G1 X74.064 Y14.523 B92.96 F2000
G1 X74.063 Y14.522 B98.00 F2000
G1 X74.063 Y14.522 B102.98 F2000
G1 X74.058 Y14.505 B107.98 F2000
G1 X70.326 Y4.519 B110.49 F2000
G1 X70.319 Y4.502 B113.25 F2000
G1 X70.318 Y4.501 B118.82 F2000
G1 X70.318 Y4.501 B124.31 F2000
G1 X70.306 Y4.486 B129.84 F2000
G1 X63.051 Y-3.401 B132.61 F2000
G1 X63.038 Y-3.414 B135.37 F2000
G1 X63.037 Y-3.415 B140.94 F2000
G1 X63.037 Y-3.415 B146.43 F2000
G1 X63.020 Y-3.424 B151.96 F2000
G1 X58.575 Y-5.523 B154.72 F2000
G1 X58.575 Y-5.523 B154.72 F2000
G1 Z10.000 F1000
G1 B90.00 F2000
G0 X58.575 Y-5.523
G1 Z0.000 F1000
G1 X58.575 Y-12.431 B90.00 F2000
G1 X58.575 Y-12.431 B90.00 F2000
G1 Z10.000 F1000
G1 B180.00 F2000
G0 X58.575 Y-12.431
G1 Z0.000 F1000
G1 X55.425 Y-12.431 B180.00 F2000
G1 X55.425 Y-12.431 B180.00 F2000
G1 Z10.000 F1000
G1 B270.00 F2000
G0 X55.425 Y-12.431
G1 Z0.000 F1000
G1 X55.425 Y-7.011 B270.00 F2000
G1 X55.425 Y-7.011 B270.00 F2000
G1 Z10.000 F1000
G1 B154.72 F2000
G0 X55.425 Y-7.011
G1 Z0.000 F1000
G1 X53.381 Y-7.976 B154.72 F2000
G1 X53.364 Y-7.983 B157.49 F2000
G1 X53.363 Y-7.983 B163.06 F2000
G1 X53.363 Y-7.983 B168.56 F2000
G1 X53.344 Y-7.985 B174.09 F2000
G1 X42.617 Y-8.574 B176.86 F2000
G1 X42.597 Y-8.574 B179.63 F2000
G1 X42.597 Y-8.574 B185.20 F2000
G1 X42.596 Y-8.574 B190.71 F2000
G1 X42.578 Y-8.569 B196.25 F2000
G1 X37.519 Y-6.824 B199.02 F2000
G1 X37.519 Y-6.824 B199.02 F2000
G1 Z10.000 F1000
G1 B90.00 F2000
G0 X37.519 Y-6.824
G1 Z0.000 F1000
G1 X37.519 Y-12.438 B90.00 F2000
G1 X37.519 Y-12.438 B90.00 F2000
G1 Z10.000 F1000
G1 B180.00 F2000
G0 X37.519 Y-12.438
G1 Z0.000 F1000
G1 X34.369 Y-12.438 B180.00 F2000
G1 X34.369 Y-12.438 B180.00 F2000
G1 Z10.000 F1000
G1 B270.00 F2000
G0 X34.369 Y-12.438
G1 Z0.000 F1000
G1 X34.369 Y-5.738 B270.00 F2000
G1 X34.369 Y-5.738 B270.00 F2000
G1 Z10.000 F1000
G1 B199.02 F2000
G0 X34.369 Y-5.738
G1 Z0.000 F1000
G1 X32.475 Y-5.085 B199.02 F2000
G1 X32.456 Y-5.077 B202.13 F2000
G1 X32.455 Y-5.077 B208.39 F2000
G1 X32.455 Y-5.077 B214.57 F2000
G1 X32.438 Y-5.063 B220.79 F2000
G1 X22.850 Y4.165 B223.90 F2000
G1 X22.834 Y4.182 B227.34 F2000
G1 X22.833 Y4.183 B234.25 F2000
G1 X22.833 Y4.183 B241.07 F2000
G1 X22.824 Y4.206 B247.94 F2000
G1 X18.624 Y16.669 B251.38 F2000
G1 X18.620 Y16.685 B253.69 F2000
G1 X18.620 Y16.685 B258.34 F2000
G1 X18.620 Y16.685 B262.93 F2000
G1 X18.619 Y16.702 B267.55 F2000
G1 X18.613 Y19.140 B269.86 F2000
G1 X18.613 Y19.140 B269.86 F2000
G1 Z10.000 F1000
G1 B180.00 F2000
G0 X18.613 Y19.140
G1 Z0.000 F1000
G1 X16.463 Y19.140 B180.00 F2000
G1 X16.463 Y19.140 B180.00 F2000
G1 Z10.000 F1000
G1 B90.00 F2000
G0 X16.463 Y19.140
G1 Z0.000 F1000
G1 X16.463 Y0.272 B90.00 F2000
G1 X16.463 Y0.272 B90.00 F2000
G1 Z10.000 F1000
G1 B180.00 F2000
G0 X16.463 Y0.272
G1 Z0.000 F1000
G1 X13.313 Y0.272 B180.00 F2000
G1 X13.313 Y0.272 B180.00 F2000
G1 Z10.000 F1000
G1 B270.00 F2000
G0 X13.313 Y0.272
G1 Z0.000 F1000
G1 X13.313 Y19.140 B270.00 F2000
G1 X13.313 Y19.140 B270.00 F2000
G1 Z10.000 F1000
G1 B180.00 F2000
G0 X13.313 Y19.140
G1 Z0.000 F1000
G1 X4.888 Y19.140 B180.00 F2000
G1 X4.888 Y19.140 B180.00 F2000
G1 Z10.000 F1000
G1 B90.00 F2000
G0 X4.888 Y19.140
G1 Z0.000 F1000
G1 X4.888 Y-18.596 B90.00 F2000
G1 X4.888 Y-18.596 B90.00 F2000
G1 Z10.000 F1000
G1 B-0.00 F2000
G0 X4.888 Y-18.596
G1 Z0.000 F1000
G1 X88.056 Y-18.596 B-0.00 F2000
G1 X88.056 Y-18.596 B-0.00 F2000
G1 Z10.000 F1000
G1 B-90.00 F2000
G0 X88.056 Y-18.596
G1 Z0.000 F1000
G1 X88.056 Y19.140 B-90.00 F2000
G1 X88.056 Y19.140 B-90.00 F2000
G1 Z10.000 F1000
G1 B-180.00 F2000
G0 X88.056 Y19.140
G1 Z0.000 F1000
G1 X79.631 Y19.140 B-180.00 F2000
G1 Z10.000 F1000
G1 Z10.000 F1000
G0 X-13.178 Y19.253
G1 Z10.000 F1000
G1 B-270.00 F2000
G0 X-13.178 Y19.253
G1 Z0.000 F1000
G1 X-13.178 Y0.385 B-270.00 F2000
G1 X-13.178 Y0.385 B-270.00 F2000
G1 Z10.000 F1000
G1 B-180.00 F2000
G0 X-13.178 Y0.385
G1 Z0.000 F1000
G1 X-16.328 Y0.385 B-180.00 F2000
G1 X-16.328 Y0.385 B-180.00 F2000
G1 Z10.000 F1000
G1 B-90.00 F2000
G0 X-16.328 Y0.385
G1 Z0.000 F1000
G1 X-16.328 Y19.253 B-90.00 F2000
G1 X-16.328 Y19.253 B-90.00 F2000
G1 Z10.000 F1000
G1 B-180.00 F2000
G0 X-16.328 Y19.253
G1 Z0.000 F1000
G1 X-34.234 Y19.253 B-180.00 F2000
G1 X-34.234 Y19.253 B-180.00 F2000
G1 Z10.000 F1000
G1 B-270.00 F2000
G0 X-34.234 Y19.253
G1 Z0.000 F1000
G1 X-34.234 Y-0.810 B-270.00 F2000
G1 X-34.234 Y-0.810 B-270.00 F2000
G1 Z10.000 F1000
G1 B-180.00 F2000
G0 X-34.234 Y-0.810
G1 Z0.000 F1000
G1 X-37.384 Y-0.810 B-180.00 F2000
G1 X-37.384 Y-0.810 B-180.00 F2000
G1 Z10.000 F1000
G1 B-90.00 F2000
G0 X-37.384 Y-0.810
G1 Z0.000 F1000
G1 X-37.384 Y13.565 B-90.00 F2000
G1 X-37.384 Y13.565 B-90.00 F2000
G1 Z10.000 F1000
G1 B-244.46 F2000
G0 X-37.384 Y13.565
G1 Z0.000 F1000
G1 X-38.241 Y11.772 B-244.46 F2000
G1 X-38.250 Y11.756 B-241.78 F2000
G1 X-38.250 Y11.756 B-241.78 F2000
G1 Z10.000 F1000
G1 B-231.01 F2000
G0 X-38.250 Y11.756
G1 Z0.000 F1000
G1 X-38.250 Y11.755 B-231.01 F2000
G1 X-38.251 Y11.755 B-225.70 F2000
G1 X-38.251 Y11.755 B-225.70 F2000
G1 Z10.000 F1000
G1 B-214.98 F2000
G0 X-38.251 Y11.755
G1 Z0.000 F1000
G1 X-38.266 Y11.744 B-214.98 F2000
G1 X-43.014 Y8.743 B-212.30 F2000
G1 X-43.034 Y8.731 B-208.97 F2000
G1 X-43.035 Y8.731 B-202.27 F2000
G1 X-43.035 Y8.731 B-195.65 F2000
G1 X-43.058 Y8.727 B-189.00 F2000
G1 X-47.487 Y8.288 B-185.67 F2000
G1 X-47.507 Y8.287 B-182.73 F2000
G1 X-47.508 Y8.287 B-176.81 F2000
G1 X-47.508 Y8.287 B-170.97 F2000
G1 X-47.528 Y8.292 B-165.09 F2000
G1 X-51.753 Y9.653 B-162.15 F2000
G1 X-51.771 Y9.660 B-159.20 F2000
G1 X-51.772 Y9.661 B-153.28 F2000
G1 X-51.772 Y9.661 B-147.43 F2000
G1 X-51.788 Y9.674 B-141.55 F2000
G1 X-55.138 Y12.626 B-138.61 F2000
G1 X-55.152 Y12.640 B-135.68 F2000
G1 X-55.153 Y12.640 B-129.80 F2000
G1 X-55.153 Y12.641 B-123.99 F2000
G1 X-55.162 Y12.659 B-118.14 F2000
G1 X-55.290 Y12.930 B-115.22 F2000
G1 X-55.290 Y12.930 B-115.22 F2000
G1 Z10.000 F1000
G1 B-270.00 F2000
G0 X-55.290 Y12.930
G1 Z0.000 F1000
G1 X-55.290 Y-1.104 B-270.00 F2000
G1 X-55.290 Y-1.104 B-270.00 F2000
G1 Z10.000 F1000
G1 B-180.00 F2000
G0 X-55.290 Y-1.104
G1 Z0.000 F1000
G1 X-58.440 Y-1.104 B-180.00 F2000
G1 X-58.440 Y-1.104 B-180.00 F2000
G1 Z10.000 F1000
G1 B-90.00 F2000
G0 X-58.440 Y-1.104
G1 Z0.000 F1000
G1 X-58.440 Y19.253 B-90.00 F2000
G1 X-58.440 Y19.253 B-90.00 F2000
G1 Z10.000 F1000
G1 B-180.00 F2000
G0 X-58.440 Y19.253
G1 Z0.000 F1000
G1 X-76.346 Y19.253 B-180.00 F2000
G1 X-76.346 Y19.253 B-180.00 F2000
G1 Z10.000 F1000
G1 B-270.00 F2000
G0 X-76.346 Y19.253
G1 Z0.000 F1000
G1 X-76.346 Y0.385 B-270.00 F2000
G1 X-76.346 Y0.385 B-270.00 F2000
G1 Z10.000 F1000
G1 B-180.00 F2000
G0 X-76.346 Y0.385
G1 Z0.000 F1000
G1 X-79.496 Y0.385 B-180.00 F2000
G1 X-79.496 Y0.385 B-180.00 F2000
G1 Z10.000 F1000
G1 B-90.00 F2000
G0 X-79.496 Y0.385
G1 Z0.000 F1000
G1 X-79.496 Y19.253 B-90.00 F2000
G1 X-79.496 Y19.253 B-90.00 F2000
G1 Z10.000 F1000
G1 B-180.00 F2000
G0 X-79.496 Y19.253
G1 Z0.000 F1000
G1 X-87.921 Y19.253 B-180.00 F2000
G1 X-87.921 Y19.253 B-180.00 F2000
G1 Z10.000 F1000
G1 B-270.00 F2000
G0 X-87.921 Y19.253
G1 Z0.000 F1000
G1 X-87.921 Y-18.483 B-270.00 F2000
G1 X-87.921 Y-18.483 B-270.00 F2000
G1 Z10.000 F1000
G1 B-360.00 F2000
G0 X-87.921 Y-18.483
G1 Z0.000 F1000
G1 X-4.753 Y-18.483 B-360.00 F2000
G1 X-4.753 Y-18.483 B-360.00 F2000
G1 Z10.000 F1000
G1 B-450.00 F2000
G0 X-4.753 Y-18.483
G1 Z0.000 F1000
G1 X-4.753 Y19.253 B-450.00 F2000
G1 X-4.753 Y19.253 B-450.00 F2000
G1 Z10.000 F1000
G1 B-540.00 F2000
G0 X-4.753 Y19.253
G1 Z0.000 F1000
G1 X-13.178 Y19.253 B-540.00 F2000
G1 Z10.000 F1000
M5 (Stop Oscillation)
M9 (Lights OFF)

M2