(Generated by custom-packaging - grblHAL Multi-Axis)
M8 (Lights ON)

G21  (mm)
G90  (absolute)
G1 Z10.000 F1000
G1 B-0.00 F2000
G1 Z10.000 F1000
G1 B90.00 F2000
G1 Z10.000 F1000
G0 X80.192 Y19.477
M3 S2000 (Start Oscillation)
G1 Z10.000 F1000
G1 B90.00 F2000
G0 X80.192 Y19.477
G1 Z0.000 F1000
G1 X80.192 Y0.610 B90.00 F2000
G1 X80.192 Y0.610 B90.00 F2000
G1 Z10.000 F1000
G1 B180.00 F2000
G0 X80.192 Y0.610
G1 Z0.000 F1000
G1 X77.042 Y0.610 B180.00 F2000
G1 X77.042 Y0.610 B180.00 F2000
G1 Z10.000 F1000
G1 B270.00 F2000
G0 X77.042 Y0.610
G1 Z0.000 F1000
G1 X77.042 Y19.477 B270.00 F2000
G1 X77.042 Y19.477 B270.00 F2000
G1 Z10.000 F1000
G1 B180.00 F2000
G0 X77.042 Y19.477
G1 Z0.000 F1000
G1 X65.517 Y19.477 B180.00 F2000
G1 X65.517 Y19.477 B180.00 F2000
G1 Z10.000 F1000
G1 B90.58 F2000
G0 X65.517 Y19.477
G1 Z0.000 F1000
G1 X65.472 Y15.094 B90.58 F2000
G1 X65.471 Y15.073 B93.67 F2000
G1 X65.471 Y15.072 B99.88 F2000
G1 X65.471 Y15.072 B106.02 F2000
G1 X65.462 Y15.052 B112.20 F2000
G1 X62.153 Y8.046 B115.28 F2000
G1 X62.142 Y8.026 B118.60 F2000
G1 X62.142 Y8.025 B125.27 F2000
G1 X62.142 Y8.025 B131.86 F2000
G1 X62.124 Y8.010 B138.49 F2000
G1 X59.136 Y5.659 B141.80 F2000
G1 X59.136 Y5.659 B141.80 F2000
G1 Z10.000 F1000
G1 B90.00 F2000
G0 X59.136 Y5.659
G1 Z0.000 F1000
G1 X59.136 Y-6.920 B90.00 F2000
G1 X59.136 Y-6.920 B90.00 F2000
G1 Z10.000 F1000
G1 B180.00 F2000
G0 X59.136 Y-6.920
G1 Z0.000 F1000
G1 X55.986 Y-6.920 B180.00 F2000
G1 X55.986 Y-6.920 B180.00 F2000
G1 Z10.000 F1000
G1 B270.00 F2000
G0 X55.986 Y-6.920
G1 Z0.000 F1000
G1 X55.986 Y3.180 B270.00 F2000
G1 X55.986 Y3.180 B270.00 F2000
G1 Z10.000 F1000
G1 B141.80 F2000
G0 X55.986 Y3.180
G1 Z0.000 F1000
G1 X54.620 Y2.105 B141.80 F2000
G1 X54.601 Y2.092 B145.11 F2000
G1 X54.600 Y2.091 B151.77 F2000
G1 X54.600 Y2.091 B158.35 F2000
G1 X54.578 Y2.085 B164.97 F2000
G1 X47.028 Y0.519 B168.28 F2000
G1 X47.008 Y0.516 B171.22 F2000
G1 X47.007 Y0.516 B177.15 F2000
G1 X47.007 Y0.516 B183.01 F2000
G1 X46.987 Y0.519 B188.90 F2000
G1 X39.484 Y2.092 B191.84 F2000
G1 X39.467 Y2.096 B194.43 F2000
G1 X39.466 Y2.097 B199.63 F2000
G1 X39.466 Y2.097 B204.78 F2000
G1 X39.450 Y2.106 B209.95 F2000
G1 X38.080 Y2.979 B212.54 F2000
G1 X38.080 Y2.979 B212.54 F2000
G1 Z10.000 F1000
G1 B90.00 F2000
G0 X38.080 Y2.979
G1 Z0.000 F1000
G1 X38.080 Y-7.137 B90.00 F2000
G1 X38.080 Y-7.137 B90.00 F2000
G1 Z10.000 F1000
G1 B180.00 F2000
G0 X38.080 Y-7.137
G1 Z0.000 F1000
G1 X34.930 Y-7.137 B180.00 F2000
G1 X34.930 Y-7.137 B180.00 F2000
G1 Z10.000 F1000
G1 B270.00 F2000
G0 X34.930 Y-7.137
G1 Z0.000 F1000
G1 X34.930 Y4.989 B270.00 F2000
G1 X34.930 Y4.989 B270.00 F2000
G1 Z10.000 F1000
G1 B212.54 F2000
G0 X34.930 Y4.989
G1 Z0.000 F1000
G1 X34.488 Y5.271 B212.54 F2000
G1 X34.473 Y5.282 B215.14 F2000
G1 X34.473 Y5.282 B220.38 F2000
G1 X34.473 Y5.282 B225.55 F2000
G1 X34.461 Y5.296 B230.75 F2000
G1 X29.856 Y11.487 B233.35 F2000
G1 X29.845 Y11.504 B236.23 F2000
G1 X29.844 Y11.505 B242.01 F2000
G1 X29.844 Y11.505 B247.72 F2000
G1 X29.838 Y11.524 B253.47 F2000
G1 X28.133 Y18.546 B256.35 F2000
G1 X28.128 Y18.569 B259.78 F2000
G1 X28.127 Y18.593 B266.59 F2000
G1 X28.127 Y19.477 B270.00 F2000
G1 X28.127 Y19.477 B270.00 F2000
G1 Z10.000 F1000
G1 B180.00 F2000
G0 X28.127 Y19.477
G1 Z0.000 F1000
G1 X17.024 Y19.477 B180.00 F2000
G1 X17.024 Y19.477 B180.00 F2000
G1 Z10.000 F1000
G1 B90.00 F2000
G0 X17.024 Y19.477
G1 Z0.000 F1000
G1 X17.024 Y0.610 B90.00 F2000
G1 X17.024 Y0.610 B90.00 F2000
G1 Z10.000 F1000
G1 B180.00 F2000
G0 X17.024 Y0.610
G1 Z0.000 F1000
G1 X13.874 Y0.610 B180.00 F2000
G1 X13.874 Y0.610 B180.00 F2000
G1 Z10.000 F1000
G1 B270.00 F2000
G0 X13.874 Y0.610
G1 Z0.000 F1000
G1 X13.874 Y19.477 B270.00 F2000
G1 X13.874 Y19.477 B270.00 F2000
G1 Z10.000 F1000
G1 B180.00 F2000
G0 X13.874 Y19.477
G1 Z0.000 F1000
G1 X5.449 Y19.477 B180.00 F2000
G1 X5.449 Y19.477 B180.00 F2000
G1 Z10.000 F1000
G1 B90.00 F2000
G0 X5.449 Y19.477
G1 Z0.000 F1000
G1 X5.449 Y-18.258 B90.00 F2000
G1 X5.449 Y-18.258 B90.00 F2000
G1 Z10.000 F1000
G1 B-0.00 F2000
G0 X5.449 Y-18.258
G1 Z0.000 F1000
G1 X88.617 Y-18.258 B-0.00 F2000
G1 X88.617 Y-18.258 B-0.00 F2000
G1 Z10.000 F1000
G1 B-90.00 F2000
G0 X88.617 Y-18.258
G1 Z0.000 F1000
G1 X88.617 Y19.477 B-90.00 F2000
G1 X88.617 Y19.477 B-90.00 F2000
G1 Z10.000 F1000
G1 B-180.00 F2000
G0 X88.617 Y19.477
G1 Z0.000 F1000
G1 X80.192 Y19.477 B-180.00 F2000
G1 Z10.000 F1000
G1 Z10.000 F1000
G0 X-13.403 Y22.039
G1 Z10.000 F1000
G1 B-270.00 F2000
G0 X-13.403 Y22.039
G1 Z0.000 F1000
G1 X-13.403 Y2.171 B-270.00 F2000
G1 X-13.403 Y2.171 B-270.00 F2000
G1 Z10.000 F1000
G1 B-180.00 F2000
G0 X-13.403 Y2.171
G1 Z0.000 F1000
G1 X-16.553 Y2.171 B-180.00 F2000
G1 X-16.553 Y2.171 B-180.00 F2000
G1 Z10.000 F1000
G1 B-90.00 F2000
G0 X-16.553 Y2.171
G1 Z0.000 F1000
G1 X-16.553 Y22.039 B-90.00 F2000
G1 X-16.553 Y22.039 B-90.00 F2000
G1 Z10.000 F1000
G1 B-180.00 F2000
G0 X-16.553 Y22.039
G1 Z0.000 F1000
G1 X-34.459 Y22.039 B-180.00 F2000
G1 X-34.459 Y22.039 B-180.00 F2000
G1 Z10.000 F1000
G1 B-270.00 F2000
G0 X-34.459 Y22.039
G1 Z0.000 F1000
G1 X-34.459 Y2.171 B-270.00 F2000
G1 X-34.459 Y2.171 B-270.00 F2000
G1 Z10.000 F1000
G1 B-180.00 F2000
G0 X-34.459 Y2.171
G1 Z0.000 F1000
G1 X-37.609 Y2.171 B-180.00 F2000
G1 X-37.609 Y2.171 B-180.00 F2000
G1 Z10.000 F1000
G1 B-90.00 F2000
G0 X-37.609 Y2.171
G1 Z0.000 F1000
G1 X-37.609 Y22.039 B-90.00 F2000
G1 X-37.609 Y22.039 B-90.00 F2000
G1 Z10.000 F1000
G1 B-180.00 F2000
G0 X-37.609 Y22.039
G1 Z0.000 F1000
G1 X-55.515 Y22.039 B-180.00 F2000
G1 X-55.515 Y22.039 B-180.00 F2000
G1 Z10.000 F1000
G1 B-270.00 F2000
G0 X-55.515 Y22.039
G1 Z0.000 F1000
G1 X-55.515 Y2.171 B-270.00 F2000
G1 X-55.515 Y2.171 B-270.00 F2000
G1 Z10.000 F1000
G1 B-180.00 F2000
G0 X-55.515 Y2.171
G1 Z0.000 F1000
G1 X-58.665 Y2.171 B-180.00 F2000
G1 X-58.665 Y2.171 B-180.00 F2000
G1 Z10.000 F1000
G1 B-90.00 F2000
G0 X-58.665 Y2.171
G1 Z0.000 F1000
G1 X-58.665 Y22.039 B-90.00 F2000
G1 X-58.665 Y22.039 B-90.00 F2000
G1 Z10.000 F1000
G1 B-180.00 F2000
G0 X-58.665 Y22.039
G1 Z0.000 F1000
G1 X-76.571 Y22.039 B-180.00 F2000
G1 X-76.571 Y22.039 B-180.00 F2000
G1 Z10.000 F1000
G1 B-270.00 F2000
G0 X-76.571 Y22.039
G1 Z0.000 F1000
G1 X-76.571 Y2.171 B-270.00 F2000
G1 X-76.571 Y2.171 B-270.00 F2000
G1 Z10.000 F1000
G1 B-180.00 F2000
G0 X-76.571 Y2.171
G1 Z0.000 F1000
G1 X-79.721 Y2.171 B-180.00 F2000
G1 X-79.721 Y2.171 B-180.00 F2000
G1 Z10.000 F1000
G1 B-90.00 F2000
G0 X-79.721 Y2.171
G1 Z0.000 F1000
G1 X-79.721 Y22.039 B-90.00 F2000
G1 X-79.721 Y22.039 B-90.00 F2000
G1 Z10.000 F1000
G1 B-180.00 F2000
G0 X-79.721 Y22.039
G1 Z0.000 F1000
G1 X-88.146 Y22.039 B-180.00 F2000
G1 X-88.146 Y22.039 B-180.00 F2000
G1 Z10.000 F1000
G1 B-270.00 F2000
G0 X-88.146 Y22.039
G1 Z0.000 F1000
G1 X-88.146 Y-17.697 B-270.00 F2000
G1 X-88.146 Y-17.697 B-270.00 F2000
G1 Z10.000 F1000
G1 B-360.00 F2000
G0 X-88.146 Y-17.697
G1 Z0.000 F1000
G1 X-4.978 Y-17.697 B-360.00 F2000
G1 X-4.978 Y-17.697 B-360.00 F2000
G1 Z10.000 F1000
G1 B-450.00 F2000
G0 X-4.978 Y-17.697
G1 Z0.000 F1000
G1 X-4.978 Y22.039 B-450.00 F2000
G1 X-4.978 Y22.039 B-450.00 F2000
G1 Z10.000 F1000
G1 B-540.00 F2000
G0 X-4.978 Y22.039
G1 Z0.000 F1000
G1 X-13.403 Y22.039 B-540.00 F2000
G1 Z10.000 F1000
M5 (Stop Oscillation)
M9 (Lights OFF)

M2