(Generated by custom-packaging - grblHAL Multi-Axis)
M8 (Lights ON)

G21  (mm)
G90  (absolute)
G1 Z10.000 F1000
G1 B-0.00 F2000
G1 Z10.000 F1000
G1 B90.00 F2000
G1 Z10.000 F1000
G0 X63.863 Y-5.466
M3 S2000 (Start Oscillation)
G1 Z10.000 F1000
G1 B90.00 F2000
G0 X63.863 Y-5.466
G1 Z0.000 F1000
G1 X63.863 Y-24.334 B90.00 F2000
G1 X63.863 Y-24.334 B90.00 F2000
G1 Z10.000 F1000
G1 B180.00 F2000
G0 X63.863 Y-24.334
G1 Z0.000 F1000
G1 X60.713 Y-24.334 B180.00 F2000
G1 X60.713 Y-24.334 B180.00 F2000
G1 Z10.000 F1000
G1 B270.00 F2000
G0 X60.713 Y-24.334
G1 Z0.000 F1000
G1 X60.713 Y-16.121 B270.00 F2000
G1 X60.713 Y-16.121 B270.00 F2000
G1 Z10.000 F1000
G1 B180.00 F2000
G0 X60.713 Y-16.121
G1 Z0.000 F1000
G1 X57.365 Y-16.121 B180.00 F2000
G1 X57.347 Y-16.120 B182.65 F2000
G1 X57.346 Y-16.120 B187.93 F2000
G1 X57.346 Y-16.120 B187.93 F2000
G1 Z10.000 F1000
G1 B209.17 F2000
G0 X57.346 Y-16.120
G1 Z0.000 F1000
G1 X57.346 Y-16.120 B209.17 F2000
G1 X57.346 Y-16.120 B209.17 F2000
G1 Z10.000 F1000
G1 B230.40 F2000
G0 X57.346 Y-16.120
G1 Z0.000 F1000
G1 X57.345 Y-16.120 B230.40 F2000
G1 X57.345 Y-16.120 B230.40 F2000
G1 Z10.000 F1000
G1 B251.69 F2000
G0 X57.345 Y-16.120
G1 Z0.000 F1000
G1 X57.345 Y-16.119 B251.69 F2000
G1 X57.345 Y-16.119 B256.97 F2000
G1 X57.343 Y-16.101 B262.27 F2000
G1 X57.309 Y-15.718 B264.93 F2000
G1 X57.298 Y-15.639 B262.09 F2000
G1 X57.279 Y-15.562 B256.41 F2000
G1 X57.253 Y-15.487 B250.73 F2000
G1 X57.220 Y-15.415 B245.05 F2000
G1 X57.179 Y-15.347 B239.38 F2000
G1 X57.132 Y-15.283 B233.70 F2000
G1 X57.079 Y-15.224 B228.02 F2000
G1 X57.021 Y-15.171 B222.34 F2000
G1 X56.957 Y-15.124 B216.66 F2000
G1 X56.889 Y-15.083 B210.98 F2000
G1 X56.817 Y-15.049 B205.30 F2000
G1 X56.743 Y-15.022 B199.63 F2000
G1 X56.666 Y-15.003 B193.95 F2000
G1 X28.417 Y-9.457 B191.11 F2000
G1 X28.346 Y-9.446 B188.53 F2000
G1 X28.274 Y-9.442 B183.39 F2000
G1 X23.119 Y-9.369 B180.81 F2000
G1 X23.119 Y-9.369 B180.81 F2000
G1 Z10.000 F1000
G1 B90.00 F2000
G0 X23.119 Y-9.369
G1 Z0.000 F1000
G1 X23.119 Y-26.274 B90.00 F2000
G1 X23.119 Y-26.274 B90.00 F2000
G1 Z10.000 F1000
G1 B180.00 F2000
G0 X23.119 Y-26.274
G1 Z0.000 F1000
G1 X19.969 Y-26.274 B180.00 F2000
G1 X19.969 Y-26.274 B180.00 F2000
G1 Z10.000 F1000
G1 B270.00 F2000
G0 X19.969 Y-26.274
G1 Z0.000 F1000
G1 X19.969 Y-9.324 B270.00 F2000
G1 X19.969 Y-9.324 B270.00 F2000
G1 Z10.000 F1000
G1 B180.81 F2000
G0 X19.969 Y-9.324
G1 Z0.000 F1000
G1 X10.753 Y-9.194 B180.81 F2000
G1 X10.682 Y-9.196 B178.25 F2000
G1 X10.611 Y-9.205 B173.12 F2000
G1 X10.541 Y-9.219 B167.99 F2000
G1 X-2.192 Y-12.529 B165.43 F2000
G1 X-2.252 Y-12.547 B163.20 F2000
G1 X-2.310 Y-12.570 B158.75 F2000
G1 X-11.871 Y-16.723 B156.52 F2000
G1 X-11.946 Y-16.760 B153.53 F2000
G1 X-12.016 Y-16.805 B147.55 F2000
G1 X-17.625 Y-20.796 B144.57 F2000
G1 X-17.625 Y-20.796 B144.57 F2000
G1 Z10.000 F1000
G1 B90.00 F2000
G0 X-17.625 Y-20.796
G1 Z0.000 F1000
G1 X-17.625 Y-32.559 B90.00 F2000
G1 X-17.625 Y-32.559 B90.00 F2000
G1 Z10.000 F1000
G1 B180.00 F2000
G0 X-17.625 Y-32.559
G1 Z0.000 F1000
G1 X-20.775 Y-32.559 B180.00 F2000
G1 X-20.775 Y-32.559 B180.00 F2000
G1 Z10.000 F1000
G1 B270.00 F2000
G0 X-20.775 Y-32.559
G1 Z0.000 F1000
G1 X-20.775 Y-23.037 B270.00 F2000
G1 X-20.775 Y-23.037 B270.00 F2000
G1 Z10.000 F1000
G1 B144.57 F2000
G0 X-20.775 Y-23.037
G1 Z0.000 F1000
G1 X-33.101 Y-31.808 B144.57 F2000
G1 X-33.119 Y-31.820 B147.62 F2000
G1 X-33.138 Y-31.829 B153.68 F2000
G1 X-38.342 Y-34.068 B156.72 F2000
G1 X-38.367 Y-34.077 B160.54 F2000
G1 X-38.393 Y-34.083 B168.13 F2000
G1 X-46.620 Y-35.249 B171.93 F2000
G1 X-46.638 Y-35.251 B174.59 F2000
G1 X-46.639 Y-35.251 B179.96 F2000
G1 X-46.639 Y-35.251 B185.26 F2000
G1 X-46.657 Y-35.248 B190.60 F2000
G1 X-57.376 Y-32.720 B193.27 F2000
G1 X-57.401 Y-32.713 B196.99 F2000
G1 X-57.425 Y-32.702 B204.36 F2000
G1 X-59.875 Y-31.396 B208.05 F2000
G1 X-59.890 Y-31.387 B210.63 F2000
G1 X-59.891 Y-31.387 B215.84 F2000
G1 X-59.891 Y-31.387 B215.84 F2000
G1 Z10.000 F1000
G1 B236.49 F2000
G0 X-59.891 Y-31.387
G1 Z0.000 F1000
G1 X-59.891 Y-31.386 B236.49 F2000
G1 X-59.891 Y-31.386 B236.49 F2000
G1 Z10.000 F1000
G1 B257.13 F2000
G0 X-59.891 Y-31.386
G1 Z0.000 F1000
G1 X-59.892 Y-31.386 B257.13 F2000
G1 X-59.892 Y-31.385 B262.26 F2000
G1 X-59.892 Y-31.368 B267.42 F2000
G1 X-59.892 Y-24.334 B270.00 F2000
G1 X-59.892 Y-24.334 B270.00 F2000
G1 Z10.000 F1000
G1 B180.00 F2000
G0 X-59.892 Y-24.334
G1 Z0.000 F1000
G1 X-61.519 Y-24.334 B180.00 F2000
G1 X-61.519 Y-24.334 B180.00 F2000
G1 Z10.000 F1000
G1 B270.00 F2000
G0 X-61.519 Y-24.334
G1 Z0.000 F1000
G1 X-61.519 Y-5.466 B270.00 F2000
G1 X-61.519 Y-5.466 B270.00 F2000
G1 Z10.000 F1000
G1 B180.00 F2000
G0 X-61.519 Y-5.466
G1 Z0.000 F1000
G1 X-69.944 Y-5.466 B180.00 F2000
G1 X-69.944 Y-5.466 B180.00 F2000
G1 Z10.000 F1000
G1 B90.00 F2000
G0 X-69.944 Y-5.466
G1 Z0.000 F1000
G1 X-69.944 Y-43.202 B90.00 F2000
G1 X-69.944 Y-43.202 B90.00 F2000
G1 Z10.000 F1000
G1 B-0.00 F2000
G0 X-69.944 Y-43.202
G1 Z0.000 F1000
G1 X72.288 Y-43.202 B-0.00 F2000
G1 X72.288 Y-43.202 B-0.00 F2000
G1 Z10.000 F1000
G1 B-90.00 F2000
G0 X72.288 Y-43.202
G1 Z0.000 F1000
G1 X72.288 Y-5.466 B-90.00 F2000
G1 X72.288 Y-5.466 B-90.00 F2000
G1 Z10.000 F1000
G1 B-180.00 F2000
G0 X72.288 Y-5.466
G1 Z0.000 F1000
G1 X63.863 Y-5.466 B-180.00 F2000
G1 Z10.000 F1000
G1 Z10.000 F1000
G0 X63.301 Y42.601
G1 Z10.000 F1000
G1 B-270.00 F2000
G0 X63.301 Y42.601
G1 Z0.000 F1000
G1 X63.301 Y22.733 B-270.00 F2000
G1 X63.301 Y22.733 B-270.00 F2000
G1 Z10.000 F1000
G1 B-180.00 F2000
G0 X63.301 Y22.733
G1 Z0.000 F1000
G1 X60.151 Y22.733 B-180.00 F2000
G1 X60.151 Y22.733 B-180.00 F2000
G1 Z10.000 F1000
G1 B-90.00 F2000
G0 X60.151 Y22.733
G1 Z0.000 F1000
G1 X60.151 Y42.601 B-90.00 F2000
G1 X60.151 Y42.601 B-90.00 F2000
G1 Z10.000 F1000
G1 B-180.00 F2000
G0 X60.151 Y42.601
G1 Z0.000 F1000
G1 X22.557 Y42.601 B-180.00 F2000
G1 X22.557 Y42.601 B-180.00 F2000
G1 Z10.000 F1000
G1 B-270.00 F2000
G0 X22.557 Y42.601
G1 Z0.000 F1000
G1 X22.557 Y22.733 B-270.00 F2000
G1 X22.557 Y22.733 B-270.00 F2000
G1 Z10.000 F1000
G1 B-180.00 F2000
G0 X22.557 Y22.733
G1 Z0.000 F1000
G1 X19.407 Y22.733 B-180.00 F2000
G1 X19.407 Y22.733 B-180.00 F2000
G1 Z10.000 F1000
G1 B-90.00 F2000
G0 X19.407 Y22.733
G1 Z0.000 F1000
G1 X19.407 Y42.601 B-90.00 F2000
G1 X19.407 Y42.601 B-90.00 F2000
G1 Z10.000 F1000
G1 B-180.00 F2000
G0 X19.407 Y42.601
G1 Z0.000 F1000
G1 X-18.187 Y42.601 B-180.00 F2000
G1 X-18.187 Y42.601 B-180.00 F2000
G1 Z10.000 F1000
G1 B-270.00 F2000
G0 X-18.187 Y42.601
G1 Z0.000 F1000
G1 X-18.187 Y22.733 B-270.00 F2000
G1 X-18.187 Y22.733 B-270.00 F2000
G1 Z10.000 F1000
G1 B-180.00 F2000
G0 X-18.187 Y22.733
G1 Z0.000 F1000
G1 X-21.337 Y22.733 B-180.00 F2000
G1 X-21.337 Y22.733 B-180.00 F2000
G1 Z10.000 F1000
G1 B-90.00 F2000
G0 X-21.337 Y22.733
G1 Z0.000 F1000
G1 X-21.337 Y42.601 B-90.00 F2000
G1 X-21.337 Y42.601 B-90.00 F2000
G1 Z10.000 F1000
G1 B-180.00 F2000
G0 X-21.337 Y42.601
G1 Z0.000 F1000
G1 X-58.931 Y42.601 B-180.00 F2000
G1 X-58.931 Y42.601 B-180.00 F2000
G1 Z10.000 F1000
G1 B-270.00 F2000
G0 X-58.931 Y42.601
G1 Z0.000 F1000
G1 X-58.931 Y22.733 B-270.00 F2000
G1 X-58.931 Y22.733 B-270.00 F2000
G1 Z10.000 F1000
G1 B-180.00 F2000
G0 X-58.931 Y22.733
G1 Z0.000 F1000
G1 X-62.081 Y22.733 B-180.00 F2000
G1 X-62.081 Y22.733 B-180.00 F2000
G1 Z10.000 F1000
G1 B-90.00 F2000
G0 X-62.081 Y22.733
G1 Z0.000 F1000
G1 X-62.081 Y42.601 B-90.00 F2000
G1 X-62.081 Y42.601 B-90.00 F2000
G1 Z10.000 F1000
G1 B-180.00 F2000
G0 X-62.081 Y42.601
G1 Z0.000 F1000
G1 X-70.506 Y42.601 B-180.00 F2000
G1 X-70.506 Y42.601 B-180.00 F2000
G1 Z10.000 F1000
G1 B-270.00 F2000
G0 X-70.506 Y42.601
G1 Z0.000 F1000
G1 X-70.506 Y2.865 B-270.00 F2000
G1 X-70.506 Y2.865 B-270.00 F2000
G1 Z10.000 F1000
G1 B-360.00 F2000
G0 X-70.506 Y2.865
G1 Z0.000 F1000
G1 X71.726 Y2.865 B-360.00 F2000
G1 X71.726 Y2.865 B-360.00 F2000
G1 Z10.000 F1000
G1 B-450.00 F2000
G0 X71.726 Y2.865
G1 Z0.000 F1000
G1 X71.726 Y42.601 B-450.00 F2000
G1 X71.726 Y42.601 B-450.00 F2000
G1 Z10.000 F1000
G1 B-540.00 F2000
G0 X71.726 Y42.601
G1 Z0.000 F1000
G1 X63.301 Y42.601 B-540.00 F2000
G1 Z10.000 F1000
M5 (Stop Oscillation)
M9 (Lights OFF)

M2