(Generated by custom-packaging - grblHAL Multi-Axis)
M8 (Lights ON)

G21  (mm)
G90  (absolute)
G1 Z10.000 F1000
G1 B-0.00 F2000
G1 Z10.000 F1000
G1 B90.00 F2000
G1 Z10.000 F1000
G0 X66.110 Y-0.635
M3 S2000 (Start Oscillation)
G1 Z10.000 F1000
G1 B90.00 F2000
G0 X66.110 Y-0.635
G1 Z0.000 F1000
G1 X66.110 Y-19.503 B90.00 F2000
G1 X66.110 Y-19.503 B90.00 F2000
G1 Z10.000 F1000
G1 B180.00 F2000
G0 X66.110 Y-19.503
G1 Z0.000 F1000
G1 X62.960 Y-19.503 B180.00 F2000
G1 X62.960 Y-19.503 B180.00 F2000
G1 Z10.000 F1000
G1 B270.00 F2000
G0 X62.960 Y-19.503
G1 Z0.000 F1000
G1 X62.960 Y-11.300 B270.00 F2000
G1 X62.960 Y-11.300 B270.00 F2000
G1 Z10.000 F1000
G1 B180.00 F2000
G0 X62.960 Y-11.300
G1 Z0.000 F1000
G1 X59.612 Y-11.300 B180.00 F2000
G1 X59.594 Y-11.299 B182.65 F2000
G1 X59.593 Y-11.299 B187.93 F2000
G1 X59.593 Y-11.299 B187.93 F2000
G1 Z10.000 F1000
G1 B209.17 F2000
G0 X59.593 Y-11.299
G1 Z0.000 F1000
G1 X59.593 Y-11.299 B209.17 F2000
G1 X59.593 Y-11.299 B209.17 F2000
G1 Z10.000 F1000
G1 B230.41 F2000
G0 X59.593 Y-11.299
G1 Z0.000 F1000
G1 X59.593 Y-11.298 B230.41 F2000
G1 X59.593 Y-11.298 B230.41 F2000
G1 Z10.000 F1000
G1 B251.70 F2000
G0 X59.593 Y-11.298
G1 Z0.000 F1000
G1 X59.592 Y-11.298 B251.70 F2000
G1 X59.592 Y-11.297 B256.98 F2000
G1 X59.590 Y-11.279 B262.29 F2000
G1 X59.556 Y-10.894 B264.94 F2000
G1 X59.545 Y-10.815 B262.10 F2000
G1 X59.526 Y-10.738 B256.42 F2000
G1 X59.500 Y-10.663 B250.74 F2000
G1 X59.467 Y-10.591 B245.05 F2000
G1 X59.426 Y-10.523 B239.37 F2000
G1 X59.379 Y-10.459 B233.69 F2000
G1 X59.326 Y-10.400 B228.01 F2000
G1 X59.268 Y-10.347 B222.32 F2000
G1 X59.204 Y-10.300 B216.64 F2000
G1 X59.136 Y-10.259 B210.96 F2000
G1 X59.064 Y-10.225 B205.28 F2000
G1 X58.989 Y-10.198 B199.59 F2000
G1 X58.912 Y-10.179 B193.91 F2000
G1 X30.664 Y-4.653 B191.07 F2000
G1 X30.593 Y-4.642 B188.50 F2000
G1 X30.522 Y-4.638 B183.37 F2000
G1 X25.366 Y-4.565 B180.81 F2000
G1 X25.366 Y-4.565 B180.81 F2000
G1 Z10.000 F1000
G1 B90.00 F2000
G0 X25.366 Y-4.565
G1 Z0.000 F1000
G1 X25.366 Y-21.457 B90.00 F2000
G1 X25.366 Y-21.457 B90.00 F2000
G1 Z10.000 F1000
G1 B180.00 F2000
G0 X25.366 Y-21.457
G1 Z0.000 F1000
G1 X22.216 Y-21.457 B180.00 F2000
G1 X22.216 Y-21.457 B180.00 F2000
G1 Z10.000 F1000
G1 B270.00 F2000
G0 X22.216 Y-21.457
G1 Z0.000 F1000
G1 X22.216 Y-4.521 B270.00 F2000
G1 X22.216 Y-4.521 B270.00 F2000
G1 Z10.000 F1000
G1 B180.81 F2000
G0 X22.216 Y-4.521
G1 Z0.000 F1000
G1 X13.000 Y-4.391 B180.81 F2000
G1 X12.929 Y-4.394 B178.25 F2000
G1 X12.858 Y-4.402 B173.15 F2000
G1 X12.788 Y-4.417 B168.04 F2000
G1 X0.055 Y-7.712 B165.49 F2000
G1 X-0.005 Y-7.730 B163.26 F2000
G1 X-0.063 Y-7.753 B158.79 F2000
G1 X-9.624 Y-11.898 B156.56 F2000
G1 X-9.699 Y-11.935 B153.56 F2000
G1 X-9.769 Y-11.980 B147.56 F2000
G1 X-15.378 Y-15.971 B144.57 F2000
G1 X-15.378 Y-15.971 B144.57 F2000
G1 Z10.000 F1000
G1 B90.00 F2000
G0 X-15.378 Y-15.971
G1 Z0.000 F1000
G1 X-15.378 Y-27.731 B90.00 F2000
G1 X-15.378 Y-27.731 B90.00 F2000
G1 Z10.000 F1000
G1 B180.00 F2000
G0 X-15.378 Y-27.731
G1 Z0.000 F1000
G1 X-18.528 Y-27.731 B180.00 F2000
G1 X-18.528 Y-27.731 B180.00 F2000
G1 Z10.000 F1000
G1 B270.00 F2000
G0 X-18.528 Y-27.731
G1 Z0.000 F1000
G1 X-18.528 Y-18.212 B270.00 F2000
G1 X-18.528 Y-18.212 B270.00 F2000
G1 Z10.000 F1000
G1 B144.57 F2000
G0 X-18.528 Y-18.212
G1 Z0.000 F1000
G1 X-30.854 Y-26.983 B144.57 F2000
G1 X-30.872 Y-26.994 B147.60 F2000
G1 X-30.891 Y-27.004 B153.60 F2000
G1 X-36.104 Y-29.259 B156.61 F2000
G1 X-36.119 Y-29.265 B158.89 F2000
G1 X-36.120 Y-29.265 B163.50 F2000
G1 X-36.120 Y-29.265 B168.04 F2000
G1 X-36.135 Y-29.267 B172.62 F2000
G1 X-47.041 Y-30.239 B174.90 F2000
G1 X-47.059 Y-30.240 B177.56 F2000
G1 X-47.060 Y-30.240 B182.91 F2000
G1 X-47.060 Y-30.240 B188.20 F2000
G1 X-47.078 Y-30.236 B193.51 F2000
G1 X-55.134 Y-27.899 B196.17 F2000
G1 X-55.154 Y-27.892 B199.19 F2000
G1 X-55.173 Y-27.883 B205.17 F2000
G1 X-57.628 Y-26.569 B208.17 F2000
G1 X-57.643 Y-26.560 B210.75 F2000
G1 X-57.644 Y-26.559 B215.95 F2000
G1 X-57.644 Y-26.559 B215.95 F2000
G1 Z10.000 F1000
G1 B236.56 F2000
G0 X-57.644 Y-26.559
G1 Z0.000 F1000
G1 X-57.644 Y-26.559 B236.56 F2000
G1 X-57.644 Y-26.559 B236.56 F2000
G1 Z10.000 F1000
G1 B257.15 F2000
G0 X-57.644 Y-26.559
G1 Z0.000 F1000
G1 X-57.644 Y-26.558 B257.15 F2000
G1 X-57.644 Y-26.558 B262.27 F2000
G1 X-57.645 Y-26.540 B267.42 F2000
G1 X-57.645 Y-19.503 B270.00 F2000
G1 X-57.645 Y-19.503 B270.00 F2000
G1 Z10.000 F1000
G1 B180.00 F2000
G0 X-57.645 Y-19.503
G1 Z0.000 F1000
G1 X-59.272 Y-19.503 B180.00 F2000
G1 X-59.272 Y-19.503 B180.00 F2000
G1 Z10.000 F1000
G1 B270.00 F2000
G0 X-59.272 Y-19.503
G1 Z0.000 F1000
G1 X-59.272 Y-0.635 B270.00 F2000
G1 X-59.272 Y-0.635 B270.00 F2000
G1 Z10.000 F1000
G1 B180.00 F2000
G0 X-59.272 Y-0.635
G1 Z0.000 F1000
G1 X-67.697 Y-0.635 B180.00 F2000
G1 X-67.697 Y-0.635 B180.00 F2000
G1 Z10.000 F1000
G1 B90.00 F2000
G0 X-67.697 Y-0.635
G1 Z0.000 F1000
G1 X-67.697 Y-38.371 B90.00 F2000
G1 X-67.697 Y-38.371 B90.00 F2000
G1 Z10.000 F1000
G1 B-0.00 F2000
G0 X-67.697 Y-38.371
G1 Z0.000 F1000
G1 X74.535 Y-38.371 B-0.00 F2000
G1 X74.535 Y-38.371 B-0.00 F2000
G1 Z10.000 F1000
G1 B-90.00 F2000
G0 X74.535 Y-38.371
G1 Z0.000 F1000
G1 X74.535 Y-0.635 B-90.00 F2000
G1 X74.535 Y-0.635 B-90.00 F2000
G1 Z10.000 F1000
G1 B-180.00 F2000
G0 X74.535 Y-0.635
G1 Z0.000 F1000
G1 X66.110 Y-0.635 B-180.00 F2000
G1 Z10.000 F1000
G1 Z10.000 F1000
G0 X64.987 Y43.500
G1 Z10.000 F1000
G1 B-270.00 F2000
G0 X64.987 Y43.500
G1 Z0.000 F1000
G1 X64.987 Y23.632 B-270.00 F2000
G1 X64.987 Y23.632 B-270.00 F2000
G1 Z10.000 F1000
G1 B-180.00 F2000
G0 X64.987 Y23.632
G1 Z0.000 F1000
G1 X61.837 Y23.632 B-180.00 F2000
G1 X61.837 Y23.632 B-180.00 F2000
G1 Z10.000 F1000
G1 B-90.00 F2000
G0 X61.837 Y23.632
G1 Z0.000 F1000
G1 X61.837 Y43.500 B-90.00 F2000
G1 X61.837 Y43.500 B-90.00 F2000
G1 Z10.000 F1000
G1 B-180.00 F2000
G0 X61.837 Y43.500
G1 Z0.000 F1000
G1 X24.243 Y43.500 B-180.00 F2000
G1 X24.243 Y43.500 B-180.00 F2000
G1 Z10.000 F1000
G1 B-270.00 F2000
G0 X24.243 Y43.500
G1 Z0.000 F1000
G1 X24.243 Y23.632 B-270.00 F2000
G1 X24.243 Y23.632 B-270.00 F2000
G1 Z10.000 F1000
G1 B-180.00 F2000
G0 X24.243 Y23.632
G1 Z0.000 F1000
G1 X21.093 Y23.632 B-180.00 F2000
G1 X21.093 Y23.632 B-180.00 F2000
G1 Z10.000 F1000
G1 B-90.00 F2000
G0 X21.093 Y23.632
G1 Z0.000 F1000
G1 X21.093 Y43.500 B-90.00 F2000
G1 X21.093 Y43.500 B-90.00 F2000
G1 Z10.000 F1000
G1 B-180.00 F2000
G0 X21.093 Y43.500
G1 Z0.000 F1000
G1 X-16.501 Y43.500 B-180.00 F2000
G1 X-16.501 Y43.500 B-180.00 F2000
G1 Z10.000 F1000
G1 B-270.00 F2000
G0 X-16.501 Y43.500
G1 Z0.000 F1000
G1 X-16.501 Y23.632 B-270.00 F2000
G1 X-16.501 Y23.632 B-270.00 F2000
G1 Z10.000 F1000
G1 B-180.00 F2000
G0 X-16.501 Y23.632
G1 Z0.000 F1000
G1 X-19.651 Y23.632 B-180.00 F2000
G1 X-19.651 Y23.632 B-180.00 F2000
G1 Z10.000 F1000
G1 B-90.00 F2000
G0 X-19.651 Y23.632
G1 Z0.000 F1000
G1 X-19.651 Y43.500 B-90.00 F2000
G1 X-19.651 Y43.500 B-90.00 F2000
G1 Z10.000 F1000
G1 B-180.00 F2000
G0 X-19.651 Y43.500
G1 Z0.000 F1000
G1 X-57.245 Y43.500 B-180.00 F2000
G1 X-57.245 Y43.500 B-180.00 F2000
G1 Z10.000 F1000
G1 B-270.00 F2000
G0 X-57.245 Y43.500
G1 Z0.000 F1000
G1 X-57.245 Y23.632 B-270.00 F2000
G1 X-57.245 Y23.632 B-270.00 F2000
G1 Z10.000 F1000
G1 B-180.00 F2000
G0 X-57.245 Y23.632
G1 Z0.000 F1000
G1 X-60.395 Y23.632 B-180.00 F2000
G1 X-60.395 Y23.632 B-180.00 F2000
G1 Z10.000 F1000
G1 B-90.00 F2000
G0 X-60.395 Y23.632
G1 Z0.000 F1000
G1 X-60.395 Y43.500 B-90.00 F2000
G1 X-60.395 Y43.500 B-90.00 F2000
G1 Z10.000 F1000
G1 B-180.00 F2000
G0 X-60.395 Y43.500
G1 Z0.000 F1000
G1 X-68.820 Y43.500 B-180.00 F2000
G1 X-68.820 Y43.500 B-180.00 F2000
G1 Z10.000 F1000
G1 B-270.00 F2000
G0 X-68.820 Y43.500
G1 Z0.000 F1000
G1 X-68.820 Y3.764 B-270.00 F2000
G1 X-68.820 Y3.764 B-270.00 F2000
G1 Z10.000 F1000
G1 B-360.00 F2000
G0 X-68.820 Y3.764
G1 Z0.000 F1000
G1 X73.412 Y3.764 B-360.00 F2000
G1 X73.412 Y3.764 B-360.00 F2000
G1 Z10.000 F1000
G1 B-450.00 F2000
G0 X73.412 Y3.764
G1 Z0.000 F1000
G1 X73.412 Y43.500 B-450.00 F2000
G1 X73.412 Y43.500 B-450.00 F2000
G1 Z10.000 F1000
G1 B-540.00 F2000
G0 X73.412 Y43.500
G1 Z0.000 F1000
G1 X64.987 Y43.500 B-540.00 F2000
G1 Z10.000 F1000
M5 (Stop Oscillation)
M9 (Lights OFF)

M2