(Generated by custom-packaging - grblHAL Multi-Axis)
M8 (Lights ON)

G21  (mm)
G90  (absolute)
G1 Z10.000 F500
G1 B-0.00 F2000
G1 C0.00 F300
G1 Z10.000 F500
G0 X210.000 Y140.800
G1 Z10.000 F500
G1 C180.00 F300
G0 X210.000 Y140.800
G1 Z3.000 F500
G1 X90.000 Y140.800 C180.00 F300
G1 Z10.000 F500
G1 Z10.000 F500
G0 X210.000 Y183.600
G1 Z10.000 F500
G1 C180.00 F300
G0 X210.000 Y183.600
G1 Z3.000 F500
G1 X90.000 Y183.600 C180.00 F300
G1 Z10.000 F500
G1 Z10.000 F500
G0 X210.000 Y266.400
G1 Z10.000 F500
G1 C180.00 F300
G0 X210.000 Y266.400
G1 Z3.000 F500
G1 X90.000 Y266.400 C180.00 F300
G1 Z10.000 F500
G1 Z10.000 F500
G0 X210.000 Y58.000
G1 Z10.000 F500
G1 C180.00 F300
G0 X210.000 Y58.000
G1 Z3.000 F500
G1 X90.000 Y58.000 C180.00 F300
G1 Z10.000 F500
G1 Z10.000 F500
G0 X210.000 Y58.000
G1 Z10.000 F500
G1 C90.00 F300
G0 X210.000 Y58.000
G1 Z3.000 F500
G1 X210.000 Y309.200 C90.00 F300
G1 Z10.000 F500
G1 Z10.000 F500
G0 X90.000 Y58.000
G1 Z10.000 F500
G1 C90.00 F300
G0 X90.000 Y58.000
G1 Z3.000 F500
G1 X90.000 Y309.200 C90.00 F300
G1 Z10.000 F500
G1 Z10.000 F500
G0 X251.400 Y300.000
M3 S4000 (Start Oscillation)
G1 Z10.000 F500
G1 B90.00 F2000
G0 X251.400 Y299.000
G1 Z0.000 F500
G1 X251.400 Y266.800 B90.00 F2000
G1 X251.400 Y266.800 B90.00 F2000
G1 Z10.000 F500
G1 B180.00 F2000
G0 X250.400 Y267.800
G1 Z0.000 F500
G1 X211.800 Y267.800 B180.00 F2000
G1 X211.800 Y267.800 B180.00 F2000
G1 Z10.000 F500
G1 B153.43 F2000
G0 X211.906 Y267.353
G1 Z0.000 F500
G1 X209.106 Y265.953 B153.43 F2000
G1 X209.106 Y265.953 B153.43 F2000
G1 Z10.000 F500
G1 B26.57 F2000
G0 X210.894 Y265.953
G1 Z0.000 F500
G1 X213.694 Y264.553 B26.57 F2000
G1 X213.694 Y264.553 B26.57 F2000
G1 Z10.000 F500
G1 B-0.00 F2000
G0 X213.800 Y265.000
G1 Z0.000 F500
G1 X252.400 Y265.000 B-0.00 F2000
G1 X252.400 Y265.000 B-0.00 F2000
G1 Z10.000 F500
G1 B90.00 F2000
G0 X251.400 Y264.000
G1 Z0.000 F500
G1 X251.400 Y184.000 B90.00 F2000
G1 X251.400 Y184.000 B90.00 F2000
G1 Z10.000 F500
G1 B180.00 F2000
G0 X250.400 Y185.000
G1 Z0.000 F500
G1 X211.800 Y185.000 B180.00 F2000
G1 X211.800 Y185.000 B180.00 F2000
G1 Z10.000 F500
G1 B153.43 F2000
G0 X211.906 Y184.553
G1 Z0.000 F500
G1 X209.106 Y183.153 B153.43 F2000
G1 X209.106 Y183.153 B153.43 F2000
G1 Z10.000 F500
G1 B26.57 F2000
G0 X210.894 Y183.153
G1 Z0.000 F500
G1 X213.694 Y181.753 B26.57 F2000
G1 X213.694 Y181.753 B26.57 F2000
G1 Z10.000 F500
G1 B-0.00 F2000
G0 X213.800 Y182.200
G1 Z0.000 F500
G1 X252.400 Y182.200 B-0.00 F2000
G1 X252.400 Y182.200 B-0.00 F2000
G1 Z10.000 F500
G1 B90.00 F2000
G0 X251.400 Y181.200
G1 Z0.000 F500
G1 X251.400 Y141.200 B90.00 F2000
G1 X251.400 Y141.200 B90.00 F2000
G1 Z10.000 F500
G1 B180.00 F2000
G0 X250.400 Y142.200
G1 Z0.000 F500
G1 X211.800 Y142.200 B180.00 F2000
G1 X211.800 Y142.200 B180.00 F2000
G1 Z10.000 F500
G1 B153.43 F2000
G0 X211.906 Y141.753
G1 Z0.000 F500
G1 X209.106 Y140.353 B153.43 F2000
G1 X209.106 Y140.353 B153.43 F2000
G1 Z10.000 F500
G1 B26.57 F2000
G0 X210.894 Y140.353
G1 Z0.000 F500
G1 X213.694 Y138.953 B26.57 F2000
G1 X213.694 Y138.953 B26.57 F2000
G1 Z10.000 F500
G1 B-0.00 F2000
G0 X213.800 Y139.400
G1 Z0.000 F500
G1 X252.400 Y139.400 B-0.00 F2000
G1 X252.400 Y139.400 B-0.00 F2000
G1 Z10.000 F500
G1 B90.00 F2000
G0 X251.400 Y138.400
G1 Z0.000 F500
G1 X251.400 Y58.400 B90.00 F2000
G1 X251.400 Y58.400 B90.00 F2000
G1 Z10.000 F500
G1 B180.00 F2000
G0 X250.400 Y59.400
G1 Z0.000 F500
G1 X211.800 Y59.400 B180.00 F2000
G1 X211.800 Y59.400 B180.00 F2000
G1 Z10.000 F500
G1 B153.43 F2000
G0 X211.906 Y58.953
G1 Z0.000 F500
G1 X209.106 Y57.553 B153.43 F2000
G1 X209.106 Y57.553 B153.43 F2000
G1 Z10.000 F500
G1 B99.46 F2000
G0 X209.836 Y57.014
G1 Z0.000 F500
G1 X206.836 Y39.014 B99.46 F2000
G1 X206.836 Y39.014 B99.46 F2000
G1 Z10.000 F500
G1 B180.00 F2000
G0 X206.000 Y40.000
G1 Z0.000 F500
G1 X92.000 Y40.000 B180.00 F2000
G1 X92.000 Y40.000 B180.00 F2000
G1 Z10.000 F500
G1 B260.54 F2000
G0 X92.836 Y40.986
G1 Z0.000 F500
G1 X89.836 Y58.986 B260.54 F2000
G1 X89.836 Y58.986 B260.54 F2000
G1 Z10.000 F500
G1 B206.57 F2000
G0 X89.106 Y58.447
G1 Z0.000 F500
G1 X86.306 Y59.847 B206.57 F2000
G1 X86.306 Y59.847 B206.57 F2000
G1 Z10.000 F500
G1 B180.00 F2000
G0 X86.200 Y59.400
G1 Z0.000 F500
G1 X47.600 Y59.400 B180.00 F2000
G1 X47.600 Y59.400 B180.00 F2000
G1 Z10.000 F500
G1 B270.00 F2000
G0 X48.600 Y60.400
G1 Z0.000 F500
G1 X48.600 Y140.400 B270.00 F2000
G1 X48.600 Y140.400 B270.00 F2000
G1 Z10.000 F500
G1 B360.00 F2000
G0 X49.600 Y139.400
G1 Z0.000 F500
G1 X88.200 Y139.400 B360.00 F2000
G1 X88.200 Y139.400 B360.00 F2000
G1 Z10.000 F500
G1 B333.43 F2000
G0 X88.094 Y139.847
G1 Z0.000 F500
G1 X90.894 Y141.247 B333.43 F2000
G1 X90.894 Y141.247 B333.43 F2000
G1 Z10.000 F500
G1 B206.57 F2000
G0 X89.106 Y141.247
G1 Z0.000 F500
G1 X86.306 Y142.647 B206.57 F2000
G1 X86.306 Y142.647 B206.57 F2000
G1 Z10.000 F500
G1 B180.00 F2000
G0 X86.200 Y142.200
G1 Z0.000 F500
G1 X47.600 Y142.200 B180.00 F2000
G1 X47.600 Y142.200 B180.00 F2000
G1 Z10.000 F500
G1 B270.00 F2000
G0 X48.600 Y143.200
G1 Z0.000 F500
G1 X48.600 Y183.200 B270.00 F2000
G1 X48.600 Y183.200 B270.00 F2000
G1 Z10.000 F500
G1 B360.00 F2000
G0 X49.600 Y182.200
G1 Z0.000 F500
G1 X88.200 Y182.200 B360.00 F2000
G1 X88.200 Y182.200 B360.00 F2000
G1 Z10.000 F500
G1 B333.43 F2000
G0 X88.094 Y182.647
G1 Z0.000 F500
G1 X90.894 Y184.047 B333.43 F2000
G1 X90.894 Y184.047 B333.43 F2000
G1 Z10.000 F500
G1 B206.57 F2000
G0 X89.106 Y184.047
G1 Z0.000 F500
G1 X86.306 Y185.447 B206.57 F2000
G1 X86.306 Y185.447 B206.57 F2000
G1 Z10.000 F500
G1 B180.00 F2000
G0 X86.200 Y185.000
G1 Z0.000 F500
G1 X47.600 Y185.000 B180.00 F2000
G1 X47.600 Y185.000 B180.00 F2000
G1 Z10.000 F500
G1 B270.00 F2000
G0 X48.600 Y186.000
G1 Z0.000 F500
G1 X48.600 Y266.000 B270.00 F2000
G1 X48.600 Y266.000 B270.00 F2000
G1 Z10.000 F500
G1 B360.00 F2000
G0 X49.600 Y265.000
G1 Z0.000 F500
G1 X88.200 Y265.000 B360.00 F2000
G1 X88.200 Y265.000 B360.00 F2000
G1 Z10.000 F500
G1 B333.43 F2000
G0 X88.094 Y265.447
G1 Z0.000 F500
G1 X90.894 Y266.847 B333.43 F2000
G1 X90.894 Y266.847 B333.43 F2000
G1 Z10.000 F500
G1 B206.57 F2000
G0 X89.106 Y266.847
G1 Z0.000 F500
G1 X86.306 Y268.247 B206.57 F2000
G1 X86.306 Y268.247 B206.57 F2000
G1 Z10.000 F500
G1 B180.00 F2000
G0 X86.200 Y267.800
G1 Z0.000 F500
G1 X47.600 Y267.800 B180.00 F2000
G1 X47.600 Y267.800 B180.00 F2000
G1 Z10.000 F500
G1 B270.00 F2000
G0 X48.600 Y268.800
G1 Z0.000 F500
G1 X48.600 Y301.000 B270.00 F2000
G1 Z10.000 F500
M5 (Stop Oscillation)
M9 (Lights OFF)

M2