(Generated by custom-packaging - grblHAL Multi-Axis)
G21  (mm)
G90  (absolute)
G1 Z10.000 F500
G1 B-0.00 F1000
G1 A249.066 F200 (ADVANCE MATERIAL)
G1 A416.746 F200 (ADVANCE MATERIAL)
G1 Z10.000 F500
G0 X559.956 Y-216.746
M3 S4000 (Start Oscillation)
G1 Z10.000 F500
G1 B90.00 F1000
G1 Z0.000 F500
G1 X559.956 Y-384.427 B90.00 F1000
G1 Z10.000 F500
G1 B180.00 F1000
G1 Z0.000 F500
G1 X503.000 Y-384.427 B180.00 F1000
G1 Z10.000 F500
G1 B270.00 F1000
G1 Z0.000 F500
G1 X503.000 Y-376.002 B270.00 F1000
G1 Z10.000 F500
G1 B360.00 F1000
G1 Z0.000 F500
G1 X531.478 Y-376.002 B360.00 F1000
G1 Z10.000 F500
G1 B270.00 F1000
G1 Z0.000 F500
G1 X531.478 Y-372.852 B270.00 F1000
G1 Z10.000 F500
G1 B180.00 F1000
G1 Z0.000 F500
G1 X503.000 Y-372.852 B180.00 F1000
G1 Z10.000 F500
G1 B270.00 F1000
G1 Z0.000 F500
G1 X503.000 Y-339.082 B270.00 F1000
G1 Z10.000 F500
G1 B360.00 F1000
G1 Z0.000 F500
G1 X531.478 Y-339.082 B360.00 F1000
G1 Z10.000 F500
G1 B270.00 F1000
G1 Z0.000 F500
G1 X531.478 Y-335.932 B270.00 F1000
G1 Z10.000 F500
G1 B180.00 F1000
G1 Z0.000 F500
G1 X503.000 Y-335.932 B180.00 F1000
G1 Z10.000 F500
G1 B270.00 F1000
G1 Z0.000 F500
G1 X503.000 Y-322.469 B270.00 F1000
G1 Z10.000 F500
G1 B340.94 F1000
G1 Z0.000 F500
G1 X503.498 Y-322.296 B340.94 F1000
G1 Z10.000 F500
G1 B309.80 F1000
G1 Z0.000 F500
G1 X503.698 Y-322.057 B309.80 F1000
G1 Z10.000 F500
G1 B346.55 F1000
G1 Z0.000 F500
G1 X504.701 Y-321.817 B346.55 F1000
G1 X505.248 Y-321.577 B336.32 F1000
G1 X505.794 Y-321.337 B336.26 F1000
G1 X506.308 Y-321.097 B335.00 F1000
G1 X506.807 Y-320.857 B334.30 F1000
G1 X507.243 Y-320.617 B331.21 F1000
G1 X507.652 Y-320.377 B329.58 F1000
G1 X510.149 Y-320.137 B354.51 F1000
G1 X510.542 Y-319.898 B328.63 F1000
G1 X510.924 Y-319.658 B327.90 F1000
G1 X511.307 Y-319.418 B327.89 F1000
G1 X511.685 Y-319.178 B327.62 F1000
G1 X512.058 Y-318.938 B327.30 F1000
G1 X512.425 Y-318.698 B326.77 F1000
G1 X512.791 Y-318.458 B326.77 F1000
G1 X513.152 Y-318.218 B326.41 F1000
G1 X513.509 Y-317.978 B326.09 F1000
G1 X513.857 Y-317.739 B325.45 F1000
G1 X514.200 Y-317.499 B325.02 F1000
G1 X514.538 Y-317.259 B324.67 F1000
G1 X514.868 Y-317.019 B323.93 F1000
G1 X515.194 Y-316.779 B323.71 F1000
G1 X515.358 Y-316.539 B304.25 F1000
G1 X515.442 Y-316.299 B289.41 F1000
G1 X515.494 Y-316.059 B282.27 F1000
G1 X515.524 Y-315.819 B276.96 F1000
G1 X515.535 Y-315.580 B272.62 F1000
G1 X515.530 Y-315.340 B268.98 F1000
G1 X515.510 Y-315.100 B265.07 F1000
G1 X515.483 Y-314.860 B263.66 F1000
G1 X515.456 Y-314.620 B263.66 F1000
G1 Z10.000 F500
G1 B346.35 F1000
G1 Z0.000 F500
G1 X516.444 Y-314.380 B346.35 F1000
G1 X516.734 Y-314.140 B320.36 F1000
G1 X517.023 Y-313.900 B320.36 F1000
G1 X517.313 Y-313.660 B320.36 F1000
G1 X517.582 Y-313.421 B318.24 F1000
G1 X517.832 Y-313.181 B316.24 F1000
G1 X518.071 Y-312.941 B314.84 F1000
G1 X518.308 Y-312.701 B314.66 F1000
G1 X518.544 Y-312.461 B314.61 F1000
G1 X518.781 Y-312.221 B314.59 F1000
G1 X519.017 Y-311.981 B314.59 F1000
G1 X519.254 Y-311.741 B314.59 F1000
G1 X519.486 Y-311.502 B314.05 F1000
G1 X519.706 Y-311.262 B312.54 F1000
G1 X519.926 Y-311.022 B312.54 F1000
G1 X520.146 Y-310.782 B312.54 F1000
G1 X520.366 Y-310.542 B312.54 F1000
G1 X520.587 Y-310.302 B312.54 F1000
G1 X520.797 Y-310.062 B311.28 F1000
G1 X521.008 Y-309.822 B311.28 F1000
G1 X521.218 Y-309.582 B311.28 F1000
G1 X521.429 Y-309.343 B311.28 F1000
G1 X521.635 Y-309.103 B310.59 F1000
G1 X521.831 Y-308.863 B309.28 F1000
G1 X522.027 Y-308.623 B309.28 F1000
G1 X522.223 Y-308.383 B309.28 F1000
G1 X522.419 Y-308.143 B309.28 F1000
G1 X522.608 Y-307.903 B308.15 F1000
G1 X522.791 Y-307.663 B307.33 F1000
G1 X522.974 Y-307.423 B307.33 F1000
G1 X523.157 Y-307.184 B307.33 F1000
G1 X523.340 Y-306.944 B307.33 F1000
G1 X523.523 Y-306.704 B307.33 F1000
G1 X523.694 Y-306.464 B305.52 F1000
G1 X523.863 Y-306.224 B305.18 F1000
G1 X524.032 Y-305.984 B305.18 F1000
G1 X524.201 Y-305.744 B305.18 F1000
G1 X524.370 Y-305.504 B305.18 F1000
G1 X524.533 Y-305.264 B304.06 F1000
G1 X524.694 Y-305.025 B303.85 F1000
G1 X524.854 Y-304.785 B303.85 F1000
G1 X525.015 Y-304.545 B303.85 F1000
G1 X525.176 Y-304.305 B303.85 F1000
G1 X525.337 Y-304.065 B303.85 F1000
G1 X525.489 Y-303.825 B302.27 F1000
G1 X525.637 Y-303.585 B301.77 F1000
G1 X525.786 Y-303.345 B301.77 F1000
G1 X525.934 Y-303.105 B301.77 F1000
G1 X526.083 Y-302.866 B301.77 F1000
G1 X526.232 Y-302.626 B301.77 F1000
G1 X526.380 Y-302.386 B301.77 F1000
G1 X526.519 Y-302.162 B301.77 F1000
G1 Z10.000 F500
G1 B360.00 F1000
G1 Z0.000 F500
G1 X543.687 Y-302.162 B360.00 F1000
G1 Z10.000 F500
G1 B270.00 F1000
G1 Z0.000 F500
G1 X543.687 Y-299.012 B270.00 F1000
G1 Z10.000 F500
G1 B180.00 F1000
G1 Z0.000 F500
G1 X528.247 Y-299.012 B180.00 F1000
G1 Z10.000 F500
G1 B294.46 F1000
G1 Z0.000 F500
G1 X528.349 Y-298.788 B294.46 F1000
G1 X528.457 Y-298.548 B294.25 F1000
G1 X528.565 Y-298.308 B294.25 F1000
G1 X528.674 Y-298.068 B294.25 F1000
G1 X528.782 Y-297.828 B294.25 F1000
G1 X528.890 Y-297.588 B294.25 F1000
G1 X528.997 Y-297.348 B294.04 F1000
G1 X529.101 Y-297.108 B293.54 F1000
G1 X529.206 Y-296.868 B293.54 F1000
G1 X529.310 Y-296.629 B293.54 F1000
G1 X529.415 Y-296.389 B293.54 F1000
G1 X529.519 Y-296.149 B293.54 F1000
G1 X529.622 Y-295.909 B293.16 F1000
G1 X529.701 Y-295.669 B288.25 F1000
G1 X529.780 Y-295.429 B288.25 F1000
G1 X529.859 Y-295.189 B288.25 F1000
G1 X529.938 Y-294.949 B288.25 F1000
G1 X530.017 Y-294.709 B288.25 F1000
G1 X530.096 Y-294.470 B288.25 F1000
G1 X530.175 Y-294.230 B288.25 F1000
G1 X530.257 Y-293.990 B288.67 F1000
G1 X530.340 Y-293.750 B289.19 F1000
G1 X530.424 Y-293.510 B289.19 F1000
G1 X530.507 Y-293.270 B289.19 F1000
G1 X530.591 Y-293.030 B289.19 F1000
G1 X530.674 Y-292.790 B289.19 F1000
G1 X530.758 Y-292.550 B289.19 F1000
G1 X530.837 Y-292.311 B288.28 F1000
G1 X530.904 Y-292.071 B285.68 F1000
G1 X530.968 Y-291.831 B284.86 F1000
G1 X531.031 Y-291.591 B284.86 F1000
G1 X531.095 Y-291.351 B284.86 F1000
G1 X531.149 Y-291.111 B282.75 F1000
G1 X531.203 Y-290.871 B282.53 F1000
G1 X531.256 Y-290.631 B282.53 F1000
G1 X531.309 Y-290.392 B282.53 F1000
G1 X531.365 Y-290.152 B282.96 F1000
G1 X531.422 Y-289.912 B283.46 F1000
G1 X531.479 Y-289.672 B283.46 F1000
G1 X531.524 Y-289.432 B280.51 F1000
G1 X531.537 Y-289.192 B273.09 F1000
G1 X531.555 Y-288.952 B274.22 F1000
G1 X531.601 Y-288.712 B281.05 F1000
G1 X531.629 Y-288.472 B276.59 F1000
G1 X531.655 Y-288.233 B276.10 F1000
G1 X531.680 Y-287.993 B276.12 F1000
G1 X531.706 Y-287.753 B276.13 F1000
G1 X531.732 Y-287.513 B276.12 F1000
G1 X531.758 Y-287.273 B276.12 F1000
G1 X531.783 Y-287.033 B276.12 F1000
G1 X531.809 Y-286.793 B276.12 F1000
G1 X531.835 Y-286.553 B276.12 F1000
G1 X531.849 Y-286.313 B273.48 F1000
G1 X531.857 Y-286.074 B271.78 F1000
G1 X531.863 Y-285.834 B271.50 F1000
G1 X531.870 Y-285.594 B271.50 F1000
G1 X531.876 Y-285.354 B271.50 F1000
G1 X531.882 Y-285.114 B271.38 F1000
G1 X531.887 Y-284.874 B271.35 F1000
G1 X531.893 Y-284.634 B271.35 F1000
G1 X531.899 Y-284.394 B271.35 F1000
G1 X531.900 Y-284.154 B270.31 F1000
G1 X531.879 Y-283.915 B265.01 F1000
G1 X531.888 Y-283.675 B272.18 F1000
G1 X531.925 Y-283.435 B278.71 F1000
G1 X531.962 Y-283.195 B278.71 F1000
G1 X531.994 Y-282.955 B277.81 F1000
G1 X531.933 Y-282.715 B255.65 F1000
G1 X531.854 Y-282.475 B251.83 F1000
G1 X531.800 Y-282.235 B257.23 F1000
G1 X531.781 Y-281.996 B265.56 F1000
G1 X531.770 Y-281.756 B267.20 F1000
G1 X531.742 Y-281.516 B263.31 F1000
G1 X531.711 Y-281.276 B262.68 F1000
G1 X531.680 Y-281.036 B262.68 F1000
G1 X531.649 Y-280.796 B262.68 F1000
G1 X531.618 Y-280.556 B262.68 F1000
G1 X531.587 Y-280.316 B262.68 F1000
G1 X531.557 Y-280.076 B262.68 F1000
G1 X531.526 Y-279.837 B262.68 F1000
G1 X531.495 Y-279.597 B262.68 F1000
G1 X531.460 Y-279.357 B261.69 F1000
G1 X531.413 Y-279.117 B258.87 F1000
G1 X531.365 Y-278.877 B258.87 F1000
G1 X531.318 Y-278.637 B258.87 F1000
G1 X531.271 Y-278.397 B258.78 F1000
G1 X531.223 Y-278.157 B258.69 F1000
G1 X531.175 Y-277.917 B258.69 F1000
G1 X531.127 Y-277.678 B258.69 F1000
G1 X531.079 Y-277.438 B258.69 F1000
G1 X531.030 Y-277.198 B258.56 F1000
G1 X530.966 Y-276.958 B255.05 F1000
G1 X530.918 Y-276.718 B258.60 F1000
G1 X530.956 Y-276.478 B279.09 F1000
G1 X530.976 Y-276.238 B274.82 F1000
G1 X530.864 Y-275.998 B244.87 F1000
G1 X530.694 Y-275.758 B234.72 F1000
G1 X530.605 Y-275.519 B249.69 F1000
G1 X530.532 Y-275.279 B252.94 F1000
G1 X530.458 Y-275.039 B252.79 F1000
G1 X530.379 Y-274.799 B251.87 F1000
G1 X530.300 Y-274.559 B251.84 F1000
G1 X530.222 Y-274.319 B251.84 F1000
G1 X530.143 Y-274.079 B251.84 F1000
G1 X530.064 Y-273.839 B251.84 F1000
G1 X529.985 Y-273.599 B251.84 F1000
G1 X529.906 Y-273.360 B251.58 F1000
G1 X529.817 Y-273.120 B249.68 F1000
G1 X529.728 Y-272.880 B249.68 F1000
G1 X529.639 Y-272.640 B249.68 F1000
G1 X529.550 Y-272.400 B249.68 F1000
G1 X529.462 Y-272.160 B249.68 F1000
G1 X529.373 Y-271.920 B249.68 F1000
G1 X529.284 Y-271.680 B249.68 F1000
G1 X529.195 Y-271.441 B249.68 F1000
G1 X529.102 Y-271.201 B248.86 F1000
G1 X529.003 Y-270.961 B247.52 F1000
G1 X528.904 Y-270.721 B247.52 F1000
G1 X528.791 Y-270.481 B244.77 F1000
G1 X528.786 Y-270.241 B268.83 F1000
G1 X528.816 Y-270.001 B277.22 F1000
G1 X528.780 Y-269.761 B261.51 F1000
G1 Z10.000 F500
G1 B214.83 F1000
G1 Z0.000 F500
G1 X528.436 Y-269.521 B214.83 F1000
G1 X528.286 Y-269.282 B238.02 F1000
G1 X528.170 Y-269.042 B244.23 F1000
G1 X528.052 Y-268.802 B243.75 F1000
G1 X527.929 Y-268.562 B242.93 F1000
G1 X527.807 Y-268.322 B242.93 F1000
G1 X527.684 Y-268.082 B242.93 F1000
G1 X527.561 Y-267.842 B242.93 F1000
G1 X527.433 Y-267.602 B241.88 F1000
G1 X527.304 Y-267.362 B241.61 F1000
G1 X527.176 Y-267.123 B242.09 F1000
G1 X527.048 Y-266.883 B241.76 F1000
G1 X526.919 Y-266.643 B241.76 F1000
G1 X526.790 Y-266.403 B241.76 F1000
G1 X526.661 Y-266.163 B241.76 F1000
G1 X526.532 Y-265.923 B241.76 F1000
G1 X526.403 Y-265.683 B241.76 F1000
G1 X526.274 Y-265.443 B241.62 F1000
G1 X526.165 Y-265.242 B241.58 F1000
G1 Z10.000 F500
G1 B360.00 F1000
G1 Z0.000 F500
G1 X542.592 Y-265.242 B360.00 F1000
G1 Z10.000 F500
G1 B270.00 F1000
G1 Z0.000 F500
G1 X542.592 Y-262.092 B270.00 F1000
G1 Z10.000 F500
G1 B180.00 F1000
G1 Z0.000 F500
G1 X524.118 Y-262.092 B180.00 F1000
G1 Z10.000 F500
G1 B234.43 F1000
G1 Z0.000 F500
G1 X524.113 Y-262.085 B234.43 F1000
G1 X523.942 Y-261.845 B234.43 F1000
G1 X523.770 Y-261.605 B234.43 F1000
G1 X523.598 Y-261.365 B234.43 F1000
G1 X523.427 Y-261.125 B234.43 F1000
G1 X523.253 Y-260.886 B234.03 F1000
G1 X523.073 Y-260.646 B233.12 F1000
G1 X522.893 Y-260.406 B233.12 F1000
G1 X522.713 Y-260.166 B233.12 F1000
G1 X522.533 Y-259.926 B233.12 F1000
G1 X522.353 Y-259.686 B233.12 F1000
G1 X522.122 Y-259.446 B226.08 F1000
G1 Z10.000 F500
G1 B261.60 F1000
G1 Z0.000 F500
G1 X522.086 Y-259.206 B261.60 F1000
G1 X522.085 Y-258.966 B269.55 F1000
G1 Z10.000 F500
G1 B225.90 F1000
G1 Z0.000 F500
G1 X521.852 Y-258.727 B225.90 F1000
G1 X521.328 Y-258.487 B204.58 F1000
G1 X521.135 Y-258.247 B231.25 F1000
G1 X520.898 Y-258.007 B225.32 F1000
G1 X520.660 Y-257.767 B225.32 F1000
G1 X520.423 Y-257.527 B225.32 F1000
G1 X520.186 Y-257.287 B225.32 F1000
G1 X519.949 Y-257.047 B225.32 F1000
G1 X519.711 Y-256.807 B225.32 F1000
G1 X519.474 Y-256.568 B225.32 F1000
G1 X519.237 Y-256.328 B225.32 F1000
G1 X519.000 Y-256.088 B225.32 F1000
G1 X518.762 Y-255.848 B225.32 F1000
G1 X518.525 Y-255.608 B225.32 F1000
G1 X518.288 Y-255.368 B225.32 F1000
G1 X518.042 Y-255.128 B224.30 F1000
G1 X517.773 Y-254.888 B221.66 F1000
G1 X517.636 Y-254.648 B240.30 F1000
G1 X517.626 Y-254.409 B267.78 F1000
G1 X517.509 Y-254.169 B243.96 F1000
G1 Z10.000 F500
G1 B194.38 F1000
G1 Z0.000 F500
G1 X516.573 Y-253.929 B194.38 F1000
G1 X516.243 Y-253.689 B215.99 F1000
G1 X515.929 Y-253.449 B217.38 F1000
G1 X515.615 Y-253.209 B217.38 F1000
G1 X515.261 Y-252.969 B214.13 F1000
G1 X514.883 Y-252.729 B212.42 F1000
G1 X514.501 Y-252.489 B212.09 F1000
G1 X514.118 Y-252.250 B212.09 F1000
G1 X513.735 Y-252.010 B212.06 F1000
G1 X513.296 Y-251.770 B208.65 F1000
G1 X512.828 Y-251.530 B207.12 F1000
G1 X512.359 Y-251.290 B207.12 F1000
G1 X511.937 Y-251.050 B209.61 F1000
G1 Z10.000 F500
G1 B258.69 F1000
G1 Z0.000 F500
G1 X511.889 Y-250.810 B258.69 F1000
G1 X511.830 Y-250.570 B256.19 F1000
G1 Z10.000 F500
G1 B187.88 F1000
G1 Z0.000 F500
G1 X510.098 Y-250.331 B187.88 F1000
G1 X509.220 Y-250.091 B195.29 F1000
G1 X508.342 Y-249.851 B195.27 F1000
G1 X507.031 Y-249.611 B190.37 F1000
G1 X503.857 Y-249.371 B184.32 F1000
G1 Z10.000 F500
G1 B228.19 F1000
G1 Z0.000 F500
G1 X503.643 Y-249.131 B228.19 F1000
G1 Z10.000 F500
G1 B180.00 F1000
G1 Z0.000 F500
G1 X503.000 Y-249.131 B180.00 F1000
G1 Z10.000 F500
G1 B270.00 F1000
G1 Z0.000 F500
G1 X503.000 Y-228.321 B270.00 F1000
G1 Z10.000 F500
G1 B360.00 F1000
G1 Z0.000 F500
G1 X531.478 Y-228.321 B360.00 F1000
G1 Z10.000 F500
G1 B270.00 F1000
G1 Z0.000 F500
G1 X531.478 Y-225.171 B270.00 F1000
G1 Z10.000 F500
G1 B180.00 F1000
G1 Z0.000 F500
G1 X503.000 Y-225.171 B180.00 F1000
G1 Z10.000 F500
G1 B270.00 F1000
G1 Z0.000 F500
G1 X503.000 Y-216.746 B270.00 F1000
G1 Z10.000 F500
G1 B360.00 F1000
G1 Z0.000 F500
G1 X559.956 Y-216.746 B360.00 F1000
G1 Z10.000 F500
G1 A425.066 F200 (ADVANCE MATERIAL)
G1 A592.746 F200 (ADVANCE MATERIAL)
G1 Z10.000 F500
G0 X559.956 Y-392.746
G1 Z10.000 F500
G1 B450.00 F1000
G1 Z0.000 F500
G1 X559.956 Y-401.171 B450.00 F1000
G1 Z10.000 F500
G1 B540.00 F1000
G1 Z0.000 F500
G1 X531.478 Y-401.171 B540.00 F1000
G1 Z10.000 F500
G1 B450.00 F1000
G1 Z0.000 F500
G1 X531.478 Y-404.321 B450.00 F1000
G1 Z10.000 F500
G1 B360.00 F1000
G1 Z0.000 F500
G1 X559.956 Y-404.321 B360.00 F1000
G1 Z10.000 F500
G1 B450.00 F1000
G1 Z0.000 F500
G1 X559.956 Y-413.230 B450.00 F1000
G1 Z10.000 F500
G1 B511.96 F1000
G1 Z0.000 F500
G1 X559.681 Y-413.377 B511.96 F1000
G1 X559.231 Y-413.617 B511.96 F1000
G1 X558.777 Y-413.856 B512.15 F1000
G1 X558.320 Y-414.096 B512.30 F1000
G1 X557.904 Y-414.336 B510.05 F1000
G1 X557.517 Y-414.576 B508.20 F1000
G1 X557.129 Y-414.816 B508.26 F1000
G1 X556.736 Y-415.056 B508.57 F1000
G1 X556.344 Y-415.296 B508.57 F1000
G1 X555.974 Y-415.536 B507.02 F1000
G1 X555.617 Y-415.776 B506.09 F1000
G1 X555.263 Y-416.015 B505.88 F1000
G1 X554.911 Y-416.255 B505.75 F1000
G1 X554.557 Y-416.495 B505.91 F1000
G1 X554.220 Y-416.735 B504.55 F1000
G1 X553.898 Y-416.975 B503.31 F1000
G1 X553.583 Y-417.215 B502.67 F1000
G1 X553.269 Y-417.455 B502.67 F1000
G1 X552.957 Y-417.695 B502.40 F1000
G1 X552.653 Y-417.934 B501.74 F1000
G1 X552.340 Y-418.174 B502.55 F1000
G1 X552.019 Y-418.414 B503.21 F1000
G1 X551.691 Y-418.654 B503.85 F1000
G1 X551.362 Y-418.894 B503.85 F1000
G1 X551.053 Y-419.134 B502.16 F1000
G1 X550.749 Y-419.374 B501.78 F1000
G1 X550.439 Y-419.614 B502.28 F1000
G1 X550.126 Y-419.854 B502.47 F1000
G1 X549.823 Y-420.093 B501.63 F1000
G1 X549.530 Y-420.333 B500.73 F1000
G1 X549.236 Y-420.573 B500.81 F1000
G1 X548.940 Y-420.813 B500.97 F1000
G1 X548.631 Y-421.053 B502.13 F1000
G1 X548.330 Y-421.293 B501.47 F1000
G1 X548.041 Y-421.533 B500.31 F1000
G1 X547.753 Y-421.773 B500.25 F1000
G1 X547.464 Y-422.013 B500.25 F1000
G1 X547.177 Y-422.252 B500.15 F1000
G1 X546.885 Y-422.492 B500.58 F1000
G1 X546.610 Y-422.732 B498.90 F1000
G1 X546.335 Y-422.972 B498.85 F1000
G1 X546.062 Y-423.212 B498.73 F1000
G1 X545.802 Y-423.452 B497.32 F1000
G1 X545.541 Y-423.692 B497.36 F1000
G1 X545.280 Y-423.932 B497.51 F1000
G1 X545.003 Y-424.172 B499.10 F1000
G1 X544.720 Y-424.411 B499.62 F1000
G1 X544.455 Y-424.651 B497.92 F1000
G1 X544.202 Y-424.891 B496.47 F1000
G1 X543.945 Y-425.131 B497.06 F1000
G1 X543.680 Y-425.371 B497.75 F1000
G1 X543.409 Y-425.611 B498.52 F1000
G1 X543.138 Y-425.851 B498.46 F1000
G1 X542.865 Y-426.091 B498.70 F1000
G1 X542.638 Y-426.331 B493.40 F1000
G1 X542.412 Y-426.570 B493.40 F1000
G1 X542.185 Y-426.810 B493.40 F1000
G1 X541.958 Y-427.050 B493.40 F1000
G1 X541.731 Y-427.290 B493.40 F1000
G1 X541.504 Y-427.530 B493.40 F1000
G1 X541.282 Y-427.770 B492.75 F1000
G1 X541.111 Y-428.010 B485.60 F1000
G1 X540.939 Y-428.250 B485.60 F1000
G1 X540.767 Y-428.489 B485.60 F1000
G1 X540.595 Y-428.729 B485.60 F1000
G1 X540.424 Y-428.969 B485.62 F1000
G1 X540.251 Y-429.209 B485.66 F1000
G1 X540.079 Y-429.449 B485.66 F1000
G1 X539.918 Y-429.689 B483.86 F1000
G1 X539.792 Y-429.929 B477.75 F1000
G1 X539.666 Y-430.169 B477.75 F1000
G1 X539.540 Y-430.409 B477.62 F1000
G1 X539.416 Y-430.648 B477.45 F1000
G1 X539.291 Y-430.888 B477.45 F1000
G1 X539.167 Y-431.128 B477.45 F1000
G1 X539.042 Y-431.368 B477.40 F1000
G1 X538.918 Y-431.608 B477.37 F1000
G1 X538.821 Y-431.848 B471.96 F1000
G1 X538.736 Y-432.088 B469.61 F1000
G1 X538.650 Y-432.328 B469.61 F1000
G1 X538.565 Y-432.568 B469.49 F1000
G1 X538.481 Y-432.807 B469.46 F1000
G1 X538.395 Y-433.047 B469.56 F1000
G1 X538.307 Y-433.287 B470.16 F1000
G1 X538.218 Y-433.527 B470.35 F1000
G1 X538.129 Y-433.767 B470.35 F1000
G1 X538.054 Y-434.007 B467.55 F1000
G1 X537.979 Y-434.247 B467.36 F1000
G1 X537.915 Y-434.487 B464.80 F1000
G1 X537.847 Y-434.727 B465.82 F1000
G1 X537.776 Y-434.966 B466.59 F1000
G1 X537.701 Y-435.206 B467.28 F1000
G1 X537.625 Y-435.446 B467.64 F1000
G1 X537.546 Y-435.686 B468.12 F1000
G1 X537.466 Y-435.926 B468.55 F1000
G1 X537.402 Y-436.166 B464.94 F1000
G1 X537.337 Y-436.406 B465.16 F1000
G1 X537.271 Y-436.646 B465.27 F1000
G1 X537.206 Y-436.886 B465.27 F1000
G1 X537.140 Y-437.125 B465.39 F1000
G1 X537.073 Y-437.365 B465.65 F1000
G1 X537.006 Y-437.605 B465.65 F1000
G1 X536.938 Y-437.845 B465.65 F1000
G1 X536.875 Y-438.085 B464.76 F1000
G1 X536.874 Y-438.092 B462.72 F1000
G1 Z10.000 F500
G1 B540.00 F1000
G1 Z0.000 F500
G1 X519.764 Y-438.092 B540.00 F1000
G1 Z10.000 F500
G1 B450.00 F1000
G1 Z0.000 F500
G1 X519.764 Y-441.242 B450.00 F1000
G1 Z10.000 F500
G1 B360.00 F1000
G1 Z0.000 F500
G1 X536.252 Y-441.242 B360.00 F1000
G1 Z10.000 F500
G1 B458.94 F1000
G1 Z0.000 F500
G1 X536.220 Y-441.443 B458.94 F1000
G1 X536.183 Y-441.683 B458.88 F1000
G1 X536.147 Y-441.923 B458.38 F1000
G1 X536.112 Y-442.163 B458.38 F1000
G1 X536.076 Y-442.403 B458.38 F1000
G1 X536.039 Y-442.643 B458.93 F1000
G1 X536.005 Y-442.883 B458.05 F1000
G1 X535.972 Y-443.123 B457.70 F1000
G1 X535.940 Y-443.362 B457.70 F1000
G1 X535.912 Y-443.602 B456.72 F1000
G1 X535.889 Y-443.842 B455.49 F1000
G1 X535.866 Y-444.082 B455.49 F1000
G1 X535.843 Y-444.322 B455.49 F1000
G1 X535.819 Y-444.562 B455.49 F1000
G1 X535.796 Y-444.802 B455.49 F1000
G1 X535.772 Y-445.042 B455.87 F1000
G1 X535.746 Y-445.282 B456.09 F1000
G1 X535.721 Y-445.521 B456.09 F1000
G1 X535.695 Y-445.761 B456.09 F1000
G1 X535.670 Y-446.001 B455.89 F1000
G1 X535.649 Y-446.241 B454.99 F1000
G1 X535.628 Y-446.481 B454.99 F1000
G1 X535.609 Y-446.721 B454.55 F1000
G1 X535.591 Y-446.961 B454.28 F1000
G1 X535.576 Y-447.201 B453.70 F1000
G1 X535.560 Y-447.441 B453.70 F1000
G1 X535.545 Y-447.680 B453.70 F1000
G1 X535.529 Y-447.920 B453.70 F1000
G1 X535.514 Y-448.160 B453.70 F1000
G1 X535.498 Y-448.400 B453.72 F1000
G1 X535.480 Y-448.640 B454.37 F1000
G1 X535.462 Y-448.880 B454.30 F1000
G1 X535.448 Y-449.120 B453.41 F1000
G1 X535.434 Y-449.360 B453.25 F1000
G1 X535.420 Y-449.599 B453.38 F1000
G1 X535.406 Y-449.839 B453.38 F1000
G1 X535.391 Y-450.079 B453.38 F1000
G1 X535.377 Y-450.319 B453.38 F1000
G1 X535.363 Y-450.559 B453.38 F1000
G1 X535.349 Y-450.799 B453.38 F1000
G1 X535.335 Y-451.039 B453.38 F1000
G1 X535.320 Y-451.279 B453.38 F1000
G1 X535.306 Y-451.519 B453.38 F1000
G1 X535.292 Y-451.758 B453.38 F1000
G1 X535.280 Y-451.998 B452.97 F1000
G1 X535.268 Y-452.238 B452.90 F1000
G1 X535.255 Y-452.478 B452.90 F1000
G1 X535.243 Y-452.718 B452.90 F1000
G1 X535.231 Y-452.958 B452.90 F1000
G1 X535.219 Y-453.198 B452.90 F1000
G1 X535.207 Y-453.438 B452.90 F1000
G1 X535.195 Y-453.678 B452.90 F1000
G1 X535.183 Y-453.917 B452.90 F1000
G1 X535.170 Y-454.157 B452.90 F1000
G1 X535.158 Y-454.397 B452.89 F1000
G1 X535.146 Y-454.637 B452.89 F1000
G1 X535.134 Y-454.877 B452.89 F1000
G1 X535.122 Y-455.117 B452.89 F1000
G1 X535.110 Y-455.357 B452.89 F1000
G1 X535.098 Y-455.597 B452.89 F1000
G1 X535.086 Y-455.837 B452.89 F1000
G1 X535.074 Y-456.076 B452.86 F1000
G1 X535.062 Y-456.316 B452.85 F1000
G1 X535.050 Y-456.556 B452.85 F1000
G1 X535.038 Y-456.796 B452.85 F1000
G1 X535.026 Y-457.036 B452.81 F1000
G1 X535.015 Y-457.276 B452.70 F1000
G1 X535.003 Y-457.516 B452.70 F1000
G1 X534.992 Y-457.756 B452.70 F1000
G1 X534.981 Y-457.996 B452.62 F1000
G1 X534.971 Y-458.235 B452.53 F1000
G1 X534.960 Y-458.475 B452.53 F1000
G1 X534.949 Y-458.715 B452.53 F1000
G1 X534.939 Y-458.955 B452.48 F1000
G1 X534.929 Y-459.195 B452.50 F1000
G1 X534.915 Y-459.435 B453.35 F1000
G1 X534.896 Y-459.675 B454.50 F1000
G1 X534.872 Y-459.915 B455.63 F1000
G1 X534.844 Y-460.154 B456.77 F1000
G1 X534.808 Y-460.394 B458.44 F1000
G1 X534.773 Y-460.634 B458.34 F1000
G1 X534.733 Y-460.874 B459.39 F1000
G1 X534.696 Y-461.114 B458.73 F1000
G1 X534.662 Y-461.354 B458.11 F1000
G1 X534.629 Y-461.594 B457.91 F1000
G1 X534.599 Y-461.834 B457.00 F1000
G1 X534.578 Y-462.074 B455.02 F1000
G1 X534.569 Y-462.313 B452.16 F1000
G1 X534.576 Y-462.553 B448.46 F1000
G1 X534.594 Y-462.793 B445.55 F1000
G1 X534.614 Y-463.033 B445.19 F1000
G1 X534.640 Y-463.273 B443.99 F1000
G1 X534.665 Y-463.513 B443.99 F1000
G1 X534.684 Y-463.753 B445.47 F1000
G1 X534.699 Y-463.993 B446.45 F1000
G1 X534.705 Y-464.233 B448.59 F1000
G1 X534.703 Y-464.472 B450.54 F1000
G1 X534.696 Y-464.712 B451.61 F1000
G1 X534.685 Y-464.952 B452.60 F1000
G1 X534.676 Y-465.192 B452.08 F1000
G1 X534.667 Y-465.432 B452.21 F1000
G1 X534.658 Y-465.672 B452.21 F1000
G1 X534.648 Y-465.912 B452.21 F1000
G1 X534.639 Y-466.152 B452.21 F1000
G1 X534.630 Y-466.392 B452.21 F1000
G1 X534.621 Y-466.631 B452.24 F1000
G1 X534.611 Y-466.871 B452.25 F1000
G1 X534.601 Y-467.111 B452.42 F1000
G1 X534.590 Y-467.351 B452.69 F1000
G1 X534.580 Y-467.591 B452.28 F1000
G1 X534.571 Y-467.831 B452.15 F1000
G1 X534.562 Y-468.071 B452.15 F1000
G1 X534.553 Y-468.311 B452.15 F1000
G1 X534.544 Y-468.550 B452.15 F1000
G1 X534.535 Y-468.790 B452.15 F1000
G1 X534.526 Y-469.030 B452.15 F1000
G1 X534.518 Y-469.270 B451.98 F1000
G1 X534.510 Y-469.510 B451.93 F1000
G1 X534.502 Y-469.750 B451.93 F1000
G1 X534.494 Y-469.990 B451.93 F1000
G1 X534.485 Y-470.230 B452.03 F1000
G1 X534.475 Y-470.470 B452.47 F1000
G1 X534.466 Y-470.709 B452.08 F1000
G1 X534.460 Y-470.949 B451.42 F1000
G1 X534.454 Y-471.189 B451.42 F1000
G1 X534.448 Y-471.429 B451.42 F1000
G1 X534.442 Y-471.669 B451.42 F1000
G1 X534.435 Y-471.909 B451.71 F1000
G1 X534.428 Y-472.149 B451.71 F1000
G1 X534.421 Y-472.389 B451.75 F1000
G1 X534.412 Y-472.629 B451.96 F1000
G1 Z10.000 F500
G1 B412.75 F1000
G1 Z0.000 F500
G1 X534.595 Y-472.868 B412.75 F1000
G1 Z10.000 F500
G1 B362.82 F1000
G1 Z0.000 F500
G1 X539.472 Y-473.108 B362.82 F1000
G1 Z10.000 F500
G1 B537.43 F1000
G1 Z0.000 F500
G1 X534.130 Y-473.348 B537.43 F1000
G1 Z10.000 F500
G1 B472.71 F1000
G1 Z0.000 F500
G1 X534.029 Y-473.588 B472.71 F1000
G1 X533.958 Y-473.828 B466.57 F1000
G1 X533.886 Y-474.068 B466.64 F1000
G1 X533.814 Y-474.308 B466.66 F1000
G1 X533.743 Y-474.548 B466.66 F1000
G1 X533.679 Y-474.788 B464.91 F1000
G1 X533.619 Y-475.012 B464.84 F1000
G1 Z10.000 F500
G1 B540.00 F1000
G1 Z0.000 F500
G1 X518.124 Y-475.012 B540.00 F1000
G1 Z10.000 F500
G1 B450.00 F1000
G1 Z0.000 F500
G1 X518.124 Y-478.162 B450.00 F1000
G1 Z10.000 F500
G1 B360.00 F1000
G1 Z0.000 F500
G1 X532.986 Y-478.162 B360.00 F1000
G1 Z10.000 F500
G1 B456.88 F1000
G1 Z0.000 F500
G1 X532.959 Y-478.386 B456.88 F1000
G1 X532.936 Y-478.626 B455.65 F1000
G1 X532.912 Y-478.866 B455.68 F1000
G1 X532.888 Y-479.105 B455.68 F1000
G1 X532.874 Y-479.345 B453.36 F1000
G1 X532.861 Y-479.585 B453.02 F1000
G1 X532.849 Y-479.825 B453.02 F1000
G1 X532.839 Y-480.065 B452.36 F1000
G1 X532.838 Y-480.305 B450.15 F1000
G1 X532.839 Y-480.545 B449.90 F1000
G1 X532.839 Y-480.785 B449.90 F1000
G1 X532.850 Y-481.025 B447.27 F1000
G1 X532.863 Y-481.264 B446.90 F1000
G1 X532.876 Y-481.504 B447.03 F1000
G1 X532.894 Y-481.744 B445.74 F1000
G1 X532.919 Y-481.984 B443.94 F1000
G1 X532.945 Y-482.224 B443.94 F1000
G1 X532.971 Y-482.464 B443.69 F1000
G1 X533.010 Y-482.704 B440.79 F1000
G1 X533.051 Y-482.944 B440.25 F1000
G1 X533.092 Y-483.184 B440.25 F1000
G1 X533.145 Y-483.423 B437.64 F1000
G1 X533.200 Y-483.663 B437.04 F1000
G1 X533.255 Y-483.903 B437.08 F1000
G1 X533.319 Y-484.143 B435.14 F1000
G1 X533.389 Y-484.383 B433.79 F1000
G1 X533.458 Y-484.623 B433.79 F1000
G1 X533.533 Y-484.863 B432.73 F1000
G1 X533.618 Y-485.103 B430.49 F1000
G1 X533.705 Y-485.343 B430.10 F1000
G1 X533.797 Y-485.582 B428.88 F1000
G1 X533.899 Y-485.822 B427.12 F1000
G1 X534.001 Y-486.062 B426.90 F1000
G1 X534.168 Y-486.302 B415.18 F1000
G1 Z10.000 F500
G1 B362.59 F1000
G1 Z0.000 F500
G1 X539.472 Y-486.542 B362.59 F1000
G1 Z10.000 F500
G1 B450.00 F1000
G1 Z0.000 F500
G1 X539.472 Y-486.782 B450.00 F1000
G1 Z10.000 F500
G1 B537.34 F1000
G1 Z0.000 F500
G1 X534.316 Y-487.022 B537.34 F1000
G1 Z10.000 F500
G1 B477.22 F1000
G1 Z0.000 F500
G1 X534.192 Y-487.262 B477.22 F1000
G1 X534.102 Y-487.502 B470.56 F1000
G1 X534.101 Y-487.741 B450.42 F1000
G1 X534.099 Y-487.981 B450.42 F1000
G1 X534.098 Y-488.221 B450.29 F1000
G1 X534.102 Y-488.461 B448.96 F1000
G1 X534.108 Y-488.701 B448.60 F1000
G1 X534.114 Y-488.941 B448.60 F1000
G1 X534.120 Y-489.181 B448.60 F1000
G1 X534.125 Y-489.421 B448.60 F1000
G1 X534.140 Y-489.660 B446.47 F1000
G1 X534.155 Y-489.900 B446.51 F1000
G1 X534.173 Y-490.140 B445.56 F1000
G1 X534.199 Y-490.380 B443.91 F1000
G1 X534.222 Y-490.620 B444.58 F1000
G1 X534.253 Y-490.860 B442.56 F1000
G1 X534.286 Y-491.100 B442.21 F1000
G1 X534.325 Y-491.340 B440.69 F1000
G1 X534.367 Y-491.580 B440.02 F1000
G1 X534.412 Y-491.819 B439.45 F1000
G1 X534.466 Y-492.059 B437.32 F1000
G1 X534.536 Y-492.299 B433.66 F1000
G1 X534.607 Y-492.539 B433.66 F1000
G1 X534.670 Y-492.779 B435.25 F1000
G1 X534.725 Y-493.019 B437.17 F1000
G1 X534.779 Y-493.259 B437.17 F1000
G1 X534.834 Y-493.499 B437.17 F1000
G1 X534.895 Y-493.739 B435.77 F1000
G1 X534.957 Y-493.978 B435.52 F1000
G1 X535.017 Y-494.218 B435.93 F1000
G1 X535.068 Y-494.458 B437.97 F1000
G1 X535.119 Y-494.698 B437.97 F1000
G1 X535.175 Y-494.938 B436.81 F1000
G1 X535.236 Y-495.178 B435.71 F1000
G1 X535.297 Y-495.418 B435.71 F1000
G1 X535.355 Y-495.658 B436.55 F1000
G1 X535.406 Y-495.898 B437.91 F1000
G1 X535.458 Y-496.137 B437.91 F1000
G1 X535.509 Y-496.377 B437.91 F1000
G1 X535.560 Y-496.617 B437.91 F1000
G1 X535.612 Y-496.857 B437.91 F1000
G1 X535.663 Y-497.097 B437.91 F1000
G1 X535.715 Y-497.337 B437.91 F1000
G1 X535.766 Y-497.577 B437.91 F1000
G1 X535.817 Y-497.817 B437.91 F1000
G1 X535.869 Y-498.057 B437.91 F1000
G1 X535.920 Y-498.296 B437.91 F1000
G1 X535.972 Y-498.536 B437.91 F1000
G1 X536.023 Y-498.776 B437.91 F1000
G1 X536.079 Y-499.016 B436.77 F1000
G1 X536.141 Y-499.256 B435.55 F1000
G1 X536.197 Y-499.496 B436.99 F1000
G1 X536.249 Y-499.736 B437.78 F1000
G1 X536.300 Y-499.976 B437.78 F1000
G1 X536.352 Y-500.215 B437.78 F1000
G1 X536.404 Y-500.455 B437.78 F1000
G1 X536.459 Y-500.695 B437.07 F1000
G1 X536.525 Y-500.935 B434.78 F1000
G1 X536.590 Y-501.175 B434.78 F1000
G1 X536.655 Y-501.415 B434.78 F1000
G1 X536.718 Y-501.655 B435.39 F1000
G1 X536.777 Y-501.895 B436.08 F1000
G1 X536.837 Y-502.135 B436.08 F1000
G1 X536.896 Y-502.374 B436.08 F1000
G1 X536.956 Y-502.614 B436.08 F1000
G1 X537.004 Y-502.854 B438.52 F1000
G1 X537.064 Y-503.094 B435.91 F1000
G1 X537.140 Y-503.334 B432.59 F1000
G1 X537.215 Y-503.574 B432.59 F1000
G1 X537.290 Y-503.814 B432.59 F1000
G1 X537.365 Y-504.054 B432.59 F1000
G1 X537.441 Y-504.294 B432.59 F1000
G1 X537.513 Y-504.533 B433.30 F1000
G1 X537.567 Y-504.773 B437.23 F1000
G1 X537.621 Y-505.013 B437.23 F1000
G1 X537.676 Y-505.253 B437.23 F1000
G1 X537.752 Y-505.493 B432.46 F1000
G1 X537.838 Y-505.733 B430.14 F1000
G1 X537.925 Y-505.973 B430.14 F1000
G1 X538.012 Y-506.213 B430.14 F1000
G1 X538.081 Y-506.453 B433.76 F1000
G1 X538.142 Y-506.692 B435.89 F1000
G1 X538.202 Y-506.932 B435.89 F1000
G1 X538.262 Y-507.172 B435.89 F1000
G1 X538.323 Y-507.412 B435.89 F1000
G1 X538.383 Y-507.652 B435.89 F1000
G1 X538.467 Y-507.892 B430.66 F1000
G1 X538.554 Y-508.132 B430.01 F1000
G1 X538.616 Y-508.372 B435.57 F1000
G1 X538.678 Y-508.612 B435.57 F1000
G1 X538.740 Y-508.851 B435.57 F1000
G1 X538.801 Y-509.091 B435.57 F1000
G1 X538.863 Y-509.331 B435.57 F1000
G1 X538.928 Y-509.571 B434.89 F1000
G1 X538.993 Y-509.811 B434.87 F1000
G1 X539.044 Y-510.051 B438.01 F1000
G1 X539.100 Y-510.291 B436.73 F1000
G1 X539.163 Y-510.531 B435.28 F1000
G1 X539.226 Y-510.770 B435.28 F1000
G1 X539.289 Y-511.010 B435.28 F1000
G1 X539.352 Y-511.250 B435.28 F1000
G1 X539.415 Y-511.490 B435.28 F1000
G1 X539.478 Y-511.730 B435.28 F1000
G1 X539.508 Y-511.932 B441.57 F1000
G1 Z10.000 F500
G1 B540.00 F1000
G1 Z0.000 F500
G1 X521.410 Y-511.932 B540.00 F1000
G1 Z10.000 F500
G1 B450.00 F1000
G1 Z0.000 F500
G1 X521.410 Y-515.082 B450.00 F1000
G1 Z10.000 F500
G1 B360.00 F1000
G1 Z0.000 F500
G1 X540.026 Y-515.082 B360.00 F1000
G1 Z10.000 F500
G1 B442.92 F1000
G1 Z0.000 F500
G1 X540.027 Y-515.088 B442.92 F1000
G1 X540.064 Y-515.328 B441.07 F1000
G1 X540.105 Y-515.568 B440.36 F1000
G1 X540.128 Y-515.808 B444.64 F1000
G1 X540.150 Y-516.048 B444.74 F1000
G1 X540.177 Y-516.288 B443.47 F1000
G1 X540.206 Y-516.528 B443.17 F1000
G1 X540.235 Y-516.768 B443.17 F1000
G1 X540.263 Y-517.008 B443.17 F1000
G1 X540.292 Y-517.247 B443.17 F1000
G1 X540.299 Y-517.487 B448.46 F1000
G1 X540.303 Y-517.727 B448.84 F1000
G1 X540.322 Y-517.967 B445.46 F1000
G1 X540.344 Y-518.207 B444.95 F1000
G1 X540.365 Y-518.447 B444.95 F1000
G1 X540.386 Y-518.687 B444.95 F1000
G1 X540.407 Y-518.927 B444.95 F1000
G1 X540.421 Y-519.167 B446.65 F1000
G1 X540.419 Y-519.406 B450.57 F1000
G1 X540.417 Y-519.646 B450.57 F1000
G1 X540.414 Y-519.886 B450.57 F1000
G1 X540.412 Y-520.126 B450.57 F1000
G1 X540.409 Y-520.366 B450.57 F1000
G1 X540.419 Y-520.606 B447.67 F1000
G1 X540.432 Y-520.846 B447.01 F1000
G1 X540.429 Y-521.086 B450.63 F1000
G1 X540.419 Y-521.325 B452.51 F1000
G1 X540.408 Y-521.565 B452.51 F1000
G1 X540.397 Y-521.805 B452.51 F1000
G1 X540.387 Y-522.045 B452.52 F1000
G1 X540.376 Y-522.285 B452.61 F1000
G1 X540.365 Y-522.525 B452.61 F1000
G1 X540.354 Y-522.765 B452.61 F1000
G1 X540.343 Y-523.005 B452.61 F1000
G1 X540.328 Y-523.245 B453.51 F1000
G1 X540.313 Y-523.484 B453.60 F1000
G1 X540.300 Y-523.724 B453.19 F1000
G1 X540.276 Y-523.964 B455.73 F1000
G1 Z10.000 F500
G1 B378.65 F1000
G1 Z0.000 F500
G1 X540.987 Y-524.204 B378.65 F1000
G1 X542.273 Y-524.444 B370.57 F1000
G1 Z10.000 F500
G1 B448.34 F1000
G1 Z0.000 F500
G1 X542.280 Y-524.684 B448.34 F1000
G1 X542.287 Y-524.924 B448.34 F1000
G1 Z10.000 F500
G1 B533.58 F1000
G1 Z0.000 F500
G1 X540.156 Y-525.164 B533.58 F1000
G1 Z10.000 F500
G1 B456.79 F1000
G1 Z0.000 F500
G1 X540.127 Y-525.404 B456.79 F1000
G1 X540.099 Y-525.643 B456.79 F1000
G1 X540.070 Y-525.883 B456.88 F1000
G1 X540.035 Y-526.123 B458.17 F1000
G1 X540.001 Y-526.363 B458.17 F1000
G1 X539.966 Y-526.603 B458.17 F1000
G1 X539.932 Y-526.843 B458.07 F1000
G1 X539.897 Y-527.083 B458.34 F1000
G1 X539.877 Y-527.323 B454.77 F1000
G1 X539.877 Y-527.563 B449.98 F1000
G1 X539.904 Y-527.802 B443.70 F1000
G1 X539.959 Y-528.042 B437.01 F1000
G1 X540.053 Y-528.282 B428.57 F1000
G1 X540.203 Y-528.522 B418.00 F1000
G1 X540.565 Y-528.762 B393.57 F1000
G1 X543.133 Y-529.002 B365.34 F1000
G1 X559.956 Y-529.174 B360.59 F1000
G1 Z10.000 F500
G1 B450.00 F1000
G1 Z0.000 F500
G1 X559.956 Y-548.852 B450.00 F1000
G1 Z10.000 F500
G1 B540.00 F1000
G1 Z0.000 F500
G1 X531.478 Y-548.852 B540.00 F1000
G1 Z10.000 F500
G1 B450.00 F1000
G1 Z0.000 F500
G1 X531.478 Y-552.002 B450.00 F1000
G1 Z10.000 F500
G1 B360.00 F1000
G1 Z0.000 F500
G1 X559.956 Y-552.002 B360.00 F1000
G1 Z10.000 F500
G1 B450.00 F1000
G1 Z0.000 F500
G1 X559.956 Y-560.427 B450.00 F1000
G1 Z10.000 F500
G1 B540.00 F1000
G1 Z0.000 F500
G1 X503.000 Y-560.427 B540.00 F1000
G1 Z10.000 F500
G1 B630.00 F1000
G1 Z0.000 F500
G1 X503.000 Y-392.746 B630.00 F1000
G1 Z10.000 F500
G1 B720.00 F1000
G1 Z0.000 F500
G1 X559.956 Y-392.746 B720.00 F1000
G1 Z10.000 F500
G1 Z10.000 F500
G0 X601.956 Y-439.130
G1 Z10.000 F500
G1 B810.00 F1000
G1 Z0.000 F500
G1 X601.956 Y-447.555 B810.00 F1000
G1 Z10.000 F500
G1 B900.00 F1000
G1 Z0.000 F500
G1 X572.478 Y-447.555 B900.00 F1000
G1 Z10.000 F500
G1 B810.00 F1000
G1 Z0.000 F500
G1 X572.478 Y-450.705 B810.00 F1000
G1 Z10.000 F500
G1 B720.00 F1000
G1 Z0.000 F500
G1 X601.956 Y-450.705 B720.00 F1000
G1 Z10.000 F500
G1 B810.00 F1000
G1 Z0.000 F500
G1 X601.956 Y-462.879 B810.00 F1000
G1 Z10.000 F500
G1 B900.00 F1000
G1 Z0.000 F500
G1 X572.478 Y-462.879 B900.00 F1000
G1 Z10.000 F500
G1 B810.00 F1000
G1 Z0.000 F500
G1 X572.478 Y-466.029 B810.00 F1000
G1 Z10.000 F500
G1 B720.00 F1000
G1 Z0.000 F500
G1 X601.956 Y-466.029 B720.00 F1000
G1 Z10.000 F500
G1 B810.00 F1000
G1 Z0.000 F500
G1 X601.956 Y-478.204 B810.00 F1000
G1 Z10.000 F500
G1 B900.00 F1000
G1 Z0.000 F500
G1 X572.478 Y-478.204 B900.00 F1000
G1 Z10.000 F500
G1 B810.00 F1000
G1 Z0.000 F500
G1 X572.478 Y-481.354 B810.00 F1000
G1 Z10.000 F500
G1 B720.00 F1000
G1 Z0.000 F500
G1 X601.956 Y-481.354 B720.00 F1000
G1 Z10.000 F500
G1 B810.00 F1000
G1 Z0.000 F500
G1 X601.956 Y-493.528 B810.00 F1000
G1 Z10.000 F500
G1 B900.00 F1000
G1 Z0.000 F500
G1 X572.478 Y-493.528 B900.00 F1000
G1 Z10.000 F500
G1 B810.00 F1000
G1 Z0.000 F500
G1 X572.478 Y-496.678 B810.00 F1000
G1 Z10.000 F500
G1 B720.00 F1000
G1 Z0.000 F500
G1 X601.956 Y-496.678 B720.00 F1000
G1 Z10.000 F500
G1 B810.00 F1000
G1 Z0.000 F500
G1 X601.956 Y-508.852 B810.00 F1000
G1 Z10.000 F500
G1 B900.00 F1000
G1 Z0.000 F500
G1 X572.478 Y-508.852 B900.00 F1000
G1 Z10.000 F500
G1 B810.00 F1000
G1 Z0.000 F500
G1 X572.478 Y-512.002 B810.00 F1000
G1 Z10.000 F500
G1 B720.00 F1000
G1 Z0.000 F500
G1 X601.956 Y-512.002 B720.00 F1000
G1 Z10.000 F500
G1 B810.00 F1000
G1 Z0.000 F500
G1 X601.956 Y-520.427 B810.00 F1000
G1 Z10.000 F500
G1 B900.00 F1000
G1 Z0.000 F500
G1 X543.000 Y-520.427 B900.00 F1000
G1 Z10.000 F500
G1 B990.00 F1000
G1 Z0.000 F500
G1 X543.000 Y-439.130 B990.00 F1000
G1 Z10.000 F500
G1 B1080.00 F1000
G1 Z0.000 F500
G1 X601.956 Y-439.130 B1080.00 F1000
G1 Z10.000 F500
G1 A634.363 F200 (ADVANCE MATERIAL)
G1 Z10.000 F500
G0 X607.956 Y-434.363
G1 Z10.000 F500
G1 B1170.00 F1000
G1 Z0.000 F500
G1 X607.956 Y-515.659 B1170.00 F1000
G1 Z10.000 F500
G1 B1260.00 F1000
G1 Z0.000 F500
G1 X551.000 Y-515.659 B1260.00 F1000
G1 Z10.000 F500
G1 B1350.00 F1000
G1 Z0.000 F500
G1 X551.000 Y-507.234 B1350.00 F1000
G1 Z10.000 F500
G1 B1440.00 F1000
G1 Z0.000 F500
G1 X579.478 Y-507.234 B1440.00 F1000
G1 Z10.000 F500
G1 B1350.00 F1000
G1 Z0.000 F500
G1 X579.478 Y-505.425 B1350.00 F1000
G1 Z10.000 F500
G1 B1440.00 F1000
G1 Z0.000 F500
G1 X593.269 Y-505.425 B1440.00 F1000
G1 Z10.000 F500
G1 B1390.77 F1000
G1 Z0.000 F500
G1 X593.370 Y-505.308 B1390.77 F1000
G1 X593.474 Y-505.192 B1391.89 F1000
G1 X593.578 Y-505.076 B1391.89 F1000
G1 X593.682 Y-504.959 B1391.89 F1000
G1 X593.787 Y-504.843 B1391.89 F1000
G1 X593.891 Y-504.727 B1391.89 F1000
G1 X593.995 Y-504.611 B1391.89 F1000
G1 X594.100 Y-504.494 B1391.89 F1000
G1 X594.204 Y-504.378 B1391.89 F1000
G1 X594.308 Y-504.262 B1391.89 F1000
G1 X594.403 Y-504.145 B1389.07 F1000
G1 X594.487 Y-504.029 B1385.97 F1000
G1 X594.574 Y-503.913 B1386.74 F1000
G1 X594.663 Y-503.796 B1387.36 F1000
G1 X594.752 Y-503.680 B1387.36 F1000
G1 X594.841 Y-503.564 B1387.36 F1000
G1 X594.929 Y-503.447 B1387.36 F1000
G1 X595.018 Y-503.331 B1387.36 F1000
G1 X595.107 Y-503.215 B1387.36 F1000
G1 X595.196 Y-503.099 B1387.36 F1000
G1 X595.284 Y-502.982 B1387.36 F1000
G1 X595.373 Y-502.866 B1387.36 F1000
G1 X595.460 Y-502.750 B1386.67 F1000
G1 X595.539 Y-502.633 B1384.27 F1000
G1 X595.613 Y-502.517 B1382.58 F1000
G1 X595.688 Y-502.401 B1382.58 F1000
G1 X595.762 Y-502.284 B1382.58 F1000
G1 X595.836 Y-502.168 B1382.58 F1000
G1 X595.911 Y-502.052 B1382.58 F1000
G1 X595.985 Y-501.936 B1382.58 F1000
G1 X596.059 Y-501.819 B1382.58 F1000
G1 X596.134 Y-501.703 B1382.58 F1000
G1 X596.208 Y-501.587 B1382.58 F1000
G1 X596.281 Y-501.470 B1382.10 F1000
G1 X596.352 Y-501.354 B1381.53 F1000
G1 X596.418 Y-501.238 B1379.63 F1000
G1 X596.477 Y-501.121 B1376.84 F1000
G1 X596.539 Y-501.005 B1377.74 F1000
G1 X596.605 Y-500.889 B1379.70 F1000
G1 X596.671 Y-500.772 B1379.70 F1000
G1 X596.737 Y-500.656 B1379.60 F1000
G1 X596.800 Y-500.540 B1378.24 F1000
G1 X596.862 Y-500.424 B1378.24 F1000
G1 X596.925 Y-500.307 B1378.24 F1000
G1 X596.987 Y-500.191 B1378.24 F1000
G1 X597.050 Y-500.075 B1378.24 F1000
G1 X597.112 Y-499.958 B1378.24 F1000
G1 X597.174 Y-499.842 B1378.24 F1000
G1 X597.237 Y-499.726 B1378.24 F1000
G1 X597.290 Y-499.609 B1374.48 F1000
G1 X597.342 Y-499.493 B1374.28 F1000
G1 X597.395 Y-499.377 B1374.28 F1000
G1 X597.447 Y-499.261 B1374.28 F1000
G1 X597.500 Y-499.144 B1374.28 F1000
G1 X597.552 Y-499.028 B1374.28 F1000
G1 X597.605 Y-498.912 B1374.28 F1000
G1 X597.657 Y-498.795 B1374.28 F1000
G1 X597.709 Y-498.679 B1374.26 F1000
G1 X597.761 Y-498.563 B1374.06 F1000
G1 X597.812 Y-498.446 B1373.44 F1000
G1 X597.850 Y-498.330 B1368.21 F1000
G1 X597.886 Y-498.214 B1367.14 F1000
G1 X597.919 Y-498.097 B1366.04 F1000
G1 X597.938 Y-497.981 B1358.94 F1000
G1 X597.952 Y-497.865 B1357.13 F1000
G1 X597.956 Y-497.749 B1351.85 F1000
G1 X597.948 Y-497.632 B1346.25 F1000
G1 X597.929 Y-497.516 B1340.64 F1000
G1 X597.900 Y-497.400 B1336.10 F1000
G1 X597.858 Y-497.283 B1330.17 F1000
G1 X597.805 Y-497.167 B1325.32 F1000
G1 X597.734 Y-497.051 B1318.68 F1000
G1 X597.651 Y-496.934 B1314.32 F1000
G1 X597.568 Y-496.818 B1314.60 F1000
G1 X597.485 Y-496.702 B1314.52 F1000
G1 X597.402 Y-496.586 B1314.42 F1000
G1 X597.319 Y-496.469 B1314.42 F1000
G1 X597.234 Y-496.353 B1314.00 F1000
G1 X597.148 Y-496.237 B1313.42 F1000
G1 X597.062 Y-496.120 B1313.42 F1000
G1 X596.975 Y-496.004 B1313.42 F1000
G1 X596.889 Y-495.888 B1313.42 F1000
G1 X596.803 Y-495.771 B1313.42 F1000
G1 X596.716 Y-495.655 B1313.42 F1000
G1 X596.634 Y-495.539 B1314.63 F1000
G1 X596.561 Y-495.422 B1317.97 F1000
G1 X596.488 Y-495.306 B1317.97 F1000
G1 X596.416 Y-495.190 B1317.97 F1000
G1 X596.343 Y-495.074 B1317.97 F1000
G1 X596.270 Y-494.957 B1317.97 F1000
G1 X596.197 Y-494.841 B1317.97 F1000
G1 X596.125 Y-494.725 B1317.97 F1000
G1 X596.050 Y-494.608 B1317.43 F1000
G1 X595.975 Y-494.492 B1317.08 F1000
G1 X595.900 Y-494.376 B1317.08 F1000
G1 X595.824 Y-494.259 B1317.08 F1000
G1 X595.749 Y-494.143 B1317.08 F1000
G1 X595.682 Y-494.027 B1320.08 F1000
G1 X595.615 Y-493.911 B1319.88 F1000
G1 X595.547 Y-493.794 B1319.88 F1000
G1 X595.480 Y-493.678 B1320.02 F1000
G1 X595.414 Y-493.562 B1320.35 F1000
G1 X595.348 Y-493.445 B1320.35 F1000
G1 X595.281 Y-493.329 B1320.35 F1000
G1 X595.222 Y-493.213 B1322.98 F1000
G1 X595.169 Y-493.096 B1325.61 F1000
G1 X595.117 Y-492.980 B1325.61 F1000
G1 X595.064 Y-492.864 B1325.61 F1000
G1 X595.011 Y-492.747 B1325.61 F1000
G1 X594.958 Y-492.631 B1325.61 F1000
G1 X594.902 Y-492.515 B1324.07 F1000
G1 X594.844 Y-492.399 B1323.43 F1000
G1 X594.786 Y-492.282 B1323.43 F1000
G1 X594.727 Y-492.166 B1323.43 F1000
G1 X594.669 Y-492.050 B1323.43 F1000
G1 X594.611 Y-491.933 B1323.43 F1000
G1 X594.600 Y-491.910 B1323.43 F1000
G1 Z10.000 F500
G1 B1440.00 F1000
G1 Z0.000 F500
G1 X600.936 Y-491.910 B1440.00 F1000
G1 Z10.000 F500
G1 B1350.00 F1000
G1 Z0.000 F500
G1 X600.936 Y-488.760 B1350.00 F1000
G1 Z10.000 F500
G1 B1260.00 F1000
G1 Z0.000 F500
G1 X593.337 Y-488.760 B1260.00 F1000
G1 Z10.000 F500
G1 B1331.77 F1000
G1 Z0.000 F500
G1 X593.309 Y-488.677 B1331.77 F1000
G1 X593.271 Y-488.561 B1331.77 F1000
G1 X593.233 Y-488.444 B1331.77 F1000
G1 X593.194 Y-488.328 B1331.77 F1000
G1 X593.156 Y-488.212 B1331.77 F1000
G1 X593.118 Y-488.095 B1331.77 F1000
G1 X593.079 Y-487.979 B1331.77 F1000
G1 X593.041 Y-487.863 B1331.77 F1000
G1 X593.003 Y-487.746 B1331.77 F1000
G1 X592.965 Y-487.630 B1331.77 F1000
G1 X592.926 Y-487.514 B1331.72 F1000
G1 X592.888 Y-487.397 B1331.70 F1000
G1 X592.852 Y-487.281 B1332.90 F1000
G1 X592.821 Y-487.165 B1335.29 F1000
G1 X592.791 Y-487.049 B1335.47 F1000
G1 X592.761 Y-486.932 B1335.47 F1000
G1 X592.731 Y-486.816 B1335.47 F1000
G1 X592.701 Y-486.700 B1335.47 F1000
G1 X592.671 Y-486.583 B1335.47 F1000
G1 X592.640 Y-486.467 B1335.47 F1000
G1 X592.610 Y-486.351 B1335.47 F1000
G1 X592.580 Y-486.234 B1335.47 F1000
G1 X592.550 Y-486.118 B1335.47 F1000
G1 X592.520 Y-486.002 B1335.47 F1000
G1 X592.490 Y-485.886 B1335.47 F1000
G1 X592.460 Y-485.769 B1335.47 F1000
G1 X592.430 Y-485.653 B1335.47 F1000
G1 X592.399 Y-485.537 B1335.47 F1000
G1 X592.369 Y-485.420 B1335.47 F1000
G1 X592.339 Y-485.304 B1335.47 F1000
G1 X592.311 Y-485.188 B1336.45 F1000
G1 X592.284 Y-485.071 B1336.94 F1000
G1 X592.257 Y-484.955 B1336.94 F1000
G1 X592.230 Y-484.839 B1336.94 F1000
G1 X592.203 Y-484.722 B1336.94 F1000
G1 X592.178 Y-484.606 B1337.76 F1000
G1 X592.153 Y-484.490 B1337.82 F1000
G1 X592.128 Y-484.374 B1337.82 F1000
G1 X592.103 Y-484.257 B1337.82 F1000
G1 X592.078 Y-484.141 B1337.82 F1000
G1 X592.052 Y-484.025 B1337.85 F1000
G1 X592.028 Y-483.908 B1338.29 F1000
G1 X592.004 Y-483.792 B1338.29 F1000
G1 X591.980 Y-483.676 B1338.29 F1000
G1 X591.956 Y-483.559 B1338.29 F1000
G1 X591.932 Y-483.443 B1338.29 F1000
G1 X591.908 Y-483.327 B1338.29 F1000
G1 X591.884 Y-483.211 B1338.29 F1000
G1 X591.860 Y-483.094 B1338.29 F1000
G1 X591.836 Y-482.978 B1338.29 F1000
G1 X591.811 Y-482.862 B1338.29 F1000
G1 X591.787 Y-482.745 B1338.29 F1000
G1 X591.763 Y-482.629 B1338.29 F1000
G1 X591.739 Y-482.513 B1338.29 F1000
G1 X591.715 Y-482.396 B1338.29 F1000
G1 X591.691 Y-482.280 B1338.29 F1000
G1 X591.667 Y-482.164 B1338.29 F1000
G1 X591.643 Y-482.047 B1338.29 F1000
G1 X591.619 Y-481.931 B1338.29 F1000
G1 X591.595 Y-481.815 B1338.29 F1000
G1 X591.571 Y-481.699 B1338.29 F1000
G1 X591.546 Y-481.582 B1338.27 F1000
G1 X591.521 Y-481.466 B1337.48 F1000
G1 X591.495 Y-481.350 B1337.48 F1000
G1 X591.469 Y-481.233 B1337.48 F1000
G1 X591.443 Y-481.117 B1337.48 F1000
G1 X591.417 Y-481.001 B1337.48 F1000
G1 X591.389 Y-480.884 B1336.14 F1000
G1 X591.357 Y-480.768 B1334.74 F1000
G1 X591.325 Y-480.652 B1334.81 F1000
G1 X591.299 Y-480.536 B1337.08 F1000
G1 X591.272 Y-480.419 B1337.08 F1000
G1 X591.245 Y-480.303 B1337.08 F1000
G1 X591.219 Y-480.187 B1337.08 F1000
G1 X591.192 Y-480.070 B1337.08 F1000
G1 X591.164 Y-479.954 B1336.75 F1000
G1 X591.134 Y-479.838 B1335.26 F1000
G1 X591.103 Y-479.721 B1335.26 F1000
G1 X591.073 Y-479.605 B1335.26 F1000
G1 X591.042 Y-479.489 B1335.26 F1000
G1 X591.012 Y-479.372 B1335.26 F1000
G1 X590.981 Y-479.256 B1335.26 F1000
G1 X590.950 Y-479.140 B1335.26 F1000
G1 X590.920 Y-479.024 B1335.26 F1000
G1 X590.889 Y-478.907 B1335.26 F1000
G1 X590.859 Y-478.791 B1335.26 F1000
G1 X590.828 Y-478.675 B1335.26 F1000
G1 X590.797 Y-478.558 B1335.26 F1000
G1 X590.767 Y-478.442 B1335.26 F1000
G1 X590.736 Y-478.326 B1335.26 F1000
G1 X590.706 Y-478.209 B1335.26 F1000
G1 X590.669 Y-478.093 B1332.51 F1000
G1 X590.629 Y-477.977 B1331.08 F1000
G1 X590.589 Y-477.861 B1331.14 F1000
G1 X590.550 Y-477.744 B1331.36 F1000
G1 X590.511 Y-477.628 B1331.36 F1000
G1 X590.472 Y-477.512 B1331.36 F1000
G1 X590.432 Y-477.395 B1331.36 F1000
G1 X590.393 Y-477.279 B1331.36 F1000
G1 X590.354 Y-477.163 B1331.36 F1000
G1 X590.315 Y-477.046 B1331.36 F1000
G1 X590.276 Y-476.930 B1331.36 F1000
G1 X590.236 Y-476.814 B1331.36 F1000
G1 X590.197 Y-476.697 B1331.36 F1000
G1 X590.160 Y-476.586 B1331.36 F1000
G1 Z10.000 F500
G1 B1440.00 F1000
G1 Z0.000 F500
G1 X598.737 Y-476.586 B1440.00 F1000
G1 Z10.000 F500
G1 B1350.00 F1000
G1 Z0.000 F500
G1 X598.737 Y-473.436 B1350.00 F1000
G1 Z10.000 F500
G1 B1260.00 F1000
G1 Z0.000 F500
G1 X588.751 Y-473.436 B1260.00 F1000
G1 Z10.000 F500
G1 B1318.00 F1000
G1 Z0.000 F500
G1 X588.682 Y-473.325 B1318.00 F1000
G1 X588.609 Y-473.208 B1318.00 F1000
G1 X588.536 Y-473.092 B1318.00 F1000
G1 X588.464 Y-472.976 B1318.00 F1000
G1 X588.391 Y-472.859 B1318.00 F1000
G1 X588.320 Y-472.743 B1318.46 F1000
G1 X588.252 Y-472.627 B1319.82 F1000
G1 X588.184 Y-472.511 B1319.82 F1000
G1 X588.108 Y-472.394 B1316.86 F1000
G1 X588.031 Y-472.278 B1316.29 F1000
G1 X587.953 Y-472.162 B1316.29 F1000
G1 X587.876 Y-472.045 B1316.29 F1000
G1 X587.798 Y-471.929 B1316.29 F1000
G1 X587.720 Y-471.813 B1316.29 F1000
G1 X587.643 Y-471.696 B1316.29 F1000
G1 X587.552 Y-471.580 B1311.98 F1000
G1 X587.455 Y-471.464 B1310.10 F1000
G1 X587.358 Y-471.347 B1310.10 F1000
G1 X587.260 Y-471.231 B1310.10 F1000
G1 X587.163 Y-471.115 B1310.10 F1000
G1 X587.066 Y-470.999 B1310.10 F1000
G1 X586.971 Y-470.882 B1310.68 F1000
G1 X586.876 Y-470.766 B1310.93 F1000
G1 X586.778 Y-470.650 B1309.72 F1000
G1 X586.679 Y-470.533 B1309.72 F1000
G1 X586.580 Y-470.417 B1309.72 F1000
G1 X586.482 Y-470.301 B1309.72 F1000
G1 X586.383 Y-470.184 B1309.72 F1000
G1 X586.272 Y-470.068 B1306.17 F1000
G1 X586.151 Y-469.952 B1304.03 F1000
G1 X586.031 Y-469.836 B1304.03 F1000
G1 X585.911 Y-469.719 B1304.03 F1000
G1 X585.790 Y-469.603 B1304.03 F1000
G1 X585.670 Y-469.487 B1304.03 F1000
G1 X585.550 Y-469.370 B1304.06 F1000
G1 X585.431 Y-469.254 B1304.33 F1000
G1 X585.312 Y-469.138 B1304.33 F1000
G1 X585.193 Y-469.021 B1304.33 F1000
G1 X585.074 Y-468.905 B1304.33 F1000
G1 X584.955 Y-468.789 B1304.33 F1000
G1 X584.836 Y-468.672 B1304.33 F1000
G1 X584.705 Y-468.556 B1301.75 F1000
G1 X584.574 Y-468.440 B1301.62 F1000
G1 X584.443 Y-468.324 B1301.49 F1000
G1 X584.311 Y-468.207 B1301.49 F1000
G1 X584.180 Y-468.091 B1301.49 F1000
G1 X584.048 Y-467.975 B1301.49 F1000
G1 X583.917 Y-467.858 B1301.49 F1000
G1 X583.785 Y-467.742 B1301.49 F1000
G1 X583.654 Y-467.626 B1301.49 F1000
G1 X583.522 Y-467.509 B1301.46 F1000
G1 X583.389 Y-467.393 B1301.14 F1000
G1 X583.256 Y-467.277 B1301.14 F1000
G1 X583.123 Y-467.161 B1301.14 F1000
G1 X582.990 Y-467.044 B1301.14 F1000
G1 X582.857 Y-466.928 B1301.14 F1000
G1 X582.723 Y-466.812 B1301.14 F1000
G1 X582.587 Y-466.695 B1300.45 F1000
G1 X582.447 Y-466.579 B1299.68 F1000
G1 X582.307 Y-466.463 B1299.68 F1000
G1 X582.166 Y-466.346 B1299.68 F1000
G1 X582.026 Y-466.230 B1299.68 F1000
G1 X581.886 Y-466.114 B1299.68 F1000
G1 X581.746 Y-465.997 B1299.68 F1000
G1 X581.606 Y-465.881 B1299.68 F1000
G1 X581.466 Y-465.765 B1299.68 F1000
G1 X581.325 Y-465.649 B1299.68 F1000
G1 X581.185 Y-465.532 B1299.68 F1000
G1 X581.045 Y-465.416 B1299.68 F1000
G1 X580.905 Y-465.300 B1299.68 F1000
G1 X580.763 Y-465.183 B1299.28 F1000
G1 X580.619 Y-465.067 B1298.91 F1000
G1 X580.475 Y-464.951 B1298.91 F1000
G1 X580.326 Y-464.834 B1298.14 F1000
G1 X580.174 Y-464.718 B1297.26 F1000
G1 X580.021 Y-464.602 B1297.26 F1000
G1 X579.868 Y-464.486 B1297.26 F1000
G1 X579.715 Y-464.369 B1297.26 F1000
G1 X579.562 Y-464.253 B1297.26 F1000
G1 X579.409 Y-464.137 B1297.26 F1000
G1 X579.256 Y-464.020 B1297.26 F1000
G1 X579.103 Y-463.904 B1297.26 F1000
G1 X578.950 Y-463.788 B1297.26 F1000
G1 X578.797 Y-463.671 B1297.26 F1000
G1 X578.644 Y-463.555 B1297.26 F1000
G1 X578.492 Y-463.439 B1297.26 F1000
G1 X578.339 Y-463.322 B1297.26 F1000
G1 X578.186 Y-463.206 B1297.26 F1000
G1 X578.033 Y-463.090 B1297.26 F1000
G1 X577.880 Y-462.974 B1297.26 F1000
G1 X577.727 Y-462.857 B1297.26 F1000
G1 X577.574 Y-462.741 B1297.26 F1000
G1 X577.421 Y-462.625 B1297.26 F1000
G1 X577.268 Y-462.508 B1297.26 F1000
G1 X577.114 Y-462.392 B1296.95 F1000
G1 X576.955 Y-462.276 B1296.30 F1000
G1 X576.798 Y-462.159 B1296.51 F1000
G1 X576.636 Y-462.043 B1295.64 F1000
G1 X576.474 Y-461.927 B1295.62 F1000
G1 X576.311 Y-461.811 B1295.62 F1000
G1 X576.141 Y-461.694 B1294.35 F1000
G1 X575.993 Y-461.578 B1298.13 F1000
G1 X575.851 Y-461.462 B1299.38 F1000
G1 X575.716 Y-461.345 B1300.56 F1000
G1 X575.620 Y-461.262 B1301.19 F1000
G1 Z10.000 F500
G1 B1440.00 F1000
G1 Z0.000 F500
G1 X590.572 Y-461.262 B1440.00 F1000
G1 Z10.000 F500
G1 B1350.00 F1000
G1 Z0.000 F500
G1 X590.572 Y-458.112 B1350.00 F1000
G1 Z10.000 F500
G1 B1260.00 F1000
G1 Z0.000 F500
G1 X570.740 Y-458.112 B1260.00 F1000
G1 Z10.000 F500
G1 B1291.37 F1000
G1 Z0.000 F500
G1 X570.703 Y-458.089 B1291.37 F1000
G1 X570.510 Y-457.972 B1291.16 F1000
G1 X570.315 Y-457.856 B1290.82 F1000
G1 X570.120 Y-457.740 B1290.82 F1000
G1 X569.925 Y-457.624 B1290.82 F1000
G1 X569.730 Y-457.507 B1290.82 F1000
G1 X569.535 Y-457.391 B1290.82 F1000
G1 X569.340 Y-457.275 B1290.82 F1000
G1 X569.145 Y-457.158 B1290.81 F1000
G1 X568.949 Y-457.042 B1290.59 F1000
G1 X568.752 Y-456.926 B1290.59 F1000
G1 X568.555 Y-456.809 B1290.59 F1000
G1 X568.358 Y-456.693 B1290.59 F1000
G1 X568.162 Y-456.577 B1290.59 F1000
G1 X567.965 Y-456.461 B1290.59 F1000
G1 X567.768 Y-456.344 B1290.59 F1000
G1 X567.569 Y-456.228 B1290.30 F1000
G1 X567.358 Y-456.112 B1288.85 F1000
G1 X567.147 Y-455.995 B1288.85 F1000
G1 X566.936 Y-455.879 B1288.85 F1000
G1 X566.725 Y-455.763 B1288.85 F1000
G1 X566.511 Y-455.646 B1288.58 F1000
G1 X566.291 Y-455.530 B1287.86 F1000
G1 X566.071 Y-455.414 B1287.86 F1000
G1 X565.851 Y-455.297 B1287.86 F1000
G1 X565.631 Y-455.181 B1287.86 F1000
G1 X565.411 Y-455.065 B1287.86 F1000
G1 X565.191 Y-454.949 B1287.86 F1000
G1 X564.971 Y-454.832 B1287.86 F1000
G1 X564.745 Y-454.716 B1287.17 F1000
G1 X564.518 Y-454.600 B1287.15 F1000
G1 X564.291 Y-454.483 B1287.15 F1000
G1 X564.064 Y-454.367 B1287.15 F1000
G1 X563.837 Y-454.251 B1287.15 F1000
G1 X563.604 Y-454.134 B1286.49 F1000
G1 X563.360 Y-454.018 B1285.52 F1000
G1 X563.106 Y-453.902 B1284.57 F1000
G1 X562.852 Y-453.786 B1284.57 F1000
G1 X562.597 Y-453.669 B1284.57 F1000
G1 X562.347 Y-453.553 B1284.95 F1000
G1 X562.109 Y-453.437 B1286.05 F1000
G1 X561.863 Y-453.320 B1285.25 F1000
G1 X561.616 Y-453.204 B1285.25 F1000
G1 X561.370 Y-453.088 B1285.25 F1000
G1 X561.115 Y-452.971 B1284.54 F1000
G1 X560.850 Y-452.855 B1283.74 F1000
G1 X560.584 Y-452.739 B1283.57 F1000
G1 X560.343 Y-452.622 B1285.75 F1000
G1 X560.118 Y-452.506 B1287.40 F1000
G1 X559.899 Y-452.390 B1287.89 F1000
G1 X559.684 Y-452.274 B1288.42 F1000
G1 X559.464 Y-452.157 B1287.89 F1000
G1 X559.228 Y-452.041 B1286.25 F1000
G1 X558.947 Y-451.925 B1282.46 F1000
G1 X558.571 Y-451.808 B1277.21 F1000
G1 X558.061 Y-451.692 B1272.84 F1000
G1 X557.618 Y-451.576 B1274.71 F1000
G1 X557.253 Y-451.459 B1277.68 F1000
G1 X556.933 Y-451.343 B1279.93 F1000
G1 X556.577 Y-451.227 B1278.10 F1000
G1 X556.221 Y-451.111 B1278.10 F1000
G1 X555.864 Y-450.994 B1278.05 F1000
G1 X555.481 Y-450.878 B1276.88 F1000
G1 X555.019 Y-450.762 B1274.13 F1000
G1 X554.540 Y-450.645 B1273.64 F1000
G1 X554.086 Y-450.529 B1274.38 F1000
G1 X553.636 Y-450.413 B1274.49 F1000
G1 X553.186 Y-450.296 B1274.49 F1000
G1 X552.694 Y-450.180 B1273.31 F1000
G1 X552.017 Y-450.064 B1269.74 F1000
G1 X551.352 Y-449.947 B1269.92 F1000
G1 X551.000 Y-449.878 B1271.21 F1000
G1 Z10.000 F500
G1 B1350.00 F1000
G1 Z0.000 F500
G1 X551.000 Y-445.938 B1350.00 F1000
G1 Z10.000 F500
G1 B1440.00 F1000
G1 Z0.000 F500
G1 X579.478 Y-445.938 B1440.00 F1000
G1 Z10.000 F500
G1 B1350.00 F1000
G1 Z0.000 F500
G1 X579.478 Y-442.788 B1350.00 F1000
G1 Z10.000 F500
G1 B1260.00 F1000
G1 Z0.000 F500
G1 X551.000 Y-442.788 B1260.00 F1000
G1 Z10.000 F500
G1 B1350.00 F1000
G1 Z0.000 F500
G1 X551.000 Y-434.363 B1350.00 F1000
G1 Z10.000 F500
G1 B1440.00 F1000
G1 Z0.000 F500
G1 X607.956 Y-434.363 B1440.00 F1000
G1 Z10.000 F500
G1 A768.746 F200 (ADVANCE MATERIAL)
G1 Z10.000 F500
G0 X559.956 Y-568.746
G1 Z10.000 F500
G1 B1530.00 F1000
G1 Z0.000 F500
G1 X559.956 Y-577.171 B1530.00 F1000
G1 Z10.000 F500
G1 B1620.00 F1000
G1 Z0.000 F500
G1 X531.478 Y-577.171 B1620.00 F1000
G1 Z10.000 F500
G1 B1530.00 F1000
G1 Z0.000 F500
G1 X531.478 Y-580.321 B1530.00 F1000
G1 Z10.000 F500
G1 B1440.00 F1000
G1 Z0.000 F500
G1 X559.956 Y-580.321 B1440.00 F1000
G1 Z10.000 F500
G1 B1530.00 F1000
G1 Z0.000 F500
G1 X559.956 Y-583.060 B1530.00 F1000
G1 Z10.000 F500
G1 B1615.15 F1000
G1 Z0.000 F500
G1 X559.013 Y-583.140 B1615.15 F1000
G1 X557.075 Y-583.379 B1612.94 F1000
G1 X555.697 Y-583.619 B1610.13 F1000
G1 X554.335 Y-583.859 B1610.01 F1000
G1 X553.332 Y-584.099 B1606.54 F1000
G1 X552.403 Y-584.339 B1605.54 F1000
G1 X551.469 Y-584.579 B1605.60 F1000
G1 X550.506 Y-584.819 B1606.01 F1000
G1 X549.770 Y-585.059 B1601.94 F1000
G1 X549.209 Y-585.299 B1596.84 F1000
G1 X548.730 Y-585.538 B1593.41 F1000
G1 X548.269 Y-585.778 B1592.51 F1000
G1 X547.875 Y-586.018 B1588.64 F1000
G1 X547.518 Y-586.258 B1586.09 F1000
G1 X547.199 Y-586.498 B1583.06 F1000
G1 X546.905 Y-586.738 B1580.87 F1000
G1 X546.635 Y-586.978 B1578.35 F1000
G1 X546.376 Y-587.218 B1577.13 F1000
G1 X546.119 Y-587.458 B1577.00 F1000
G1 X545.862 Y-587.697 B1577.00 F1000
G1 X545.611 Y-587.937 B1576.26 F1000
G1 X545.367 Y-588.177 B1575.53 F1000
G1 X545.122 Y-588.417 B1575.53 F1000
G1 X544.878 Y-588.657 B1575.53 F1000
G1 X544.634 Y-588.897 B1575.53 F1000
G1 X544.389 Y-589.137 B1575.53 F1000
G1 X544.138 Y-589.377 B1576.32 F1000
G1 X543.883 Y-589.617 B1576.72 F1000
G1 X543.629 Y-589.856 B1576.72 F1000
G1 X543.397 Y-590.096 B1573.97 F1000
G1 X543.173 Y-590.336 B1573.08 F1000
G1 X542.941 Y-590.576 B1574.05 F1000
G1 X542.702 Y-590.816 B1574.92 F1000
G1 X542.463 Y-591.056 B1574.92 F1000
G1 X542.246 Y-591.296 B1572.09 F1000
G1 X542.045 Y-591.536 B1569.98 F1000
G1 X541.844 Y-591.776 B1569.98 F1000
G1 X541.611 Y-592.015 B1574.17 F1000
G1 X541.370 Y-592.255 B1575.11 F1000
G1 X541.153 Y-592.495 B1572.14 F1000
G1 X540.948 Y-592.735 B1570.50 F1000
G1 X540.726 Y-592.975 B1572.78 F1000
G1 X540.504 Y-593.215 B1572.83 F1000
G1 X540.281 Y-593.455 B1572.83 F1000
G1 X540.090 Y-593.695 B1568.62 F1000
G1 X539.910 Y-593.934 B1566.88 F1000
G1 X539.730 Y-594.174 B1566.88 F1000
G1 X539.538 Y-594.414 B1568.56 F1000
G1 X539.337 Y-594.654 B1569.95 F1000
G1 X539.136 Y-594.894 B1569.95 F1000
G1 X538.955 Y-595.134 B1567.06 F1000
G1 X538.775 Y-595.374 B1566.88 F1000
G1 X538.595 Y-595.614 B1566.88 F1000
G1 X538.415 Y-595.854 B1566.88 F1000
G1 X538.235 Y-596.093 B1566.88 F1000
G1 X538.055 Y-596.333 B1566.88 F1000
G1 X537.874 Y-596.573 B1567.07 F1000
G1 X537.695 Y-596.813 B1566.75 F1000
G1 X537.531 Y-597.053 B1564.40 F1000
G1 X537.353 Y-597.293 B1566.57 F1000
G1 X537.175 Y-597.533 B1566.57 F1000
G1 X537.010 Y-597.773 B1564.55 F1000
G1 X536.863 Y-598.013 B1561.34 F1000
G1 X536.718 Y-598.252 B1561.21 F1000
G1 X536.573 Y-598.492 B1561.14 F1000
G1 X536.429 Y-598.732 B1561.05 F1000
G1 X536.311 Y-598.972 B1556.14 F1000
G1 X536.193 Y-599.212 B1556.14 F1000
G1 X536.076 Y-599.452 B1556.14 F1000
G1 X535.955 Y-599.692 B1556.74 F1000
G1 X535.828 Y-599.932 B1557.83 F1000
G1 X535.713 Y-600.172 B1555.69 F1000
G1 X535.597 Y-600.411 B1555.69 F1000
G1 X535.482 Y-600.651 B1555.69 F1000
G1 X535.369 Y-600.891 B1555.29 F1000
G1 X535.265 Y-601.131 B1553.31 F1000
G1 X535.162 Y-601.371 B1553.31 F1000
G1 X535.058 Y-601.611 B1553.31 F1000
G1 X534.956 Y-601.851 B1553.12 F1000
G1 X534.855 Y-602.091 B1552.74 F1000
G1 X534.764 Y-602.331 B1550.95 F1000
G1 X534.680 Y-602.570 B1549.18 F1000
G1 X534.597 Y-602.810 B1549.18 F1000
G1 X534.506 Y-603.050 B1550.82 F1000
G1 X534.410 Y-603.290 B1551.77 F1000
G1 X534.318 Y-603.530 B1550.95 F1000
G1 X534.226 Y-603.770 B1550.86 F1000
G1 X534.140 Y-604.010 B1549.79 F1000
G1 X534.054 Y-604.250 B1549.79 F1000
G1 X533.968 Y-604.489 B1549.79 F1000
G1 X533.880 Y-604.729 B1550.00 F1000
G1 X533.792 Y-604.969 B1550.10 F1000
G1 X533.714 Y-605.209 B1548.09 F1000
G1 X533.636 Y-605.449 B1547.93 F1000
G1 X533.559 Y-605.689 B1547.93 F1000
G1 X533.475 Y-605.929 B1549.17 F1000
G1 X533.389 Y-606.169 B1549.86 F1000
G1 X533.303 Y-606.409 B1549.64 F1000
G1 X533.220 Y-606.648 B1549.01 F1000
G1 X533.135 Y-606.888 B1549.62 F1000
G1 X533.047 Y-607.128 B1550.04 F1000
G1 X532.957 Y-607.368 B1550.69 F1000
G1 X532.859 Y-607.608 B1552.25 F1000
G1 X532.762 Y-607.848 B1551.92 F1000
G1 X532.663 Y-608.088 B1552.41 F1000
G1 X532.565 Y-608.328 B1552.31 F1000
G1 X532.467 Y-608.568 B1552.28 F1000
G1 X532.368 Y-608.807 B1552.32 F1000
G1 X532.269 Y-609.047 B1552.46 F1000
G1 X532.165 Y-609.287 B1553.35 F1000
G1 X532.062 Y-609.527 B1553.35 F1000
G1 X531.958 Y-609.767 B1553.36 F1000
G1 X531.856 Y-610.007 B1553.09 F1000
G1 X531.757 Y-610.247 B1552.36 F1000
G1 X531.659 Y-610.487 B1552.22 F1000
G1 X531.561 Y-610.727 B1552.19 F1000
G1 X531.469 Y-610.966 B1551.00 F1000
G1 X531.379 Y-611.206 B1550.54 F1000
G1 X531.293 Y-611.446 B1549.86 F1000
G1 X531.212 Y-611.686 B1548.61 F1000
G1 X531.140 Y-611.926 B1546.70 F1000
G1 X531.082 Y-612.166 B1543.64 F1000
G1 X531.059 Y-612.406 B1535.36 F1000
G1 X531.087 Y-612.646 B1523.50 F1000
G1 X531.160 Y-612.886 B1513.02 F1000
G1 X531.206 Y-613.125 B1519.14 F1000
G1 X531.195 Y-613.365 B1532.61 F1000
G1 X531.162 Y-613.605 B1537.88 F1000
G1 X531.116 Y-613.845 B1540.72 F1000
G1 X531.062 Y-614.085 B1542.66 F1000
G1 X531.061 Y-614.092 B1542.78 F1000
G1 Z10.000 F500
G1 B1620.00 F1000
G1 Z0.000 F500
G1 X516.841 Y-614.092 B1620.00 F1000
G1 Z10.000 F500
G1 B1530.00 F1000
G1 Z0.000 F500
G1 X516.841 Y-617.242 B1530.00 F1000
G1 Z10.000 F500
G1 B1440.00 F1000
G1 Z0.000 F500
G1 X530.310 Y-617.242 B1440.00 F1000
G1 Z10.000 F500
G1 B1541.55 F1000
G1 Z0.000 F500
G1 X530.269 Y-617.443 B1541.55 F1000
G1 X530.223 Y-617.683 B1540.85 F1000
G1 X530.177 Y-617.923 B1540.85 F1000
G1 X530.131 Y-618.163 B1540.85 F1000
G1 X530.080 Y-618.403 B1541.98 F1000
G1 X530.032 Y-618.643 B1541.44 F1000
G1 X529.984 Y-618.883 B1541.29 F1000
G1 X529.936 Y-619.123 B1541.29 F1000
G1 X529.888 Y-619.362 B1541.29 F1000
G1 X529.840 Y-619.602 B1541.29 F1000
G1 X529.792 Y-619.842 B1541.29 F1000
G1 X529.745 Y-620.082 B1541.29 F1000
G1 X529.697 Y-620.322 B1541.29 F1000
G1 X529.649 Y-620.562 B1541.29 F1000
G1 X529.601 Y-620.802 B1541.29 F1000
G1 X529.553 Y-621.042 B1541.29 F1000
G1 X529.505 Y-621.282 B1541.29 F1000
G1 X529.465 Y-621.521 B1539.51 F1000
G1 X529.425 Y-621.761 B1539.42 F1000
G1 X529.385 Y-622.001 B1539.42 F1000
G1 X529.346 Y-622.241 B1539.42 F1000
G1 X529.306 Y-622.481 B1539.42 F1000
G1 X529.266 Y-622.721 B1539.42 F1000
G1 X529.225 Y-622.961 B1539.76 F1000
G1 X529.180 Y-623.201 B1540.48 F1000
G1 X529.136 Y-623.441 B1540.48 F1000
G1 X529.092 Y-623.680 B1540.48 F1000
G1 X529.047 Y-623.920 B1540.48 F1000
G1 X529.008 Y-624.160 B1539.35 F1000
G1 X528.974 Y-624.400 B1538.09 F1000
G1 X528.940 Y-624.640 B1538.09 F1000
G1 X528.905 Y-624.880 B1538.09 F1000
G1 X528.871 Y-625.120 B1538.09 F1000
G1 X528.837 Y-625.360 B1538.09 F1000
G1 X528.803 Y-625.599 B1538.09 F1000
G1 X528.769 Y-625.839 B1538.09 F1000
G1 X528.735 Y-626.079 B1538.09 F1000
G1 X528.701 Y-626.319 B1538.09 F1000
G1 X528.667 Y-626.559 B1538.09 F1000
G1 X528.633 Y-626.799 B1538.09 F1000
G1 X528.599 Y-627.039 B1538.09 F1000
G1 X528.564 Y-627.279 B1538.09 F1000
G1 X528.530 Y-627.519 B1538.09 F1000
G1 X528.496 Y-627.758 B1538.09 F1000
G1 X528.462 Y-627.998 B1538.10 F1000
G1 X528.428 Y-628.238 B1538.10 F1000
G1 X528.394 Y-628.478 B1538.10 F1000
G1 X528.360 Y-628.718 B1538.10 F1000
G1 X528.326 Y-628.958 B1538.10 F1000
G1 X528.291 Y-629.198 B1538.10 F1000
G1 X528.257 Y-629.438 B1538.10 F1000
G1 X528.223 Y-629.678 B1538.10 F1000
G1 X528.189 Y-629.917 B1538.04 F1000
G1 X528.163 Y-630.157 B1536.28 F1000
G1 X528.136 Y-630.397 B1536.28 F1000
G1 X528.110 Y-630.637 B1536.37 F1000
G1 X528.083 Y-630.877 B1536.44 F1000
G1 X528.056 Y-631.117 B1536.44 F1000
G1 X528.028 Y-631.357 B1536.44 F1000
G1 X528.001 Y-631.597 B1536.44 F1000
G1 X527.974 Y-631.837 B1536.44 F1000
G1 X527.947 Y-632.076 B1536.44 F1000
G1 X527.920 Y-632.316 B1536.44 F1000
G1 X527.893 Y-632.556 B1536.44 F1000
G1 X527.866 Y-632.796 B1536.44 F1000
G1 X527.844 Y-633.036 B1535.23 F1000
G1 X527.822 Y-633.276 B1535.24 F1000
G1 X527.800 Y-633.516 B1535.26 F1000
G1 X527.778 Y-633.756 B1535.26 F1000
G1 X527.756 Y-633.996 B1535.26 F1000
G1 X527.734 Y-634.235 B1535.26 F1000
G1 X527.712 Y-634.475 B1535.26 F1000
G1 X527.690 Y-634.715 B1535.26 F1000
G1 X527.668 Y-634.955 B1535.26 F1000
G1 X527.646 Y-635.195 B1535.26 F1000
G1 X527.625 Y-635.435 B1534.89 F1000
G1 X527.607 Y-635.675 B1534.40 F1000
G1 X527.589 Y-635.915 B1534.18 F1000
G1 X527.574 Y-636.154 B1533.71 F1000
G1 X527.558 Y-636.394 B1533.71 F1000
G1 X527.542 Y-636.634 B1533.71 F1000
G1 X527.527 Y-636.874 B1533.71 F1000
G1 X527.511 Y-637.114 B1533.71 F1000
G1 X527.496 Y-637.354 B1533.71 F1000
G1 X527.480 Y-637.594 B1533.71 F1000
G1 X527.464 Y-637.834 B1533.80 F1000
G1 X527.444 Y-638.074 B1534.91 F1000
G1 X527.421 Y-638.313 B1535.38 F1000
G1 X527.395 Y-638.553 B1536.23 F1000
G1 X527.373 Y-638.793 B1535.33 F1000
G1 X527.345 Y-639.033 B1536.68 F1000
G1 X527.314 Y-639.273 B1537.30 F1000
G1 X527.280 Y-639.513 B1538.08 F1000
G1 X527.243 Y-639.753 B1538.72 F1000
G1 X527.206 Y-639.993 B1538.75 F1000
G1 X527.172 Y-640.233 B1538.05 F1000
G1 X527.140 Y-640.472 B1537.52 F1000
G1 X527.114 Y-640.712 B1536.31 F1000
G1 X527.092 Y-640.952 B1535.28 F1000
G1 X527.082 Y-641.192 B1532.32 F1000
G1 X527.098 Y-641.432 B1526.18 F1000
G1 X527.126 Y-641.672 B1523.40 F1000
G1 X527.171 Y-641.912 B1519.42 F1000
G1 X527.198 Y-642.152 B1523.52 F1000
G1 X527.224 Y-642.392 B1523.71 F1000
G1 X527.235 Y-642.631 B1527.52 F1000
G1 X527.228 Y-642.871 B1531.67 F1000
G1 X527.226 Y-643.111 B1530.40 F1000
G1 X527.221 Y-643.351 B1531.12 F1000
G1 X527.212 Y-643.591 B1532.34 F1000
G1 X527.202 Y-643.831 B1532.34 F1000
G1 X527.197 Y-644.071 B1531.10 F1000
G1 X527.194 Y-644.311 B1530.63 F1000
G1 X527.190 Y-644.550 B1531.12 F1000
G1 X527.185 Y-644.790 B1531.22 F1000
G1 X527.180 Y-645.030 B1531.22 F1000
G1 X527.174 Y-645.270 B1531.22 F1000
G1 X527.169 Y-645.510 B1531.22 F1000
G1 X527.164 Y-645.750 B1531.22 F1000
G1 X527.159 Y-645.990 B1531.22 F1000
G1 X527.158 Y-646.230 B1530.28 F1000
G1 X527.163 Y-646.470 B1528.72 F1000
G1 X527.169 Y-646.709 B1528.72 F1000
G1 X527.174 Y-646.949 B1528.72 F1000
G1 X527.179 Y-647.189 B1528.72 F1000
G1 X527.185 Y-647.429 B1528.72 F1000
G1 X527.190 Y-647.669 B1528.66 F1000
G1 X527.202 Y-647.909 B1527.29 F1000
G1 X527.213 Y-648.149 B1527.29 F1000
G1 X527.225 Y-648.389 B1527.29 F1000
G1 X527.236 Y-648.629 B1527.29 F1000
G1 X527.247 Y-648.868 B1527.29 F1000
G1 X527.259 Y-649.108 B1527.29 F1000
G1 X527.270 Y-649.348 B1527.29 F1000
G1 X527.281 Y-649.588 B1527.29 F1000
G1 X527.293 Y-649.828 B1527.29 F1000
G1 X527.304 Y-650.068 B1527.29 F1000
G1 X527.315 Y-650.308 B1527.29 F1000
G1 X527.326 Y-650.548 B1527.39 F1000
G1 X527.343 Y-650.788 B1525.99 F1000
G1 X527.357 Y-651.012 B1526.49 F1000
G1 Z10.000 F500
G1 B1620.00 F1000
G1 Z0.000 F500
G1 X515.229 Y-651.012 B1620.00 F1000
G1 Z10.000 F500
G1 B1530.00 F1000
G1 Z0.000 F500
G1 X515.229 Y-654.162 B1530.00 F1000
G1 Z10.000 F500
G1 B1440.00 F1000
G1 Z0.000 F500
G1 X527.635 Y-654.162 B1440.00 F1000
G1 Z10.000 F500
G1 B1523.34 F1000
G1 Z0.000 F500
G1 X527.661 Y-654.386 B1523.34 F1000
G1 X527.681 Y-654.626 B1525.24 F1000
G1 X527.708 Y-654.866 B1523.61 F1000
G1 X527.729 Y-655.105 B1524.91 F1000
G1 X527.756 Y-655.345 B1523.71 F1000
G1 X527.786 Y-655.585 B1522.81 F1000
G1 X527.830 Y-655.825 B1519.56 F1000
G1 X527.882 Y-656.065 B1517.70 F1000
G1 X527.935 Y-656.305 B1517.70 F1000
G1 X527.984 Y-656.545 B1518.32 F1000
G1 X528.034 Y-656.785 B1518.33 F1000
G1 X528.066 Y-657.025 B1522.29 F1000
G1 X528.100 Y-657.264 B1521.99 F1000
G1 X528.139 Y-657.504 B1520.86 F1000
G1 X528.177 Y-657.744 B1520.86 F1000
G1 X528.229 Y-657.984 B1517.79 F1000
G1 X528.284 Y-658.224 B1517.03 F1000
G1 X528.340 Y-658.464 B1517.03 F1000
G1 X528.395 Y-658.704 B1517.03 F1000
G1 X528.450 Y-658.944 B1517.03 F1000
G1 X528.505 Y-659.184 B1517.03 F1000
G1 X528.558 Y-659.423 B1517.52 F1000
G1 X528.616 Y-659.663 B1516.57 F1000
G1 X528.681 Y-659.903 B1514.76 F1000
G1 X528.734 Y-660.143 B1517.61 F1000
G1 X528.787 Y-660.383 B1517.61 F1000
G1 X528.839 Y-660.623 B1517.61 F1000
G1 X528.892 Y-660.863 B1517.61 F1000
G1 X528.945 Y-661.103 B1517.61 F1000
G1 X529.001 Y-661.343 B1516.74 F1000
G1 X529.074 Y-661.582 B1513.21 F1000
G1 X529.146 Y-661.822 B1513.21 F1000
G1 X529.218 Y-662.062 B1513.21 F1000
G1 X529.291 Y-662.302 B1513.21 F1000
G1 X529.363 Y-662.542 B1513.21 F1000
G1 X529.435 Y-662.782 B1513.37 F1000
G1 X529.514 Y-663.022 B1511.77 F1000
G1 X529.583 Y-663.262 B1513.94 F1000
G1 X529.650 Y-663.502 B1514.35 F1000
G1 X529.713 Y-663.741 B1515.17 F1000
G1 X529.784 Y-663.981 B1513.69 F1000
G1 X529.851 Y-664.221 B1514.32 F1000
G1 X529.918 Y-664.461 B1514.31 F1000
G1 X529.986 Y-664.701 B1514.22 F1000
G1 X530.054 Y-664.941 B1514.22 F1000
G1 X530.122 Y-665.181 B1514.22 F1000
G1 X530.190 Y-665.421 B1514.22 F1000
G1 X530.257 Y-665.660 B1514.22 F1000
G1 X530.325 Y-665.900 B1514.22 F1000
G1 X530.391 Y-666.140 B1514.56 F1000
G1 X530.458 Y-666.380 B1514.47 F1000
G1 X530.525 Y-666.620 B1514.47 F1000
G1 X530.591 Y-666.860 B1514.47 F1000
G1 X530.658 Y-667.100 B1514.47 F1000
G1 X530.725 Y-667.340 B1514.47 F1000
G1 X530.791 Y-667.580 B1514.47 F1000
G1 X530.855 Y-667.819 B1515.06 F1000
G1 X530.916 Y-668.059 B1515.70 F1000
G1 X530.978 Y-668.299 B1515.70 F1000
G1 X531.039 Y-668.539 B1515.70 F1000
G1 X531.100 Y-668.779 B1515.70 F1000
G1 X531.161 Y-669.019 B1515.70 F1000
G1 X531.220 Y-669.259 B1516.20 F1000
G1 X531.274 Y-669.499 B1517.29 F1000
G1 X531.319 Y-669.739 B1519.45 F1000
G1 X531.373 Y-669.978 B1517.32 F1000
G1 X531.430 Y-670.218 B1516.69 F1000
G1 X531.486 Y-670.458 B1516.69 F1000
G1 X531.543 Y-670.698 B1516.69 F1000
G1 X531.600 Y-670.938 B1516.69 F1000
G1 X531.657 Y-671.178 B1516.69 F1000
G1 X531.713 Y-671.418 B1516.69 F1000
G1 X531.770 Y-671.658 B1516.69 F1000
G1 X531.827 Y-671.898 B1516.69 F1000
G1 X531.883 Y-672.137 B1516.80 F1000
G1 X531.938 Y-672.377 B1517.02 F1000
G1 X531.994 Y-672.617 B1517.02 F1000
G1 X532.049 Y-672.857 B1517.02 F1000
G1 X532.104 Y-673.097 B1517.02 F1000
G1 X532.156 Y-673.337 B1517.74 F1000
G1 X532.206 Y-673.577 B1518.31 F1000
G1 X532.267 Y-673.817 B1515.64 F1000
G1 X532.320 Y-674.057 B1517.68 F1000
G1 X532.408 Y-674.296 B1509.87 F1000
G1 X532.516 Y-674.536 B1505.65 F1000
G1 X532.650 Y-674.776 B1500.94 F1000
G1 X532.809 Y-675.016 B1496.39 F1000
G1 X533.003 Y-675.256 B1490.99 F1000
G1 X533.220 Y-675.496 B1487.92 F1000
G1 X533.447 Y-675.736 B1486.60 F1000
G1 X533.679 Y-675.976 B1485.95 F1000
G1 X533.907 Y-676.215 B1486.45 F1000
G1 X534.136 Y-676.455 B1486.25 F1000
G1 X534.368 Y-676.695 B1486.04 F1000
G1 X534.598 Y-676.935 B1486.22 F1000
G1 X534.825 Y-677.175 B1486.59 F1000
G1 X535.052 Y-677.415 B1486.59 F1000
G1 X535.278 Y-677.655 B1486.59 F1000
G1 X535.502 Y-677.895 B1486.99 F1000
G1 X535.723 Y-678.135 B1487.37 F1000
G1 X535.944 Y-678.374 B1487.37 F1000
G1 X536.165 Y-678.614 B1487.37 F1000
G1 X536.385 Y-678.854 B1487.37 F1000
G1 X536.606 Y-679.094 B1487.37 F1000
G1 X536.827 Y-679.334 B1487.37 F1000
G1 X537.048 Y-679.574 B1487.37 F1000
G1 X537.269 Y-679.814 B1487.37 F1000
G1 X537.486 Y-680.054 B1487.85 F1000
G1 X537.697 Y-680.294 B1488.65 F1000
G1 X537.908 Y-680.533 B1488.65 F1000
G1 X538.119 Y-680.773 B1488.65 F1000
G1 X538.330 Y-681.013 B1488.65 F1000
G1 X538.541 Y-681.253 B1488.65 F1000
G1 X538.752 Y-681.493 B1488.65 F1000
G1 X538.964 Y-681.733 B1488.65 F1000
G1 X539.175 Y-681.973 B1488.65 F1000
G1 X539.386 Y-682.213 B1488.65 F1000
G1 X539.597 Y-682.453 B1488.65 F1000
G1 X539.808 Y-682.692 B1488.65 F1000
G1 X540.019 Y-682.932 B1488.65 F1000
G1 X540.230 Y-683.172 B1488.65 F1000
G1 X540.428 Y-683.412 B1490.51 F1000
G1 X540.616 Y-683.652 B1491.84 F1000
G1 X540.805 Y-683.892 B1491.84 F1000
G1 X540.993 Y-684.132 B1491.84 F1000
G1 X541.182 Y-684.372 B1491.84 F1000
G1 X541.370 Y-684.612 B1491.84 F1000
G1 X541.559 Y-684.851 B1491.84 F1000
G1 X541.747 Y-685.091 B1491.84 F1000
G1 X541.936 Y-685.331 B1491.84 F1000
G1 X542.131 Y-685.571 B1490.85 F1000
G1 X542.330 Y-685.811 B1490.36 F1000
G1 X542.528 Y-686.051 B1490.36 F1000
G1 X542.727 Y-686.291 B1490.36 F1000
G1 X542.926 Y-686.531 B1490.36 F1000
G1 X543.100 Y-686.770 B1494.11 F1000
G1 X543.269 Y-687.010 B1494.79 F1000
G1 X543.438 Y-687.250 B1494.79 F1000
G1 X543.607 Y-687.490 B1494.79 F1000
G1 X543.777 Y-687.730 B1494.79 F1000
G1 X543.919 Y-687.932 B1494.79 F1000
G1 Z10.000 F500
G1 B1620.00 F1000
G1 Z0.000 F500
G1 X523.963 Y-687.932 B1620.00 F1000
G1 Z10.000 F500
G1 B1530.00 F1000
G1 Z0.000 F500
G1 X523.963 Y-691.082 B1530.00 F1000
G1 Z10.000 F500
G1 B1440.00 F1000
G1 Z0.000 F500
G1 X545.793 Y-691.082 B1440.00 F1000
G1 Z10.000 F500
G1 B1502.06 F1000
G1 Z0.000 F500
G1 X545.796 Y-691.088 B1502.06 F1000
G1 X545.923 Y-691.328 B1502.06 F1000
G1 X546.033 Y-691.568 B1505.38 F1000
G1 X546.132 Y-691.808 B1507.69 F1000
G1 X546.239 Y-692.048 B1505.90 F1000
G1 X546.346 Y-692.288 B1505.90 F1000
G1 X546.454 Y-692.528 B1505.90 F1000
G1 X546.561 Y-692.768 B1505.90 F1000
G1 X546.649 Y-693.008 B1509.85 F1000
G1 X546.734 Y-693.247 B1510.45 F1000
G1 X546.819 Y-693.487 B1510.45 F1000
G1 X546.905 Y-693.727 B1510.45 F1000
G1 X546.990 Y-693.967 B1510.45 F1000
G1 X547.067 Y-694.207 B1512.17 F1000
G1 X547.128 Y-694.447 B1515.77 F1000
G1 X547.189 Y-694.687 B1515.68 F1000
G1 X547.250 Y-694.927 B1515.68 F1000
G1 X547.312 Y-695.167 B1515.68 F1000
G1 X547.373 Y-695.406 B1515.68 F1000
G1 X547.430 Y-695.646 B1516.65 F1000
G1 X547.470 Y-695.886 B1520.57 F1000
G1 X547.506 Y-696.126 B1521.38 F1000
G1 X547.542 Y-696.366 B1521.38 F1000
G1 X547.579 Y-696.606 B1521.38 F1000
G1 X547.615 Y-696.846 B1521.38 F1000
G1 X547.638 Y-697.086 B1524.49 F1000
G1 X547.660 Y-697.325 B1524.77 F1000
G1 X547.682 Y-697.565 B1524.77 F1000
G1 X547.700 Y-697.805 B1525.77 F1000
G1 X547.712 Y-698.045 B1526.99 F1000
G1 X547.714 Y-698.285 B1529.55 F1000
G1 X547.705 Y-698.525 B1532.13 F1000
G1 X547.695 Y-698.765 B1532.50 F1000
G1 X547.690 Y-699.005 B1531.16 F1000
G1 X547.685 Y-699.245 B1531.16 F1000
G1 X547.680 Y-699.484 B1531.16 F1000
G1 X547.674 Y-699.724 B1531.60 F1000
G1 X547.663 Y-699.964 B1532.50 F1000
G1 X547.653 Y-700.204 B1532.50 F1000
G1 X547.642 Y-700.444 B1532.50 F1000
G1 X547.617 Y-700.684 B1536.04 F1000
G1 X547.587 Y-700.924 B1536.96 F1000
G1 X547.558 Y-701.164 B1536.96 F1000
G1 X547.529 Y-701.404 B1536.96 F1000
G1 X547.500 Y-701.643 B1536.96 F1000
G1 X547.470 Y-701.883 B1536.96 F1000
G1 X547.441 Y-702.123 B1536.96 F1000
G1 X547.412 Y-702.363 B1536.96 F1000
G1 X547.375 Y-702.603 B1538.81 F1000
G1 X547.331 Y-702.843 B1540.23 F1000
G1 X547.288 Y-703.083 B1540.23 F1000
G1 X547.245 Y-703.323 B1540.19 F1000
G1 X547.204 Y-703.563 B1539.69 F1000
G1 X547.163 Y-703.802 B1539.69 F1000
G1 X547.122 Y-704.042 B1539.69 F1000
G1 X547.081 Y-704.282 B1539.69 F1000
G1 X547.040 Y-704.522 B1539.69 F1000
G1 X546.987 Y-704.762 B1542.59 F1000
G1 X546.933 Y-705.002 B1542.60 F1000
G1 X546.879 Y-705.242 B1542.60 F1000
G1 X546.826 Y-705.482 B1542.60 F1000
G1 X546.777 Y-705.722 B1541.48 F1000
G1 X546.744 Y-705.961 B1537.88 F1000
G1 X546.711 Y-706.201 B1537.88 F1000
G1 X546.662 Y-706.441 B1541.39 F1000
G1 X546.613 Y-706.681 B1541.67 F1000
G1 X546.563 Y-706.921 B1541.67 F1000
G1 X546.516 Y-707.161 B1541.04 F1000
G1 X546.472 Y-707.401 B1540.44 F1000
G1 X546.428 Y-707.641 B1540.44 F1000
G1 X546.384 Y-707.880 B1540.44 F1000
G1 X546.339 Y-708.120 B1540.44 F1000
G1 X546.295 Y-708.360 B1540.44 F1000
G1 X546.251 Y-708.600 B1540.44 F1000
G1 X546.207 Y-708.840 B1540.44 F1000
G1 X546.179 Y-709.080 B1536.53 F1000
G1 X546.153 Y-709.320 B1536.16 F1000
G1 X546.128 Y-709.560 B1536.16 F1000
G1 X546.096 Y-709.800 B1537.59 F1000
G1 X546.062 Y-710.039 B1537.99 F1000
G1 X546.028 Y-710.279 B1537.99 F1000
G1 X545.995 Y-710.519 B1537.99 F1000
G1 X545.980 Y-710.759 B1533.55 F1000
G1 X545.968 Y-710.999 B1532.82 F1000
G1 X545.950 Y-711.239 B1534.34 F1000
G1 X545.930 Y-711.479 B1534.64 F1000
G1 X545.911 Y-711.719 B1534.64 F1000
G1 X545.891 Y-711.959 B1534.64 F1000
G1 X545.872 Y-712.198 B1534.64 F1000
G1 X545.866 Y-712.438 B1531.48 F1000
G1 X545.865 Y-712.678 B1530.13 F1000
G1 X545.863 Y-712.918 B1530.61 F1000
G1 X545.860 Y-713.158 B1530.61 F1000
G1 X545.858 Y-713.398 B1530.61 F1000
G1 X545.858 Y-713.638 B1529.78 F1000
G1 X545.860 Y-713.878 B1529.56 F1000
G1 X545.860 Y-714.118 B1530.12 F1000
G1 X545.881 Y-714.357 B1524.89 F1000
G1 X545.903 Y-714.597 B1524.89 F1000
G1 X545.924 Y-714.837 B1524.89 F1000
G1 X545.946 Y-715.077 B1524.89 F1000
G1 X545.967 Y-715.317 B1524.89 F1000
G1 X545.985 Y-715.557 B1525.78 F1000
G1 X546.000 Y-715.797 B1526.30 F1000
G1 X546.034 Y-716.037 B1522.02 F1000
G1 X546.078 Y-716.276 B1519.53 F1000
G1 X546.123 Y-716.516 B1519.53 F1000
G1 X546.167 Y-716.756 B1519.53 F1000
G1 X546.207 Y-716.996 B1520.39 F1000
G1 X546.246 Y-717.236 B1520.80 F1000
G1 X546.285 Y-717.476 B1520.80 F1000
G1 X546.333 Y-717.716 B1518.64 F1000
G1 X546.405 Y-717.956 B1513.34 F1000
G1 X546.477 Y-718.196 B1513.34 F1000
G1 X546.545 Y-718.435 B1514.22 F1000
G1 X546.612 Y-718.675 B1514.39 F1000
G1 X546.679 Y-718.915 B1514.39 F1000
G1 X546.746 Y-719.155 B1514.39 F1000
G1 X546.822 Y-719.395 B1512.29 F1000
G1 X546.927 Y-719.635 B1506.41 F1000
G1 X547.030 Y-719.875 B1506.82 F1000
G1 X547.133 Y-720.115 B1506.82 F1000
G1 X547.235 Y-720.355 B1506.82 F1000
G1 X547.338 Y-720.594 B1506.82 F1000
G1 X547.441 Y-720.834 B1506.79 F1000
G1 X547.585 Y-721.074 B1499.08 F1000
G1 X547.740 Y-721.314 B1497.09 F1000
G1 X547.895 Y-721.554 B1497.09 F1000
G1 X548.050 Y-721.794 B1497.09 F1000
G1 X548.205 Y-722.034 B1497.09 F1000
G1 X548.379 Y-722.274 B1494.18 F1000
G1 X548.614 Y-722.514 B1485.59 F1000
G1 X548.847 Y-722.753 B1485.78 F1000
G1 X549.076 Y-722.993 B1486.31 F1000
G1 X549.305 Y-723.233 B1486.31 F1000
G1 X549.602 Y-723.473 B1478.98 F1000
G1 X549.954 Y-723.713 B1474.27 F1000
G1 X550.301 Y-723.953 B1474.68 F1000
G1 X550.710 Y-724.193 B1470.35 F1000
G1 X551.287 Y-724.433 B1462.57 F1000
G1 X551.912 Y-724.673 B1461.00 F1000
G1 X552.801 Y-724.852 B1451.41 F1000
G1 Z10.000 F500
G1 B1620.00 F1000
G1 Z0.000 F500
G1 X531.478 Y-724.852 B1620.00 F1000
G1 Z10.000 F500
G1 B1530.00 F1000
G1 Z0.000 F500
G1 X531.478 Y-728.002 B1530.00 F1000
G1 Z10.000 F500
G1 B1440.00 F1000
G1 Z0.000 F500
G1 X559.956 Y-728.002 B1440.00 F1000
G1 Z10.000 F500
G1 B1530.00 F1000
G1 Z0.000 F500
G1 X559.956 Y-736.427 B1530.00 F1000
G1 Z10.000 F500
G1 B1620.00 F1000
G1 Z0.000 F500
G1 X503.000 Y-736.427 B1620.00 F1000
G1 Z10.000 F500
G1 B1710.00 F1000
G1 Z0.000 F500
G1 X503.000 Y-568.746 B1710.00 F1000
G1 Z10.000 F500
G1 B1800.00 F1000
G1 Z0.000 F500
G1 X559.956 Y-568.746 B1800.00 F1000
G1 Z10.000 F500
G1 Z10.000 F500
G0 X601.956 Y-599.130
G1 Z10.000 F500
G1 B1890.00 F1000
G1 Z0.000 F500
G1 X601.956 Y-607.555 B1890.00 F1000
G1 Z10.000 F500
G1 B1980.00 F1000
G1 Z0.000 F500
G1 X572.478 Y-607.555 B1980.00 F1000
G1 Z10.000 F500
G1 B1890.00 F1000
G1 Z0.000 F500
G1 X572.478 Y-610.705 B1890.00 F1000
G1 Z10.000 F500
G1 B1800.00 F1000
G1 Z0.000 F500
G1 X601.956 Y-610.705 B1800.00 F1000
G1 Z10.000 F500
G1 B1890.00 F1000
G1 Z0.000 F500
G1 X601.956 Y-622.879 B1890.00 F1000
G1 Z10.000 F500
G1 B1980.00 F1000
G1 Z0.000 F500
G1 X572.478 Y-622.879 B1980.00 F1000
G1 Z10.000 F500
G1 B1890.00 F1000
G1 Z0.000 F500
G1 X572.478 Y-626.029 B1890.00 F1000
G1 Z10.000 F500
G1 B1800.00 F1000
G1 Z0.000 F500
G1 X601.956 Y-626.029 B1800.00 F1000
G1 Z10.000 F500
G1 B1890.00 F1000
G1 Z0.000 F500
G1 X601.956 Y-638.204 B1890.00 F1000
G1 Z10.000 F500
G1 B1980.00 F1000
G1 Z0.000 F500
G1 X572.478 Y-638.204 B1980.00 F1000
G1 Z10.000 F500
G1 B1890.00 F1000
G1 Z0.000 F500
G1 X572.478 Y-641.354 B1890.00 F1000
G1 Z10.000 F500
G1 B1800.00 F1000
G1 Z0.000 F500
G1 X601.956 Y-641.354 B1800.00 F1000
G1 Z10.000 F500
G1 B1890.00 F1000
G1 Z0.000 F500
G1 X601.956 Y-653.528 B1890.00 F1000
G1 Z10.000 F500
G1 B1980.00 F1000
G1 Z0.000 F500
G1 X572.478 Y-653.528 B1980.00 F1000
G1 Z10.000 F500
G1 B1890.00 F1000
G1 Z0.000 F500
G1 X572.478 Y-656.678 B1890.00 F1000
G1 Z10.000 F500
G1 B1800.00 F1000
G1 Z0.000 F500
G1 X601.956 Y-656.678 B1800.00 F1000
G1 Z10.000 F500
G1 B1890.00 F1000
G1 Z0.000 F500
G1 X601.956 Y-668.852 B1890.00 F1000
G1 Z10.000 F500
G1 B1980.00 F1000
G1 Z0.000 F500
G1 X572.478 Y-668.852 B1980.00 F1000
G1 Z10.000 F500
G1 B1890.00 F1000
G1 Z0.000 F500
G1 X572.478 Y-672.002 B1890.00 F1000
G1 Z10.000 F500
G1 B1800.00 F1000
G1 Z0.000 F500
G1 X601.956 Y-672.002 B1800.00 F1000
G1 Z10.000 F500
G1 B1890.00 F1000
G1 Z0.000 F500
G1 X601.956 Y-680.427 B1890.00 F1000
G1 Z10.000 F500
G1 B1980.00 F1000
G1 Z0.000 F500
G1 X543.000 Y-680.427 B1980.00 F1000
G1 Z10.000 F500
G1 B2070.00 F1000
G1 Z0.000 F500
G1 X543.000 Y-599.130 B2070.00 F1000
G1 Z10.000 F500
G1 B2160.00 F1000
G1 Z0.000 F500
G1 X601.956 Y-599.130 B2160.00 F1000
G1 Z10.000 F500
G1 A777.066 F200 (ADVANCE MATERIAL)
G1 A858.363 F200 (ADVANCE MATERIAL)
G1 Z10.000 F500
G0 X617.956 Y-658.363
G1 Z10.000 F500
G1 B2250.00 F1000
G1 Z0.000 F500
G1 X617.956 Y-739.659 B2250.00 F1000
G1 Z10.000 F500
G1 B2340.00 F1000
G1 Z0.000 F500
G1 X559.000 Y-739.659 B2340.00 F1000
G1 Z10.000 F500
G1 B2430.00 F1000
G1 Z0.000 F500
G1 X559.000 Y-731.234 B2430.00 F1000
G1 Z10.000 F500
G1 B2520.00 F1000
G1 Z0.000 F500
G1 X588.478 Y-731.234 B2520.00 F1000
G1 Z10.000 F500
G1 B2430.00 F1000
G1 Z0.000 F500
G1 X588.478 Y-728.084 B2430.00 F1000
G1 Z10.000 F500
G1 B2340.00 F1000
G1 Z0.000 F500
G1 X559.000 Y-728.084 B2340.00 F1000
G1 Z10.000 F500
G1 B2430.00 F1000
G1 Z0.000 F500
G1 X559.000 Y-715.910 B2430.00 F1000
G1 Z10.000 F500
G1 B2520.00 F1000
G1 Z0.000 F500
G1 X588.478 Y-715.910 B2520.00 F1000
G1 Z10.000 F500
G1 B2430.00 F1000
G1 Z0.000 F500
G1 X588.478 Y-712.760 B2430.00 F1000
G1 Z10.000 F500
G1 B2340.00 F1000
G1 Z0.000 F500
G1 X559.000 Y-712.760 B2340.00 F1000
G1 Z10.000 F500
G1 B2430.00 F1000
G1 Z0.000 F500
G1 X559.000 Y-700.586 B2430.00 F1000
G1 Z10.000 F500
G1 B2520.00 F1000
G1 Z0.000 F500
G1 X588.478 Y-700.586 B2520.00 F1000
G1 Z10.000 F500
G1 B2430.00 F1000
G1 Z0.000 F500
G1 X588.478 Y-697.436 B2430.00 F1000
G1 Z10.000 F500
G1 B2340.00 F1000
G1 Z0.000 F500
G1 X559.000 Y-697.436 B2340.00 F1000
G1 Z10.000 F500
G1 B2430.00 F1000
G1 Z0.000 F500
G1 X559.000 Y-685.262 B2430.00 F1000
G1 Z10.000 F500
G1 B2520.00 F1000
G1 Z0.000 F500
G1 X588.478 Y-685.262 B2520.00 F1000
G1 Z10.000 F500
G1 B2430.00 F1000
G1 Z0.000 F500
G1 X588.478 Y-682.112 B2430.00 F1000
G1 Z10.000 F500
G1 B2340.00 F1000
G1 Z0.000 F500
G1 X559.000 Y-682.112 B2340.00 F1000
G1 Z10.000 F500
G1 B2430.00 F1000
G1 Z0.000 F500
G1 X559.000 Y-669.938 B2430.00 F1000
G1 Z10.000 F500
G1 B2520.00 F1000
G1 Z0.000 F500
G1 X588.478 Y-669.938 B2520.00 F1000
G1 Z10.000 F500
G1 B2430.00 F1000
G1 Z0.000 F500
G1 X588.478 Y-666.788 B2430.00 F1000
G1 Z10.000 F500
G1 B2340.00 F1000
G1 Z0.000 F500
G1 X559.000 Y-666.788 B2340.00 F1000
G1 Z10.000 F500
G1 B2430.00 F1000
G1 Z0.000 F500
G1 X559.000 Y-658.363 B2430.00 F1000
G1 Z10.000 F500
G1 B2520.00 F1000
G1 Z0.000 F500
G1 X617.956 Y-658.363 B2520.00 F1000
G1 Z10.000 F500
G1 A976.746 F200 (ADVANCE MATERIAL)
G1 Z10.000 F500
G0 X553.956 Y-776.746
G1 Z10.000 F500
G1 B2610.00 F1000
G1 Z0.000 F500
G1 X553.956 Y-785.171 B2610.00 F1000
G1 Z10.000 F500
G1 B2700.00 F1000
G1 Z0.000 F500
G1 X524.478 Y-785.171 B2700.00 F1000
G1 Z10.000 F500
G1 B2610.00 F1000
G1 Z0.000 F500
G1 X524.478 Y-788.321 B2610.00 F1000
G1 Z10.000 F500
G1 B2520.00 F1000
G1 Z0.000 F500
G1 X553.956 Y-788.321 B2520.00 F1000
G1 Z10.000 F500
G1 B2610.00 F1000
G1 Z0.000 F500
G1 X553.956 Y-822.092 B2610.00 F1000
G1 Z10.000 F500
G1 B2700.00 F1000
G1 Z0.000 F500
G1 X524.478 Y-822.092 B2700.00 F1000
G1 Z10.000 F500
G1 B2610.00 F1000
G1 Z0.000 F500
G1 X524.478 Y-825.242 B2610.00 F1000
G1 Z10.000 F500
G1 B2520.00 F1000
G1 Z0.000 F500
G1 X553.956 Y-825.242 B2520.00 F1000
G1 Z10.000 F500
G1 B2610.00 F1000
G1 Z0.000 F500
G1 X553.956 Y-859.012 B2610.00 F1000
G1 Z10.000 F500
G1 B2700.00 F1000
G1 Z0.000 F500
G1 X524.478 Y-859.012 B2700.00 F1000
G1 Z10.000 F500
G1 B2610.00 F1000
G1 Z0.000 F500
G1 X524.478 Y-862.162 B2610.00 F1000
G1 Z10.000 F500
G1 B2520.00 F1000
G1 Z0.000 F500
G1 X553.956 Y-862.162 B2520.00 F1000
G1 Z10.000 F500
G1 B2610.00 F1000
G1 Z0.000 F500
G1 X553.956 Y-895.932 B2610.00 F1000
G1 Z10.000 F500
G1 B2700.00 F1000
G1 Z0.000 F500
G1 X524.478 Y-895.932 B2700.00 F1000
G1 Z10.000 F500
G1 B2610.00 F1000
G1 Z0.000 F500
G1 X524.478 Y-899.082 B2610.00 F1000
G1 Z10.000 F500
G1 B2520.00 F1000
G1 Z0.000 F500
G1 X553.956 Y-899.082 B2520.00 F1000
G1 Z10.000 F500
G1 B2610.00 F1000
G1 Z0.000 F500
G1 X553.956 Y-932.852 B2610.00 F1000
G1 Z10.000 F500
G1 B2700.00 F1000
G1 Z0.000 F500
G1 X524.478 Y-932.852 B2700.00 F1000
G1 Z10.000 F500
G1 B2610.00 F1000
G1 Z0.000 F500
G1 X524.478 Y-936.002 B2610.00 F1000
G1 Z10.000 F500
G1 B2520.00 F1000
G1 Z0.000 F500
G1 X553.956 Y-936.002 B2520.00 F1000
G1 Z10.000 F500
G1 B2610.00 F1000
G1 Z0.000 F500
G1 X553.956 Y-944.427 B2610.00 F1000
G1 Z10.000 F500
G1 B2700.00 F1000
G1 Z0.000 F500
G1 X495.000 Y-944.427 B2700.00 F1000
G1 Z10.000 F500
G1 B2790.00 F1000
G1 Z0.000 F500
G1 X495.000 Y-776.746 B2790.00 F1000
G1 Z10.000 F500
G1 B2880.00 F1000
G1 Z0.000 F500
G1 X553.956 Y-776.746 B2880.00 F1000
G1 Z10.000 F500
G1 Z10.000 F500
G0 X617.956 Y-807.130
G1 Z10.000 F500
G1 B2970.00 F1000
G1 Z0.000 F500
G1 X617.956 Y-888.427 B2970.00 F1000
G1 Z10.000 F500
G1 B3060.00 F1000
G1 Z0.000 F500
G1 X559.000 Y-888.427 B3060.00 F1000
G1 Z10.000 F500
G1 B3150.00 F1000
G1 Z0.000 F500
G1 X559.000 Y-880.002 B3150.00 F1000
G1 Z10.000 F500
G1 B3240.00 F1000
G1 Z0.000 F500
G1 X588.478 Y-880.002 B3240.00 F1000
G1 Z10.000 F500
G1 B3150.00 F1000
G1 Z0.000 F500
G1 X588.478 Y-876.852 B3150.00 F1000
G1 Z10.000 F500
G1 B3060.00 F1000
G1 Z0.000 F500
G1 X559.000 Y-876.852 B3060.00 F1000
G1 Z10.000 F500
G1 B3150.00 F1000
G1 Z0.000 F500
G1 X559.000 Y-864.678 B3150.00 F1000
G1 Z10.000 F500
G1 B3240.00 F1000
G1 Z0.000 F500
G1 X588.478 Y-864.678 B3240.00 F1000
G1 Z10.000 F500
G1 B3150.00 F1000
G1 Z0.000 F500
G1 X588.478 Y-861.528 B3150.00 F1000
G1 Z10.000 F500
G1 B3060.00 F1000
G1 Z0.000 F500
G1 X559.000 Y-861.528 B3060.00 F1000
G1 Z10.000 F500
G1 B3150.00 F1000
G1 Z0.000 F500
G1 X559.000 Y-849.354 B3150.00 F1000
G1 Z10.000 F500
G1 B3240.00 F1000
G1 Z0.000 F500
G1 X588.478 Y-849.354 B3240.00 F1000
G1 Z10.000 F500
G1 B3150.00 F1000
G1 Z0.000 F500
G1 X588.478 Y-846.204 B3150.00 F1000
G1 Z10.000 F500
G1 B3060.00 F1000
G1 Z0.000 F500
G1 X559.000 Y-846.204 B3060.00 F1000
G1 Z10.000 F500
G1 B3150.00 F1000
G1 Z0.000 F500
G1 X559.000 Y-834.029 B3150.00 F1000
G1 Z10.000 F500
G1 B3240.00 F1000
G1 Z0.000 F500
G1 X588.478 Y-834.029 B3240.00 F1000
G1 Z10.000 F500
G1 B3150.00 F1000
G1 Z0.000 F500
G1 X588.478 Y-830.879 B3150.00 F1000
G1 Z10.000 F500
G1 B3060.00 F1000
G1 Z0.000 F500
G1 X559.000 Y-830.879 B3060.00 F1000
G1 Z10.000 F500
G1 B3150.00 F1000
G1 Z0.000 F500
G1 X559.000 Y-818.705 B3150.00 F1000
G1 Z10.000 F500
G1 B3240.00 F1000
G1 Z0.000 F500
G1 X588.478 Y-818.705 B3240.00 F1000
G1 Z10.000 F500
G1 B3150.00 F1000
G1 Z0.000 F500
G1 X588.478 Y-815.555 B3150.00 F1000
G1 Z10.000 F500
G1 B3060.00 F1000
G1 Z0.000 F500
G1 X559.000 Y-815.555 B3060.00 F1000
G1 Z10.000 F500
G1 B3150.00 F1000
G1 Z0.000 F500
G1 X559.000 Y-807.130 B3150.00 F1000
G1 Z10.000 F500
G1 B3240.00 F1000
G1 Z0.000 F500
G1 X617.956 Y-807.130 B3240.00 F1000
G1 Z10.000 F500
G1 A1034.363 F200 (ADVANCE MATERIAL)
G1 Z10.000 F500
G0 X615.956 Y-834.363
G1 Z10.000 F500
G1 B3330.00 F1000
G1 Z0.000 F500
G1 X615.956 Y-842.788 B3330.00 F1000
G1 Z10.000 F500
G1 B3420.00 F1000
G1 Z0.000 F500
G1 X587.478 Y-842.788 B3420.00 F1000
G1 Z10.000 F500
G1 B3330.00 F1000
G1 Z0.000 F500
G1 X587.478 Y-845.938 B3330.00 F1000
G1 Z10.000 F500
G1 B3240.00 F1000
G1 Z0.000 F500
G1 X615.956 Y-845.938 B3240.00 F1000
G1 Z10.000 F500
G1 B3330.00 F1000
G1 Z0.000 F500
G1 X615.956 Y-858.112 B3330.00 F1000
G1 Z10.000 F500
G1 B3420.00 F1000
G1 Z0.000 F500
G1 X587.478 Y-858.112 B3420.00 F1000
G1 Z10.000 F500
G1 B3330.00 F1000
G1 Z0.000 F500
G1 X587.478 Y-861.262 B3330.00 F1000
G1 Z10.000 F500
G1 B3240.00 F1000
G1 Z0.000 F500
G1 X615.956 Y-861.262 B3240.00 F1000
G1 Z10.000 F500
G1 B3330.00 F1000
G1 Z0.000 F500
G1 X615.956 Y-866.346 B3330.00 F1000
G1 Z10.000 F500
G1 B3420.00 F1000
G1 Z0.000 F500
G1 X602.049 Y-866.346 B3420.00 F1000
G1 X599.926 Y-866.463 B3416.86 F1000
G1 X598.690 Y-866.579 B3414.63 F1000
G1 X597.531 Y-866.695 B3414.27 F1000
G1 X596.286 Y-866.812 B3414.66 F1000
G1 X595.967 Y-866.928 B3400.01 F1000
G1 X595.804 Y-867.044 B3384.42 F1000
G1 X595.694 Y-867.161 B3373.39 F1000
G1 X595.613 Y-867.277 B3364.88 F1000
G1 X595.548 Y-867.393 B3359.33 F1000
G1 X595.507 Y-867.509 B3349.13 F1000
G1 X595.481 Y-867.626 B3342.68 F1000
G1 X595.466 Y-867.742 B3337.55 F1000
G1 X595.459 Y-867.858 B3333.32 F1000
G1 X595.455 Y-867.975 B3331.84 F1000
G1 X595.462 Y-868.091 B3326.51 F1000
G1 X595.463 Y-868.207 B3329.65 F1000
G1 X595.464 Y-868.324 B3329.65 F1000
G1 X595.464 Y-868.440 B3329.65 F1000
G1 X595.465 Y-868.556 B3329.83 F1000
G1 X595.463 Y-868.672 B3330.64 F1000
G1 X595.462 Y-868.789 B3330.64 F1000
G1 Z10.000 F500
G1 B3243.23 F1000
G1 Z0.000 F500
G1 X597.522 Y-868.905 B3243.23 F1000
G1 Z10.000 F500
G1 B3323.85 F1000
G1 Z0.000 F500
G1 X597.535 Y-869.021 B3323.85 F1000
G1 X597.546 Y-869.138 B3324.38 F1000
G1 Z10.000 F500
G1 B3406.60 F1000
G1 Z0.000 F500
G1 X597.058 Y-869.254 B3406.60 F1000
G1 X596.105 Y-869.370 B3413.04 F1000
G1 X595.459 Y-869.487 B3409.81 F1000
G1 Z10.000 F500
G1 B3327.41 F1000
G1 Z0.000 F500
G1 X595.464 Y-869.603 B3327.41 F1000
G1 X595.469 Y-869.719 B3327.41 F1000
G1 X595.474 Y-869.836 B3327.41 F1000
G1 X595.480 Y-869.952 B3327.41 F1000
G1 X595.483 Y-870.068 B3328.12 F1000
G1 X595.484 Y-870.184 B3329.47 F1000
G1 X595.486 Y-870.301 B3329.47 F1000
G1 X595.487 Y-870.417 B3329.47 F1000
G1 X595.488 Y-870.533 B3329.47 F1000
G1 X595.489 Y-870.650 B3329.47 F1000
G1 X595.490 Y-870.766 B3329.47 F1000
G1 X595.491 Y-870.882 B3329.47 F1000
G1 X595.492 Y-870.999 B3329.47 F1000
G1 X595.494 Y-871.115 B3329.15 F1000
G1 X595.500 Y-871.231 B3326.95 F1000
G1 X595.506 Y-871.347 B3326.95 F1000
G1 X595.512 Y-871.464 B3326.95 F1000
G1 X595.519 Y-871.580 B3326.95 F1000
G1 X595.525 Y-871.696 B3326.95 F1000
G1 X595.531 Y-871.813 B3326.95 F1000
G1 X595.537 Y-871.929 B3326.95 F1000
G1 X595.543 Y-872.045 B3326.95 F1000
G1 X595.550 Y-872.162 B3326.95 F1000
G1 X595.556 Y-872.278 B3326.95 F1000
G1 X595.562 Y-872.394 B3326.95 F1000
G1 X595.568 Y-872.511 B3326.95 F1000
G1 X595.574 Y-872.627 B3326.95 F1000
G1 X595.580 Y-872.743 B3326.95 F1000
G1 X595.587 Y-872.859 B3326.95 F1000
G1 X595.593 Y-872.976 B3326.95 F1000
G1 X595.599 Y-873.092 B3326.95 F1000
G1 X595.605 Y-873.208 B3326.95 F1000
G1 X595.615 Y-873.325 B3325.33 F1000
G1 X595.625 Y-873.436 B3324.70 F1000
G1 Z10.000 F500
G1 B3420.00 F1000
G1 Z0.000 F500
G1 X577.412 Y-873.436 B3420.00 F1000
G1 Z10.000 F500
G1 B3330.00 F1000
G1 Z0.000 F500
G1 X577.412 Y-876.586 B3330.00 F1000
G1 Z10.000 F500
G1 B3240.00 F1000
G1 Z0.000 F500
G1 X596.002 Y-876.586 B3240.00 F1000
G1 Z10.000 F500
G1 B3323.50 F1000
G1 Z0.000 F500
G1 X596.015 Y-876.697 B3323.50 F1000
G1 X596.032 Y-876.814 B3321.88 F1000
G1 X596.050 Y-876.930 B3320.95 F1000
G1 X596.069 Y-877.046 B3320.95 F1000
G1 X596.087 Y-877.163 B3320.95 F1000
G1 X596.106 Y-877.279 B3320.95 F1000
G1 X596.124 Y-877.395 B3320.95 F1000
G1 X596.143 Y-877.512 B3320.95 F1000
G1 X596.161 Y-877.628 B3320.95 F1000
G1 X596.180 Y-877.744 B3320.95 F1000
G1 X596.199 Y-877.861 B3320.95 F1000
G1 X596.217 Y-877.977 B3320.95 F1000
G1 X596.236 Y-878.093 B3320.95 F1000
G1 X596.254 Y-878.209 B3320.95 F1000
G1 X596.278 Y-878.326 B3318.38 F1000
G1 X596.302 Y-878.442 B3318.25 F1000
G1 X596.326 Y-878.558 B3318.25 F1000
G1 X596.351 Y-878.675 B3318.25 F1000
G1 X596.375 Y-878.791 B3318.25 F1000
G1 X596.399 Y-878.907 B3318.25 F1000
G1 X596.423 Y-879.024 B3318.25 F1000
G1 X596.447 Y-879.140 B3318.25 F1000
G1 X596.472 Y-879.256 B3318.25 F1000
G1 X596.496 Y-879.372 B3318.25 F1000
G1 X596.520 Y-879.489 B3318.25 F1000
G1 X596.544 Y-879.605 B3318.25 F1000
G1 X596.574 Y-879.721 B3315.72 F1000
G1 X596.605 Y-879.838 B3314.74 F1000
G1 X596.637 Y-879.954 B3314.74 F1000
G1 X596.669 Y-880.070 B3314.74 F1000
G1 X596.701 Y-880.187 B3314.74 F1000
G1 X596.732 Y-880.303 B3314.74 F1000
G1 X596.764 Y-880.419 B3314.74 F1000
G1 X596.796 Y-880.536 B3314.74 F1000
G1 X596.828 Y-880.652 B3314.74 F1000
G1 X596.859 Y-880.768 B3314.74 F1000
G1 X596.891 Y-880.884 B3314.74 F1000
G1 X596.923 Y-881.001 B3314.74 F1000
G1 X596.955 Y-881.117 B3314.74 F1000
G1 X596.986 Y-881.233 B3314.74 F1000
G1 X597.018 Y-881.350 B3314.74 F1000
G1 X597.050 Y-881.466 B3314.74 F1000
G1 X597.082 Y-881.582 B3314.74 F1000
G1 X597.113 Y-881.699 B3314.74 F1000
G1 X597.145 Y-881.815 B3314.74 F1000
G1 X597.175 Y-881.931 B3315.48 F1000
G1 X597.203 Y-882.047 B3316.75 F1000
G1 X597.230 Y-882.164 B3316.75 F1000
G1 X597.257 Y-882.280 B3316.75 F1000
G1 X597.285 Y-882.396 B3316.75 F1000
G1 X597.312 Y-882.513 B3316.75 F1000
G1 X597.347 Y-882.629 B3313.42 F1000
G1 X597.385 Y-882.745 B3311.57 F1000
G1 X597.424 Y-882.862 B3311.57 F1000
G1 X597.464 Y-882.978 B3311.07 F1000
G1 X597.510 Y-883.094 B3308.41 F1000
G1 X597.556 Y-883.211 B3308.41 F1000
G1 X597.602 Y-883.327 B3308.41 F1000
G1 X597.648 Y-883.443 B3308.41 F1000
G1 X597.694 Y-883.559 B3308.41 F1000
G1 X597.740 Y-883.676 B3308.41 F1000
G1 X597.786 Y-883.792 B3308.41 F1000
G1 X597.832 Y-883.908 B3308.41 F1000
G1 X597.878 Y-884.025 B3308.41 F1000
G1 X597.924 Y-884.141 B3308.41 F1000
G1 X597.970 Y-884.257 B3308.41 F1000
G1 X598.016 Y-884.374 B3308.41 F1000
G1 X598.063 Y-884.490 B3308.41 F1000
G1 X598.109 Y-884.606 B3308.41 F1000
G1 X598.155 Y-884.722 B3308.41 F1000
G1 X598.201 Y-884.839 B3308.41 F1000
G1 X598.247 Y-884.955 B3308.41 F1000
G1 X598.293 Y-885.071 B3308.41 F1000
G1 X598.339 Y-885.188 B3308.41 F1000
G1 X598.385 Y-885.304 B3308.41 F1000
G1 X598.431 Y-885.420 B3308.41 F1000
G1 X598.477 Y-885.537 B3308.36 F1000
G1 X598.523 Y-885.653 B3308.29 F1000
G1 X598.570 Y-885.769 B3308.29 F1000
G1 X598.616 Y-885.886 B3308.29 F1000
G1 X598.662 Y-886.002 B3308.29 F1000
G1 X598.708 Y-886.118 B3308.29 F1000
G1 X598.757 Y-886.234 B3307.38 F1000
G1 X598.821 Y-886.351 B3301.24 F1000
G1 X598.885 Y-886.467 B3301.24 F1000
G1 X598.948 Y-886.583 B3301.24 F1000
G1 X599.012 Y-886.700 B3301.24 F1000
G1 X599.076 Y-886.816 B3301.24 F1000
G1 X599.140 Y-886.932 B3301.24 F1000
G1 X599.204 Y-887.049 B3301.24 F1000
G1 X599.266 Y-887.165 B3301.74 F1000
G1 X599.323 Y-887.281 B3303.81 F1000
G1 X599.381 Y-887.397 B3303.81 F1000
G1 X599.438 Y-887.514 B3303.81 F1000
G1 X599.495 Y-887.630 B3303.81 F1000
G1 X599.558 Y-887.746 B3301.71 F1000
G1 X599.616 Y-887.863 B3303.52 F1000
G1 X599.674 Y-887.979 B3303.52 F1000
G1 X599.731 Y-888.095 B3303.52 F1000
G1 X599.789 Y-888.212 B3303.52 F1000
G1 X599.847 Y-888.328 B3303.52 F1000
G1 X599.905 Y-888.444 B3303.52 F1000
G1 X599.963 Y-888.561 B3303.52 F1000
G1 X600.021 Y-888.677 B3303.52 F1000
G1 X600.063 Y-888.760 B3303.52 F1000
G1 Z10.000 F500
G1 B3420.00 F1000
G1 Z0.000 F500
G1 X579.963 Y-888.760 B3420.00 F1000
G1 Z10.000 F500
G1 B3330.00 F1000
G1 Z0.000 F500
G1 X579.963 Y-891.910 B3330.00 F1000
G1 Z10.000 F500
G1 B3240.00 F1000
G1 Z0.000 F500
G1 X601.946 Y-891.910 B3240.00 F1000
G1 Z10.000 F500
G1 B3297.23 F1000
G1 Z0.000 F500
G1 X601.961 Y-891.933 B3297.23 F1000
G1 X602.036 Y-892.050 B3297.23 F1000
G1 X602.111 Y-892.166 B3297.08 F1000
G1 X602.188 Y-892.282 B3296.47 F1000
G1 X602.275 Y-892.399 B3293.40 F1000
G1 X602.363 Y-892.515 B3292.64 F1000
G1 X602.452 Y-892.631 B3292.64 F1000
G1 X602.541 Y-892.747 B3292.64 F1000
G1 X602.630 Y-892.864 B3292.64 F1000
G1 X602.719 Y-892.980 B3292.64 F1000
G1 X602.808 Y-893.096 B3292.46 F1000
G1 X602.898 Y-893.213 B3292.28 F1000
G1 X602.988 Y-893.329 B3292.28 F1000
G1 X603.078 Y-893.445 B3292.28 F1000
G1 X603.168 Y-893.562 B3292.28 F1000
G1 X603.262 Y-893.678 B3290.85 F1000
G1 X603.366 Y-893.794 B3288.34 F1000
G1 X603.468 Y-893.911 B3288.62 F1000
G1 X603.568 Y-894.027 B3289.51 F1000
G1 X603.667 Y-894.143 B3289.51 F1000
G1 X603.766 Y-894.259 B3289.51 F1000
G1 X603.865 Y-894.376 B3289.79 F1000
G1 X603.960 Y-894.492 B3290.65 F1000
G1 X604.055 Y-894.608 B3290.65 F1000
G1 X604.152 Y-894.725 B3290.22 F1000
G1 X604.251 Y-894.841 B3289.53 F1000
G1 X604.351 Y-894.957 B3289.53 F1000
G1 X604.450 Y-895.074 B3289.53 F1000
G1 X604.549 Y-895.190 B3289.53 F1000
G1 X604.648 Y-895.306 B3289.53 F1000
G1 X604.748 Y-895.422 B3289.36 F1000
G1 X604.851 Y-895.539 B3288.59 F1000
G1 X604.953 Y-895.655 B3288.59 F1000
G1 X605.056 Y-895.771 B3288.59 F1000
G1 X605.158 Y-895.888 B3288.59 F1000
G1 X605.261 Y-896.004 B3288.59 F1000
G1 X605.367 Y-896.120 B3287.50 F1000
G1 X605.477 Y-896.237 B3286.71 F1000
G1 X605.587 Y-896.353 B3286.71 F1000
G1 X605.696 Y-896.469 B3286.71 F1000
G1 X605.806 Y-896.586 B3286.71 F1000
G1 X605.913 Y-896.702 B3287.41 F1000
G1 X606.017 Y-896.818 B3288.09 F1000
G1 X606.121 Y-896.934 B3288.09 F1000
G1 X606.226 Y-897.051 B3287.92 F1000
G1 X606.333 Y-897.167 B3287.39 F1000
G1 X606.440 Y-897.283 B3287.39 F1000
G1 X606.547 Y-897.400 B3287.39 F1000
G1 X606.654 Y-897.516 B3287.39 F1000
G1 X606.761 Y-897.632 B3287.39 F1000
G1 X606.868 Y-897.749 B3287.39 F1000
G1 X606.977 Y-897.865 B3286.89 F1000
G1 X607.088 Y-897.981 B3286.35 F1000
G1 X607.199 Y-898.097 B3286.35 F1000
G1 X607.310 Y-898.214 B3286.35 F1000
G1 X607.421 Y-898.330 B3286.35 F1000
G1 X607.533 Y-898.446 B3286.19 F1000
G1 X607.644 Y-898.563 B3286.09 F1000
G1 X607.756 Y-898.679 B3286.09 F1000
G1 X607.868 Y-898.795 B3286.09 F1000
G1 X607.980 Y-898.912 B3286.09 F1000
G1 X608.092 Y-899.028 B3286.09 F1000
G1 X608.204 Y-899.144 B3286.09 F1000
G1 X608.316 Y-899.261 B3286.09 F1000
G1 X608.428 Y-899.377 B3286.09 F1000
G1 X608.540 Y-899.493 B3286.09 F1000
G1 X608.652 Y-899.609 B3286.09 F1000
G1 X608.764 Y-899.726 B3286.09 F1000
G1 X608.876 Y-899.842 B3286.09 F1000
G1 X608.988 Y-899.958 B3286.09 F1000
G1 X609.100 Y-900.075 B3286.09 F1000
G1 X609.215 Y-900.191 B3285.24 F1000
G1 X609.334 Y-900.307 B3284.37 F1000
G1 X609.453 Y-900.424 B3284.37 F1000
G1 X609.572 Y-900.540 B3284.37 F1000
G1 X609.696 Y-900.656 B3283.04 F1000
G1 X609.836 Y-900.772 B3279.90 F1000
G1 X609.955 Y-900.889 B3284.22 F1000
G1 X610.075 Y-901.005 B3284.22 F1000
G1 X610.193 Y-901.121 B3284.58 F1000
G1 X610.309 Y-901.238 B3284.88 F1000
G1 X610.426 Y-901.354 B3284.88 F1000
G1 X610.543 Y-901.470 B3284.88 F1000
G1 X610.660 Y-901.587 B3284.88 F1000
G1 X610.777 Y-901.703 B3284.88 F1000
G1 X610.893 Y-901.819 B3284.88 F1000
G1 X611.010 Y-901.936 B3284.88 F1000
G1 X611.127 Y-902.052 B3284.88 F1000
G1 X611.244 Y-902.168 B3284.88 F1000
G1 X611.352 Y-902.284 B3287.17 F1000
G1 X611.456 Y-902.401 B3288.21 F1000
G1 X611.560 Y-902.517 B3288.21 F1000
G1 X611.664 Y-902.633 B3288.21 F1000
G1 X611.768 Y-902.750 B3288.21 F1000
G1 X611.878 Y-902.866 B3286.55 F1000
G1 X612.004 Y-902.982 B3282.56 F1000
G1 X612.131 Y-903.099 B3282.56 F1000
G1 X612.258 Y-903.215 B3282.56 F1000
G1 X612.384 Y-903.331 B3282.56 F1000
G1 X612.511 Y-903.447 B3282.56 F1000
G1 X612.638 Y-903.564 B3282.56 F1000
G1 X612.754 Y-903.680 B3284.89 F1000
G1 X612.861 Y-903.796 B3287.43 F1000
G1 X612.968 Y-903.913 B3287.43 F1000
G1 X613.075 Y-904.029 B3287.43 F1000
G1 X613.126 Y-904.084 B3287.43 F1000
G1 Z10.000 F500
G1 B3420.00 F1000
G1 Z0.000 F500
G1 X587.478 Y-904.084 B3420.00 F1000
G1 Z10.000 F500
G1 B3330.00 F1000
G1 Z0.000 F500
G1 X587.478 Y-907.234 B3330.00 F1000
G1 Z10.000 F500
G1 B3240.00 F1000
G1 Z0.000 F500
G1 X615.956 Y-907.234 B3240.00 F1000
G1 Z10.000 F500
G1 B3330.00 F1000
G1 Z0.000 F500
G1 X615.956 Y-915.659 B3330.00 F1000
G1 Z10.000 F500
G1 B3420.00 F1000
G1 Z0.000 F500
G1 X559.000 Y-915.659 B3420.00 F1000
G1 Z10.000 F500
G1 B3510.00 F1000
G1 Z0.000 F500
G1 X559.000 Y-834.363 B3510.00 F1000
G1 Z10.000 F500
G1 B3600.00 F1000
G1 Z0.000 F500
G1 X615.956 Y-834.363 B3600.00 F1000
G1 Z10.000 F500
G1 A1152.746 F200 (ADVANCE MATERIAL)
G1 Z10.000 F500
G0 X553.956 Y-952.746
G1 Z10.000 F500
G1 B3690.00 F1000
G1 Z0.000 F500
G1 X553.956 Y-961.171 B3690.00 F1000
G1 Z10.000 F500
G1 B3780.00 F1000
G1 Z0.000 F500
G1 X524.478 Y-961.171 B3780.00 F1000
G1 Z10.000 F500
G1 B3690.00 F1000
G1 Z0.000 F500
G1 X524.478 Y-964.321 B3690.00 F1000
G1 Z10.000 F500
G1 B3600.00 F1000
G1 Z0.000 F500
G1 X553.956 Y-964.321 B3600.00 F1000
G1 Z10.000 F500
G1 B3690.00 F1000
G1 Z0.000 F500
G1 X553.956 Y-998.092 B3690.00 F1000
G1 Z10.000 F500
G1 B3780.00 F1000
G1 Z0.000 F500
G1 X524.478 Y-998.092 B3780.00 F1000
G1 Z10.000 F500
G1 B3690.00 F1000
G1 Z0.000 F500
G1 X524.478 Y-1001.242 B3690.00 F1000
G1 Z10.000 F500
G1 B3600.00 F1000
G1 Z0.000 F500
G1 X553.956 Y-1001.242 B3600.00 F1000
G1 Z10.000 F500
G1 B3690.00 F1000
G1 Z0.000 F500
G1 X553.956 Y-1035.012 B3690.00 F1000
G1 Z10.000 F500
G1 B3780.00 F1000
G1 Z0.000 F500
G1 X524.478 Y-1035.012 B3780.00 F1000
G1 Z10.000 F500
G1 B3690.00 F1000
G1 Z0.000 F500
G1 X524.478 Y-1038.162 B3690.00 F1000
G1 Z10.000 F500
G1 B3600.00 F1000
G1 Z0.000 F500
G1 X553.956 Y-1038.162 B3600.00 F1000
G1 Z10.000 F500
G1 B3690.00 F1000
G1 Z0.000 F500
G1 X553.956 Y-1071.932 B3690.00 F1000
G1 Z10.000 F500
G1 B3780.00 F1000
G1 Z0.000 F500
G1 X524.478 Y-1071.932 B3780.00 F1000
G1 Z10.000 F500
G1 B3690.00 F1000
G1 Z0.000 F500
G1 X524.478 Y-1075.082 B3690.00 F1000
G1 Z10.000 F500
G1 B3600.00 F1000
G1 Z0.000 F500
G1 X553.956 Y-1075.082 B3600.00 F1000
G1 Z10.000 F500
G1 B3690.00 F1000
G1 Z0.000 F500
G1 X553.956 Y-1108.852 B3690.00 F1000
G1 Z10.000 F500
G1 B3780.00 F1000
G1 Z0.000 F500
G1 X524.478 Y-1108.852 B3780.00 F1000
G1 Z10.000 F500
G1 B3690.00 F1000
G1 Z0.000 F500
G1 X524.478 Y-1112.002 B3690.00 F1000
G1 Z10.000 F500
G1 B3600.00 F1000
G1 Z0.000 F500
G1 X553.956 Y-1112.002 B3600.00 F1000
G1 Z10.000 F500
G1 B3690.00 F1000
G1 Z0.000 F500
G1 X553.956 Y-1120.427 B3690.00 F1000
G1 Z10.000 F500
G1 B3780.00 F1000
G1 Z0.000 F500
G1 X495.000 Y-1120.427 B3780.00 F1000
G1 Z10.000 F500
G1 B3870.00 F1000
G1 Z0.000 F500
G1 X495.000 Y-952.746 B3870.00 F1000
G1 Z10.000 F500
G1 B3960.00 F1000
G1 Z0.000 F500
G1 X553.956 Y-952.746 B3960.00 F1000
G1 Z10.000 F500
G1 A1208.746 F200 (ADVANCE MATERIAL)
G1 Z10.000 F500
G0 X615.956 Y-1008.746
G1 Z10.000 F500
G1 B4050.00 F1000
G1 Z0.000 F500
G1 X615.956 Y-1176.427 B4050.00 F1000
G1 Z10.000 F500
G1 B4140.00 F1000
G1 Z0.000 F500
G1 X559.000 Y-1176.427 B4140.00 F1000
G1 Z10.000 F500
G1 B4230.00 F1000
G1 Z0.000 F500
G1 X559.000 Y-1168.002 B4230.00 F1000
G1 Z10.000 F500
G1 B4320.00 F1000
G1 Z0.000 F500
G1 X587.478 Y-1168.002 B4320.00 F1000
G1 Z10.000 F500
G1 B4230.00 F1000
G1 Z0.000 F500
G1 X587.478 Y-1164.852 B4230.00 F1000
G1 Z10.000 F500
G1 B4140.00 F1000
G1 Z0.000 F500
G1 X559.000 Y-1164.852 B4140.00 F1000
G1 Z10.000 F500
G1 B4230.00 F1000
G1 Z0.000 F500
G1 X559.000 Y-1164.435 B4230.00 F1000
G1 Z10.000 F500
G1 B4313.42 F1000
G1 Z0.000 F500
G1 X559.022 Y-1164.433 B4313.42 F1000
G1 X560.237 Y-1164.193 B4308.84 F1000
G1 X561.453 Y-1163.953 B4308.84 F1000
G1 X562.668 Y-1163.713 B4308.84 F1000
G1 X563.693 Y-1163.473 B4306.82 F1000
G1 X564.713 Y-1163.233 B4306.78 F1000
G1 X569.650 Y-1162.993 B4317.22 F1000
G1 X571.001 Y-1162.753 B4309.93 F1000
G1 X572.235 Y-1162.514 B4309.00 F1000
G1 X573.387 Y-1162.274 B4308.24 F1000
G1 X574.531 Y-1162.034 B4308.15 F1000
G1 X575.674 Y-1161.794 B4308.15 F1000
G1 X576.690 Y-1161.554 B4306.71 F1000
G1 X577.705 Y-1161.314 B4306.70 F1000
G1 X578.720 Y-1161.074 B4306.70 F1000
G1 X579.734 Y-1160.834 B4306.70 F1000
G1 X580.714 Y-1160.594 B4306.23 F1000
G1 X581.637 Y-1160.355 B4305.44 F1000
G1 X582.553 Y-1160.115 B4305.31 F1000
G1 X583.389 Y-1159.875 B4304.00 F1000
G1 X584.203 Y-1159.635 B4303.58 F1000
G1 X585.005 Y-1159.395 B4303.35 F1000
G1 X585.790 Y-1159.155 B4303.00 F1000
G1 X586.557 Y-1158.915 B4302.64 F1000
G1 X587.312 Y-1158.675 B4302.37 F1000
G1 X588.068 Y-1158.435 B4302.39 F1000
G1 X588.790 Y-1158.196 B4301.62 F1000
G1 X589.447 Y-1157.956 B4299.94 F1000
G1 X590.075 Y-1157.716 B4299.11 F1000
G1 X590.699 Y-1157.476 B4298.96 F1000
G1 X591.291 Y-1157.236 B4297.94 F1000
G1 X591.797 Y-1156.996 B4294.63 F1000
G1 X592.294 Y-1156.756 B4294.23 F1000
G1 X592.794 Y-1156.516 B4294.39 F1000
G1 X593.289 Y-1156.276 B4294.16 F1000
G1 X593.703 Y-1156.037 B4289.89 F1000
G1 X594.118 Y-1155.797 B4289.97 F1000
G1 X594.505 Y-1155.557 B4288.17 F1000
G1 X594.865 Y-1155.317 B4286.35 F1000
G1 X595.228 Y-1155.077 B4286.51 F1000
G1 X595.556 Y-1154.837 B4283.85 F1000
G1 X595.863 Y-1154.597 B4281.96 F1000
G1 X596.172 Y-1154.357 B4282.21 F1000
G1 X596.371 Y-1154.118 B4269.66 F1000
G1 Z10.000 F500
G1 B4229.84 F1000
G1 Z0.000 F500
G1 X596.370 Y-1153.878 B4229.84 F1000
G1 Z10.000 F500
G1 B4298.87 F1000
G1 Z0.000 F500
G1 X596.991 Y-1153.638 B4298.87 F1000
G1 X597.233 Y-1153.398 B4275.23 F1000
G1 X597.452 Y-1153.158 B4272.42 F1000
G1 X597.664 Y-1152.918 B4271.56 F1000
G1 X597.869 Y-1152.678 B4270.52 F1000
G1 X598.046 Y-1152.438 B4266.40 F1000
G1 X598.219 Y-1152.198 B4265.78 F1000
G1 X598.383 Y-1151.959 B4264.25 F1000
G1 X598.518 Y-1151.719 B4259.41 F1000
G1 X598.644 Y-1151.479 B4257.75 F1000
G1 X598.763 Y-1151.239 B4256.32 F1000
G1 X598.857 Y-1150.999 B4251.46 F1000
G1 X598.942 Y-1150.759 B4249.47 F1000
G1 X599.023 Y-1150.519 B4248.81 F1000
G1 X599.086 Y-1150.279 B4244.70 F1000
G1 X599.149 Y-1150.039 B4244.70 F1000
G1 X599.212 Y-1149.800 B4244.70 F1000
G1 X599.278 Y-1149.560 B4245.34 F1000
G1 X599.346 Y-1149.320 B4245.80 F1000
G1 X599.388 Y-1149.080 B4239.88 F1000
G1 X599.426 Y-1148.840 B4239.07 F1000
G1 X599.464 Y-1148.600 B4239.07 F1000
