(Generated by custom-packaging - grblHAL Multi-Axis)
M8 (Lights ON)

G21  (mm)
G90  (absolute)
G1 Z10.000 F1000
G1 B-0.00 F2000
G1 Z10.000 F1000
G1 B90.00 F2000
G1 Z10.000 F1000
G0 X69.199 Y0.522
M3 S2000 (Start Oscillation)
G1 Z10.000 F1000
G1 B90.00 F2000
G0 X69.199 Y0.522
G1 Z0.000 F1000
G1 X69.199 Y-29.130 B90.00 F3000
G1 X69.199 Y-29.130 B90.00 F3000
G1 Z10.000 F1000
G1 B180.00 F2000
G0 X69.199 Y-29.130
G1 Z0.000 F1000
G1 X66.049 Y-29.130 B180.00 F3000
G1 X66.049 Y-29.130 B180.00 F3000
G1 Z10.000 F1000
G1 B270.00 F2000
G0 X66.049 Y-29.130
G1 Z0.000 F1000
G1 X66.049 Y0.522 B270.00 F3000
G1 X66.049 Y0.522 B270.00 F3000
G1 Z10.000 F1000
G1 B180.00 F2000
G0 X66.049 Y0.522
G1 Z0.000 F1000
G1 X19.972 Y0.522 B180.00 F3000
G1 X19.972 Y0.522 B180.00 F3000
G1 Z10.000 F1000
G1 B90.00 F2000
G0 X19.972 Y0.522
G1 Z0.000 F1000
G1 X19.972 Y-29.130 B90.00 F3000
G1 X19.972 Y-29.130 B90.00 F3000
G1 Z10.000 F1000
G1 B180.00 F2000
G0 X19.972 Y-29.130
G1 Z0.000 F1000
G1 X16.822 Y-29.130 B180.00 F3000
G1 X16.822 Y-29.130 B180.00 F3000
G1 Z10.000 F1000
G1 B270.00 F2000
G0 X16.822 Y-29.130
G1 Z0.000 F1000
G1 X16.822 Y0.522 B270.00 F3000
G1 X16.822 Y0.522 B270.00 F3000
G1 Z10.000 F1000
G1 B180.00 F2000
G0 X16.822 Y0.522
G1 Z0.000 F1000
G1 X-29.254 Y0.522 B180.00 F3000
G1 X-29.254 Y0.522 B180.00 F3000
G1 Z10.000 F1000
G1 B90.00 F2000
G0 X-29.254 Y0.522
G1 Z0.000 F1000
G1 X-29.254 Y-29.130 B90.00 F3000
G1 X-29.254 Y-29.130 B90.00 F3000
G1 Z10.000 F1000
G1 B180.00 F2000
G0 X-29.254 Y-29.130
G1 Z0.000 F1000
G1 X-32.404 Y-29.130 B180.00 F3000
G1 X-32.404 Y-29.130 B180.00 F3000
G1 Z10.000 F1000
G1 B270.00 F2000
G0 X-32.404 Y-29.130
G1 Z0.000 F1000
G1 X-32.404 Y0.522 B270.00 F3000
G1 X-32.404 Y0.522 B270.00 F3000
G1 Z10.000 F1000
G1 B180.00 F2000
G0 X-32.404 Y0.522
G1 Z0.000 F1000
G1 X-78.481 Y0.522 B180.00 F3000
G1 X-78.481 Y0.522 B180.00 F3000
G1 Z10.000 F1000
G1 B90.00 F2000
G0 X-78.481 Y0.522
G1 Z0.000 F1000
G1 X-78.481 Y-29.130 B90.00 F3000
G1 X-78.481 Y-29.130 B90.00 F3000
G1 Z10.000 F1000
G1 B180.00 F2000
G0 X-78.481 Y-29.130
G1 Z0.000 F1000
G1 X-81.631 Y-29.130 B180.00 F3000
G1 X-81.631 Y-29.130 B180.00 F3000
G1 Z10.000 F1000
G1 B270.00 F2000
G0 X-81.631 Y-29.130
G1 Z0.000 F1000
G1 X-81.631 Y0.522 B270.00 F3000
G1 X-81.631 Y0.522 B270.00 F3000
G1 Z10.000 F1000
G1 B180.00 F2000
G0 X-81.631 Y0.522
G1 Z0.000 F1000
G1 X-90.056 Y0.522 B180.00 F3000
G1 X-90.056 Y0.522 B180.00 F3000
G1 Z10.000 F1000
G1 B90.00 F2000
G0 X-90.056 Y0.522
G1 Z0.000 F1000
G1 X-90.056 Y-58.783 B90.00 F3000
G1 X-90.056 Y-58.783 B90.00 F3000
G1 Z10.000 F1000
G1 B-0.00 F2000
G0 X-90.056 Y-58.783
G1 Z0.000 F1000
G1 X77.624 Y-58.783 B-0.00 F3000
G1 X77.624 Y-58.783 B-0.00 F3000
G1 Z10.000 F1000
G1 B-90.00 F2000
G0 X77.624 Y-58.783
G1 Z0.000 F1000
G1 X77.624 Y0.522 B-90.00 F3000
G1 X77.624 Y0.522 B-90.00 F3000
G1 Z10.000 F1000
G1 B-180.00 F2000
G0 X77.624 Y0.522
G1 Z0.000 F1000
G1 X69.199 Y0.522 B-180.00 F3000
G1 Z10.000 F1000
G1 Z10.000 F1000
G0 X69.199 Y66.649
G1 Z10.000 F1000
G1 B-270.00 F2000
G0 X69.199 Y66.649
G1 Z0.000 F1000
G1 X69.199 Y37.997 B-270.00 F3000
G1 X69.199 Y37.997 B-270.00 F3000
G1 Z10.000 F1000
G1 B-180.00 F2000
G0 X69.199 Y37.997
G1 Z0.000 F1000
G1 X66.049 Y37.997 B-180.00 F3000
G1 X66.049 Y37.997 B-180.00 F3000
G1 Z10.000 F1000
G1 B-90.00 F2000
G0 X66.049 Y37.997
G1 Z0.000 F1000
G1 X66.049 Y66.649 B-90.00 F3000
G1 X66.049 Y66.649 B-90.00 F3000
G1 Z10.000 F1000
G1 B-180.00 F2000
G0 X66.049 Y66.649
G1 Z0.000 F1000
G1 X49.050 Y66.649 B-180.00 F3000
G1 X49.050 Y66.649 B-180.00 F3000
G1 Z10.000 F1000
G1 B-243.42 F2000
G0 X49.050 Y66.649
G1 Z0.000 F1000
G1 X41.689 Y51.936 B-243.42 F3000
G1 X41.682 Y51.924 B-240.42 F3000
G1 X41.682 Y51.924 B-234.38 F3000
G1 X41.682 Y51.924 B-228.42 F3000
G1 X41.672 Y51.915 B-222.42 F3000
G1 X36.523 Y47.683 B-219.41 F3000
G1 X36.508 Y47.672 B-215.20 F3000
G1 X36.491 Y47.664 B-206.83 F3000
G1 X31.484 Y45.576 B-202.64 F3000
G1 X31.474 Y45.572 B-200.08 F3000
G1 X31.463 Y45.569 B-195.02 F3000
G1 X24.068 Y43.933 B-192.47 F3000
G1 X24.062 Y43.932 B-190.96 F3000
G1 X24.055 Y43.931 B-187.96 F3000
G1 X19.972 Y43.469 B-186.46 F3000
G1 X19.972 Y43.469 B-186.46 F3000
G1 Z10.000 F1000
G1 B-270.00 F2000
G0 X19.972 Y43.469
G1 Z0.000 F1000
G1 X19.972 Y26.317 B-270.00 F3000
G1 X19.972 Y26.317 B-270.00 F3000
G1 Z10.000 F1000
G1 B-180.00 F2000
G0 X19.972 Y26.317
G1 Z0.000 F1000
G1 X16.822 Y26.317 B-180.00 F3000
G1 X16.822 Y26.317 B-180.00 F3000
G1 Z10.000 F1000
G1 B-90.00 F2000
G0 X16.822 Y26.317
G1 Z0.000 F1000
G1 X16.822 Y43.112 B-90.00 F3000
G1 X16.822 Y43.112 B-90.00 F3000
G1 Z10.000 F1000
G1 B-186.46 F2000
G0 X16.822 Y43.112
G1 Z0.000 F1000
G1 X9.944 Y42.333 B-186.46 F3000
G1 X9.937 Y42.332 B-184.91 F3000
G1 X9.930 Y42.332 B-181.83 F3000
G1 X1.279 Y42.289 B-180.29 F3000
G1 X1.268 Y42.290 B-177.55 F3000
G1 X1.267 Y42.290 B-172.03 F3000
G1 X1.267 Y42.290 B-172.03 F3000
G1 Z10.000 F1000
G1 B-150.12 F2000
G0 X1.267 Y42.290
G1 Z0.000 F1000
G1 X1.267 Y42.290 B-150.12 F3000
G1 X1.267 Y42.290 B-150.12 F3000
G1 Z10.000 F1000
G1 B-128.20 F2000
G0 X1.267 Y42.290
G1 Z0.000 F1000
G1 X1.267 Y42.290 B-128.20 F3000
G1 X1.267 Y42.290 B-128.20 F3000
G1 Z10.000 F1000
G1 B-106.28 F2000
G0 X1.267 Y42.290
G1 Z0.000 F1000
G1 X1.267 Y42.290 B-106.28 F3000
G1 X1.267 Y42.290 B-100.83 F3000
G1 X1.265 Y42.302 B-95.35 F3000
G1 X1.155 Y44.713 B-92.62 F3000
G1 X1.151 Y44.760 B-95.35 F3000
G1 X1.142 Y44.807 B-100.83 F3000
G1 X1.128 Y44.853 B-106.31 F3000
G1 X1.111 Y44.898 B-111.79 F3000
G1 X1.089 Y44.940 B-117.27 F3000
G1 X1.063 Y44.980 B-122.75 F3000
G1 X1.033 Y45.018 B-128.22 F3000
G1 X1.000 Y45.052 B-133.70 F3000
G1 X0.964 Y45.084 B-139.18 F3000
G1 X0.925 Y45.111 B-144.66 F3000
G1 X0.884 Y45.135 B-150.14 F3000
G1 X0.840 Y45.155 B-155.62 F3000
G1 X0.795 Y45.170 B-161.09 F3000
G1 X0.749 Y45.181 B-166.57 F3000
G1 X0.701 Y45.188 B-172.05 F3000
G1 X0.654 Y45.190 B-177.53 F3000
G1 X0.606 Y45.188 B-183.01 F3000
G1 X0.559 Y45.180 B-188.49 F3000
G1 X0.512 Y45.169 B-193.96 F3000
G1 X-4.034 Y43.805 B-196.70 F3000
G1 X-4.047 Y43.802 B-193.64 F3000
G1 X-4.047 Y43.802 B-187.47 F3000
G1 X-4.047 Y43.802 B-187.47 F3000
G1 Z10.000 F1000
G1 B-162.95 F2000
G0 X-4.047 Y43.802
G1 Z0.000 F1000
G1 X-4.047 Y43.802 B-162.95 F3000
G1 X-4.047 Y43.802 B-162.95 F3000
G1 Z10.000 F1000
G1 B-138.43 F2000
G0 X-4.047 Y43.802
G1 Z0.000 F1000
G1 X-4.048 Y43.802 B-138.43 F3000
G1 X-4.048 Y43.802 B-138.43 F3000
G1 Z10.000 F1000
G1 B-113.91 F2000
G0 X-4.048 Y43.802
G1 Z0.000 F1000
G1 X-4.053 Y43.814 B-113.91 F3000
G1 X-4.060 Y43.834 B-110.60 F3000
G1 X-4.082 Y43.878 B-116.18 F3000
G1 X-4.107 Y43.919 B-121.75 F3000
G1 X-4.137 Y43.958 B-127.32 F3000
G1 X-4.170 Y43.993 B-132.90 F3000
G1 X-4.206 Y44.025 B-138.47 F3000
G1 X-4.246 Y44.054 B-144.04 F3000
G1 X-4.288 Y44.079 B-149.62 F3000
G1 X-4.332 Y44.099 B-155.19 F3000
G1 X-4.378 Y44.115 B-160.76 F3000
G1 X-4.425 Y44.126 B-166.33 F3000
G1 X-4.473 Y44.133 B-171.91 F3000
G1 X-4.522 Y44.135 B-177.48 F3000
G1 X-4.570 Y44.133 B-183.05 F3000
G1 X-4.618 Y44.126 B-188.63 F3000
G1 X-4.665 Y44.114 B-194.20 F3000
G1 X-4.711 Y44.097 B-199.77 F3000
G1 X-4.755 Y44.076 B-205.34 F3000
G1 X-4.797 Y44.051 B-210.92 F3000
G1 X-4.836 Y44.022 B-216.49 F3000
G1 X-4.872 Y43.990 B-222.06 F3000
G1 X-4.905 Y43.954 B-227.64 F3000
G1 X-4.934 Y43.915 B-233.21 F3000
G1 X-4.959 Y43.873 B-238.78 F3000
G1 X-4.980 Y43.830 B-244.36 F3000
G1 X-4.997 Y43.784 B-249.93 F3000
G1 X-5.009 Y43.737 B-255.50 F3000
G1 X-5.016 Y43.689 B-261.07 F3000
G1 X-5.166 Y42.301 B-263.86 F3000
G1 X-5.167 Y42.290 B-261.33 F3000
G1 X-5.167 Y42.290 B-256.23 F3000
G1 X-5.167 Y42.290 B-256.23 F3000
G1 Z10.000 F1000
G1 B-236.02 F2000
G0 X-5.167 Y42.290
G1 Z0.000 F1000
G1 X-5.168 Y42.290 B-236.02 F3000
G1 X-5.168 Y42.290 B-236.02 F3000
G1 Z10.000 F1000
G1 B-215.81 F2000
G0 X-5.168 Y42.290
G1 Z0.000 F1000
G1 X-5.168 Y42.289 B-215.81 F3000
G1 X-5.168 Y42.289 B-215.81 F3000
G1 Z10.000 F1000
G1 B-195.62 F2000
G0 X-5.168 Y42.289
G1 Z0.000 F1000
G1 X-5.168 Y42.289 B-195.62 F3000
G1 X-5.168 Y42.289 B-190.59 F3000
G1 X-5.179 Y42.288 B-185.54 F3000
G1 X-15.781 Y41.730 B-183.01 F3000
G1 X-15.796 Y41.730 B-179.78 F3000
G1 X-15.810 Y41.732 B-173.37 F3000
G1 X-17.321 Y41.994 B-170.16 F3000
G1 X-17.333 Y41.997 B-167.42 F3000
G1 X-17.333 Y41.997 B-161.91 F3000
G1 X-17.333 Y41.997 B-161.91 F3000
G1 Z10.000 F1000
G1 B-140.02 F2000
G0 X-17.333 Y41.997
G1 Z0.000 F1000
G1 X-17.334 Y41.997 B-140.02 F3000
G1 X-17.334 Y41.997 B-140.02 F3000
G1 Z10.000 F1000
G1 B-118.12 F2000
G0 X-17.334 Y41.997
G1 Z0.000 F1000
G1 X-17.334 Y41.998 B-118.12 F3000
G1 X-17.334 Y41.998 B-112.67 F3000
G1 X-17.337 Y42.009 B-107.20 F3000
G1 X-17.944 Y44.362 B-104.46 F3000
G1 X-17.958 Y44.408 B-107.20 F3000
G1 X-17.977 Y44.452 B-112.66 F3000
G1 X-17.999 Y44.494 B-118.13 F3000
G1 X-18.025 Y44.533 B-123.60 F3000
G1 X-18.056 Y44.570 B-129.07 F3000
G1 X-18.089 Y44.604 B-134.54 F3000
G1 X-18.126 Y44.635 B-140.01 F3000
G1 X-18.165 Y44.662 B-145.48 F3000
G1 X-18.207 Y44.685 B-150.95 F3000
G1 X-18.250 Y44.704 B-156.42 F3000
G1 X-18.296 Y44.719 B-161.89 F3000
G1 X-18.342 Y44.730 B-167.36 F3000
G1 X-18.390 Y44.736 B-172.83 F3000
G1 X-29.254 Y45.578 B-175.57 F3000
G1 X-29.254 Y45.578 B-175.57 F3000
G1 Z10.000 F1000
G1 B-270.00 F2000
G0 X-29.254 Y45.578
G1 Z0.000 F1000
G1 X-29.254 Y27.522 B-270.00 F3000
G1 X-29.254 Y27.522 B-270.00 F3000
G1 Z10.000 F1000
G1 B-180.00 F2000
G0 X-29.254 Y27.522
G1 Z0.000 F1000
G1 X-32.404 Y27.522 B-180.00 F3000
G1 X-32.404 Y27.522 B-180.00 F3000
G1 Z10.000 F1000
G1 B-90.00 F2000
G0 X-32.404 Y27.522
G1 Z0.000 F1000
G1 X-32.404 Y45.823 B-90.00 F3000
G1 X-32.404 Y45.823 B-90.00 F3000
G1 Z10.000 F1000
G1 B-175.57 F2000
G0 X-32.404 Y45.823
G1 Z0.000 F1000
G1 X-33.544 Y45.911 B-175.57 F3000
G1 X-33.555 Y45.912 B-172.89 F3000
G1 X-33.556 Y45.913 B-167.52 F3000
G1 X-33.556 Y45.913 B-167.52 F3000
G1 Z10.000 F1000
G1 B-146.14 F2000
G0 X-33.556 Y45.913
G1 Z0.000 F1000
G1 X-33.556 Y45.913 B-146.14 F3000
G1 X-33.556 Y45.913 B-146.14 F3000
G1 Z10.000 F1000
G1 B-124.77 F2000
G0 X-33.556 Y45.913
G1 Z0.000 F1000
G1 X-33.556 Y45.913 B-124.77 F3000
G1 X-33.557 Y45.913 B-119.46 F3000
G1 X-33.561 Y45.924 B-114.11 F3000
G1 X-33.778 Y46.475 B-111.44 F3000
G1 X-33.798 Y46.520 B-114.27 F3000
G1 X-33.823 Y46.562 B-119.93 F3000
G1 X-33.851 Y46.602 B-125.58 F3000
G1 X-33.884 Y46.639 B-131.24 F3000
G1 X-33.920 Y46.673 B-136.89 F3000
G1 X-33.959 Y46.703 B-142.55 F3000
G1 X-34.001 Y46.729 B-148.21 F3000
G1 X-34.045 Y46.751 B-153.86 F3000
G1 X-34.091 Y46.768 B-159.52 F3000
G1 X-34.139 Y46.781 B-165.17 F3000
G1 X-34.188 Y46.789 B-170.83 F3000
G1 X-34.237 Y46.792 B-176.49 F3000
G1 X-34.286 Y46.790 B-182.14 F3000
G1 X-34.335 Y46.783 B-187.80 F3000
G1 X-34.383 Y46.772 B-193.45 F3000
G1 X-34.430 Y46.756 B-199.11 F3000
G1 X-34.475 Y46.735 B-204.77 F3000
G1 X-34.517 Y46.710 B-210.42 F3000
G1 X-34.557 Y46.681 B-216.08 F3000
G1 X-34.594 Y46.648 B-221.73 F3000
G1 X-34.627 Y46.612 B-227.39 F3000
G1 X-34.657 Y46.572 B-233.05 F3000
G1 X-34.683 Y46.530 B-238.70 F3000
G1 X-34.704 Y46.486 B-244.36 F3000
G1 X-34.721 Y46.439 B-250.01 F3000
G1 X-34.733 Y46.391 B-255.67 F3000
G1 X-34.813 Y46.000 B-258.50 F3000
G1 X-34.816 Y45.989 B-255.76 F3000
G1 X-34.816 Y45.988 B-250.26 F3000
G1 X-34.816 Y45.988 B-250.26 F3000
G1 Z10.000 F1000
G1 B-228.38 F2000
G0 X-34.816 Y45.988
G1 Z0.000 F1000
G1 X-34.816 Y45.988 B-228.38 F3000
G1 X-34.816 Y45.988 B-228.38 F3000
G1 Z10.000 F1000
G1 B-206.50 F2000
G0 X-34.816 Y45.988
G1 Z0.000 F1000
G1 X-34.816 Y45.988 B-206.50 F3000
G1 X-34.816 Y45.988 B-206.50 F3000
G1 Z10.000 F1000
G1 B-184.61 F2000
G0 X-34.816 Y45.988
G1 Z0.000 F1000
G1 X-34.817 Y45.988 B-184.61 F3000
G1 X-34.817 Y45.988 B-179.18 F3000
G1 X-34.829 Y45.989 B-173.71 F3000
G1 X-38.858 Y46.629 B-170.97 F3000
G1 X-38.870 Y46.632 B-168.09 F3000
G1 X-38.870 Y46.632 B-162.28 F3000
G1 X-38.870 Y46.632 B-162.28 F3000
G1 Z10.000 F1000
G1 B-139.20 F2000
G0 X-38.870 Y46.632
G1 Z0.000 F1000
G1 X-38.870 Y46.632 B-139.20 F3000
G1 X-38.870 Y46.632 B-139.20 F3000
G1 Z10.000 F1000
G1 B-116.12 F2000
G0 X-38.870 Y46.632
G1 Z0.000 F1000
G1 X-38.871 Y46.632 B-116.12 F3000
G1 X-38.871 Y46.632 B-110.38 F3000
G1 X-38.874 Y46.645 B-104.61 F3000
G1 X-40.267 Y53.357 B-101.72 F3000
G1 X-40.269 Y53.370 B-98.78 F3000
G1 X-40.269 Y53.383 B-92.93 F3000
G1 X-40.269 Y66.649 B-90.00 F3000
G1 X-40.269 Y66.649 B-90.00 F3000
G1 Z10.000 F1000
G1 B-180.00 F2000
G0 X-40.269 Y66.649
G1 Z0.000 F1000
G1 X-78.481 Y66.649 B-180.00 F3000
G1 X-78.481 Y66.649 B-180.00 F3000
G1 Z10.000 F1000
G1 B-270.00 F2000
G0 X-78.481 Y66.649
G1 Z0.000 F1000
G1 X-78.481 Y37.997 B-270.00 F3000
G1 X-78.481 Y37.997 B-270.00 F3000
G1 Z10.000 F1000
G1 B-180.00 F2000
G0 X-78.481 Y37.997
G1 Z0.000 F1000
G1 X-81.631 Y37.997 B-180.00 F3000
G1 X-81.631 Y37.997 B-180.00 F3000
G1 Z10.000 F1000
G1 B-90.00 F2000
G0 X-81.631 Y37.997
G1 Z0.000 F1000
G1 X-81.631 Y66.649 B-90.00 F3000
G1 X-81.631 Y66.649 B-90.00 F3000
G1 Z10.000 F1000
G1 B-180.00 F2000
G0 X-81.631 Y66.649
G1 Z0.000 F1000
G1 X-90.056 Y66.649 B-180.00 F3000
G1 X-90.056 Y66.649 B-180.00 F3000
G1 Z10.000 F1000
G1 B-270.00 F2000
G0 X-90.056 Y66.649
G1 Z0.000 F1000
G1 X-90.056 Y9.345 B-270.00 F3000
G1 X-90.056 Y9.345 B-270.00 F3000
G1 Z10.000 F1000
G1 B-360.00 F2000
G0 X-90.056 Y9.345
G1 Z0.000 F1000
G1 X77.624 Y9.345 B-360.00 F3000
G1 X77.624 Y9.345 B-360.00 F3000
G1 Z10.000 F1000
G1 B-450.00 F2000
G0 X77.624 Y9.345
G1 Z0.000 F1000
G1 X77.624 Y66.649 B-450.00 F3000
G1 X77.624 Y66.649 B-450.00 F3000
G1 Z10.000 F1000
G1 B-540.00 F2000
G0 X77.624 Y66.649
G1 Z0.000 F1000
G1 X69.199 Y66.649 B-540.00 F3000
G1 Z10.000 F1000
M5 (Stop Oscillation)
M9 (Lights OFF)

M2