(Generated by custom-packaging - grblHAL Multi-Axis)
M8 (Lights ON)

G21  (mm)
G90  (absolute)
G1 Z10.000 F1000
G1 B-0.00 F2000
G1 Z10.000 F1000
G1 B90.00 F2000
G1 Z10.000 F1000
G0 X63.806 Y-0.602
M3 S2000 (Start Oscillation)
G1 Z10.000 F1000
G1 B90.00 F2000
G0 X63.806 Y-0.602
G1 Z0.000 F1000
G1 X63.806 Y-30.254 B90.00 F3000
G1 X63.806 Y-30.254 B90.00 F3000
G1 Z10.000 F1000
G1 B180.00 F2000
G0 X63.806 Y-30.254
G1 Z0.000 F1000
G1 X60.656 Y-30.254 B180.00 F3000
G1 X60.656 Y-30.254 B180.00 F3000
G1 Z10.000 F1000
G1 B270.00 F2000
G0 X60.656 Y-30.254
G1 Z0.000 F1000
G1 X60.656 Y-0.602 B270.00 F3000
G1 X60.656 Y-0.602 B270.00 F3000
G1 Z10.000 F1000
G1 B180.00 F2000
G0 X60.656 Y-0.602
G1 Z0.000 F1000
G1 X14.579 Y-0.602 B180.00 F3000
G1 X14.579 Y-0.602 B180.00 F3000
G1 Z10.000 F1000
G1 B90.00 F2000
G0 X14.579 Y-0.602
G1 Z0.000 F1000
G1 X14.579 Y-30.254 B90.00 F3000
G1 X14.579 Y-30.254 B90.00 F3000
G1 Z10.000 F1000
G1 B180.00 F2000
G0 X14.579 Y-30.254
G1 Z0.000 F1000
G1 X11.429 Y-30.254 B180.00 F3000
G1 X11.429 Y-30.254 B180.00 F3000
G1 Z10.000 F1000
G1 B270.00 F2000
G0 X11.429 Y-30.254
G1 Z0.000 F1000
G1 X11.429 Y-0.602 B270.00 F3000
G1 X11.429 Y-0.602 B270.00 F3000
G1 Z10.000 F1000
G1 B180.00 F2000
G0 X11.429 Y-0.602
G1 Z0.000 F1000
G1 X-34.648 Y-0.602 B180.00 F3000
G1 X-34.648 Y-0.602 B180.00 F3000
G1 Z10.000 F1000
G1 B90.00 F2000
G0 X-34.648 Y-0.602
G1 Z0.000 F1000
G1 X-34.648 Y-30.254 B90.00 F3000
G1 X-34.648 Y-30.254 B90.00 F3000
G1 Z10.000 F1000
G1 B180.00 F2000
G0 X-34.648 Y-30.254
G1 Z0.000 F1000
G1 X-37.798 Y-30.254 B180.00 F3000
G1 X-37.798 Y-30.254 B180.00 F3000
G1 Z10.000 F1000
G1 B270.00 F2000
G0 X-37.798 Y-30.254
G1 Z0.000 F1000
G1 X-37.798 Y-0.602 B270.00 F3000
G1 X-37.798 Y-0.602 B270.00 F3000
G1 Z10.000 F1000
G1 B180.00 F2000
G0 X-37.798 Y-0.602
G1 Z0.000 F1000
G1 X-83.874 Y-0.602 B180.00 F3000
G1 X-83.874 Y-0.602 B180.00 F3000
G1 Z10.000 F1000
G1 B90.00 F2000
G0 X-83.874 Y-0.602
G1 Z0.000 F1000
G1 X-83.874 Y-30.254 B90.00 F3000
G1 X-83.874 Y-30.254 B90.00 F3000
G1 Z10.000 F1000
G1 B180.00 F2000
G0 X-83.874 Y-30.254
G1 Z0.000 F1000
G1 X-87.024 Y-30.254 B180.00 F3000
G1 X-87.024 Y-30.254 B180.00 F3000
G1 Z10.000 F1000
G1 B270.00 F2000
G0 X-87.024 Y-30.254
G1 Z0.000 F1000
G1 X-87.024 Y-0.602 B270.00 F3000
G1 X-87.024 Y-0.602 B270.00 F3000
G1 Z10.000 F1000
G1 B180.00 F2000
G0 X-87.024 Y-0.602
G1 Z0.000 F1000
G1 X-95.449 Y-0.602 B180.00 F3000
G1 X-95.449 Y-0.602 B180.00 F3000
G1 Z10.000 F1000
G1 B90.00 F2000
G0 X-95.449 Y-0.602
G1 Z0.000 F1000
G1 X-95.449 Y-59.906 B90.00 F3000
G1 X-95.449 Y-59.906 B90.00 F3000
G1 Z10.000 F1000
G1 B-0.00 F2000
G0 X-95.449 Y-59.906
G1 Z0.000 F1000
G1 X72.231 Y-59.906 B-0.00 F3000
G1 X72.231 Y-59.906 B-0.00 F3000
G1 Z10.000 F1000
G1 B-90.00 F2000
G0 X72.231 Y-59.906
G1 Z0.000 F1000
G1 X72.231 Y-0.602 B-90.00 F3000
G1 X72.231 Y-0.602 B-90.00 F3000
G1 Z10.000 F1000
G1 B-180.00 F2000
G0 X72.231 Y-0.602
G1 Z0.000 F1000
G1 X63.806 Y-0.602 B-180.00 F3000
G1 Z10.000 F1000
G1 Z10.000 F1000
G0 X-95.599 Y66.837
G1 Z10.000 F1000
G1 B-270.00 F2000
G0 X-95.599 Y66.837
G1 Z0.000 F1000
G1 X-95.599 Y9.532 B-270.00 F3000
G1 X-95.599 Y9.532 B-270.00 F3000
G1 Z10.000 F1000
G1 B-360.00 F2000
G0 X-95.599 Y9.532
G1 Z0.000 F1000
G1 X-87.174 Y9.532 B-360.00 F3000
G1 X-87.174 Y9.532 B-360.00 F3000
G1 Z10.000 F1000
G1 B-450.00 F2000
G0 X-87.174 Y9.532
G1 Z0.000 F1000
G1 X-87.174 Y38.184 B-450.00 F3000
G1 X-87.174 Y38.184 B-450.00 F3000
G1 Z10.000 F1000
G1 B-360.00 F2000
G0 X-87.174 Y38.184
G1 Z0.000 F1000
G1 X-84.024 Y38.184 B-360.00 F3000
G1 X-84.024 Y38.184 B-360.00 F3000
G1 Z10.000 F1000
G1 B-270.00 F2000
G0 X-84.024 Y38.184
G1 Z0.000 F1000
G1 X-84.024 Y9.532 B-270.00 F3000
G1 X-84.024 Y9.532 B-270.00 F3000
G1 Z10.000 F1000
G1 B-360.00 F2000
G0 X-84.024 Y9.532
G1 Z0.000 F1000
G1 X-82.975 Y9.532 B-360.00 F3000
G1 X-82.975 Y9.532 B-360.00 F3000
G1 Z10.000 F1000
G1 B-412.19 F2000
G0 X-82.975 Y9.532
G1 Z0.000 F1000
G1 X-72.672 Y22.811 B-412.19 F3000
G1 X-72.663 Y22.821 B-409.07 F3000
G1 X-72.653 Y22.830 B-402.88 F3000
G1 X-63.863 Y30.148 B-399.78 F3000
G1 X-63.853 Y30.156 B-396.86 F3000
G1 X-63.842 Y30.162 B-391.08 F3000
G1 X-57.715 Y33.444 B-388.18 F3000
G1 X-57.699 Y33.451 B-384.29 F3000
G1 X-57.683 Y33.456 B-376.59 F3000
G1 X-42.463 Y36.893 B-372.72 F3000
G1 X-42.456 Y36.894 B-371.02 F3000
G1 X-42.449 Y36.895 B-367.65 F3000
G1 X-37.947 Y37.365 B-365.95 F3000
G1 X-37.947 Y37.365 B-365.95 F3000
G1 Z10.000 F1000
G1 B-450.00 F2000
G0 X-37.947 Y37.365
G1 Z0.000 F1000
G1 X-37.947 Y52.183 B-450.00 F3000
G1 X-37.947 Y52.183 B-450.00 F3000
G1 Z10.000 F1000
G1 B-360.00 F2000
G0 X-37.947 Y52.183
G1 Z0.000 F1000
G1 X-34.797 Y52.183 B-360.00 F3000
G1 X-34.797 Y52.183 B-360.00 F3000
G1 Z10.000 F1000
G1 B-270.00 F2000
G0 X-34.797 Y52.183
G1 Z0.000 F1000
G1 X-34.797 Y37.693 B-270.00 F3000
G1 X-34.797 Y37.693 B-270.00 F3000
G1 Z10.000 F1000
G1 B-365.95 F2000
G0 X-34.797 Y37.693
G1 Z0.000 F1000
G1 X-26.102 Y38.600 B-365.95 F3000
G1 X-26.094 Y38.600 B-364.16 F3000
G1 X-26.086 Y38.601 B-360.61 F3000
G1 X-19.106 Y38.458 B-358.83 F3000
G1 X-19.101 Y38.458 B-357.75 F3000
G1 X-19.096 Y38.457 B-355.62 F3000
G1 X11.279 Y35.561 B-354.55 F3000
G1 X11.279 Y35.561 B-354.55 F3000
G1 Z10.000 F1000
G1 B-450.00 F2000
G0 X11.279 Y35.561
G1 Z0.000 F1000
G1 X11.279 Y51.025 B-450.00 F3000
G1 X11.279 Y51.025 B-450.00 F3000
G1 Z10.000 F1000
G1 B-360.00 F2000
G0 X11.279 Y51.025
G1 Z0.000 F1000
G1 X14.429 Y51.025 B-360.00 F3000
G1 X14.429 Y51.025 B-360.00 F3000
G1 Z10.000 F1000
G1 B-270.00 F2000
G0 X14.429 Y51.025
G1 Z0.000 F1000
G1 X14.429 Y34.173 B-270.00 F3000
G1 X14.429 Y34.173 B-270.00 F3000
G1 Z10.000 F1000
G1 B-326.56 F2000
G0 X14.429 Y34.173
G1 Z0.000 F1000
G1 X24.694 Y27.395 B-326.56 F3000
G1 X24.733 Y27.372 B-329.20 F3000
G1 X24.775 Y27.352 B-334.47 F3000
G1 X24.818 Y27.336 B-339.75 F3000
G1 X24.862 Y27.324 B-345.03 F3000
G1 X24.908 Y27.316 B-350.30 F3000
G1 X24.954 Y27.313 B-355.58 F3000
G1 X27.037 Y27.248 B-358.22 F3000
G1 X27.048 Y27.247 B-355.57 F3000
G1 X27.049 Y27.247 B-350.36 F3000
G1 X27.049 Y27.247 B-350.36 F3000
G1 Z10.000 F1000
G1 B-329.21 F2000
G0 X27.049 Y27.247
G1 Z0.000 F1000
G1 X27.049 Y27.247 B-329.21 F3000
G1 X27.049 Y27.247 B-329.21 F3000
G1 Z10.000 F1000
G1 B-307.95 F2000
G0 X27.049 Y27.247
G1 Z0.000 F1000
G1 X27.049 Y27.246 B-307.95 F3000
G1 X27.049 Y27.246 B-302.69 F3000
G1 X27.055 Y27.236 B-297.41 F3000
G1 X27.505 Y26.260 B-294.76 F3000
G1 X27.529 Y26.215 B-297.70 F3000
G1 X27.557 Y26.172 B-303.58 F3000
G1 X27.590 Y26.133 B-309.46 F3000
G1 X27.626 Y26.097 B-315.33 F3000
G1 X27.666 Y26.064 B-321.21 F3000
G1 X27.709 Y26.037 B-327.09 F3000
G1 X27.755 Y26.013 B-332.96 F3000
G1 X27.803 Y25.995 B-338.84 F3000
G1 X27.852 Y25.981 B-344.72 F3000
G1 X32.995 Y24.856 B-347.65 F3000
G1 X33.040 Y24.848 B-350.32 F3000
G1 X33.087 Y24.844 B-355.64 F3000
G1 X33.133 Y24.845 B-360.96 F3000
G1 X40.997 Y25.343 B-363.62 F3000
G1 X41.034 Y25.347 B-365.76 F3000
G1 X41.071 Y25.353 B-370.04 F3000
G1 X44.747 Y26.146 B-372.17 F3000
G1 X44.797 Y26.160 B-375.09 F3000
G1 X44.844 Y26.178 B-380.93 F3000
G1 X44.890 Y26.201 B-386.77 F3000
G1 X44.933 Y26.228 B-392.61 F3000
G1 X44.972 Y26.260 B-398.45 F3000
G1 X45.009 Y26.295 B-404.29 F3000
G1 X45.042 Y26.334 B-410.13 F3000
G1 X45.070 Y26.377 B-415.97 F3000
G1 X45.094 Y26.422 B-421.81 F3000
G1 X45.114 Y26.469 B-427.65 F3000
G1 X45.128 Y26.518 B-433.49 F3000
G1 X45.137 Y26.568 B-439.33 F3000
G1 X45.228 Y27.235 B-442.25 F3000
G1 X45.230 Y27.246 B-439.68 F3000
G1 X45.230 Y27.246 B-434.53 F3000
G1 X45.230 Y27.246 B-434.53 F3000
G1 Z10.000 F1000
G1 B-413.97 F2000
G0 X45.230 Y27.246
G1 Z0.000 F1000
G1 X45.231 Y27.247 B-413.97 F3000
G1 X45.231 Y27.247 B-413.97 F3000
G1 Z10.000 F1000
G1 B-393.41 F2000
G0 X45.231 Y27.247
G1 Z0.000 F1000
G1 X45.231 Y27.247 B-393.41 F3000
G1 X45.231 Y27.247 B-393.41 F3000
G1 Z10.000 F1000
G1 B-372.82 F2000
G0 X45.231 Y27.247
G1 Z0.000 F1000
G1 X45.231 Y27.247 B-372.82 F3000
G1 X45.231 Y27.247 B-367.71 F3000
G1 X45.243 Y27.248 B-362.57 F3000
G1 X53.468 Y27.248 B-360.00 F3000
G1 X53.480 Y27.247 B-357.31 F3000
G1 X53.480 Y27.247 B-351.89 F3000
G1 X53.480 Y27.247 B-351.89 F3000
G1 Z10.000 F1000
G1 B-330.34 F2000
G0 X53.480 Y27.247
G1 Z0.000 F1000
G1 X53.480 Y27.247 B-330.34 F3000
G1 X53.480 Y27.247 B-330.34 F3000
G1 Z10.000 F1000
G1 B-308.79 F2000
G0 X53.480 Y27.247
G1 Z0.000 F1000
G1 X53.481 Y27.246 B-308.79 F3000
G1 X53.481 Y27.246 B-308.79 F3000
G1 Z10.000 F1000
G1 B-287.25 F2000
G0 X53.481 Y27.246
G1 Z0.000 F1000
G1 X53.481 Y27.246 B-287.25 F3000
G1 X53.481 Y27.246 B-281.89 F3000
G1 X53.482 Y27.234 B-276.51 F3000
G1 X53.547 Y26.263 B-273.81 F3000
G1 X53.552 Y26.215 B-276.60 F3000
G1 X53.563 Y26.168 B-282.17 F3000
G1 X53.577 Y26.121 B-287.75 F3000
G1 X53.597 Y26.077 B-293.32 F3000
G1 X53.620 Y26.034 B-298.89 F3000
G1 X53.648 Y25.994 B-304.47 F3000
G1 X53.679 Y25.957 B-310.04 F3000
G1 X53.714 Y25.923 B-315.62 F3000
G1 X53.752 Y25.892 B-321.19 F3000
G1 X53.792 Y25.866 B-326.76 F3000
G1 X53.835 Y25.843 B-332.34 F3000
G1 X53.880 Y25.825 B-337.91 F3000
G1 X53.927 Y25.811 B-343.48 F3000
G1 X53.975 Y25.802 B-349.06 F3000
G1 X54.023 Y25.797 B-354.63 F3000
G1 X54.072 Y25.797 B-360.21 F3000
G1 X54.120 Y25.802 B-365.78 F3000
G1 X54.168 Y25.812 B-371.35 F3000
G1 X54.214 Y25.826 B-376.93 F3000
G1 X54.259 Y25.845 B-382.50 F3000
G1 X54.302 Y25.868 B-388.07 F3000
G1 X54.343 Y25.894 B-393.65 F3000
G1 X54.380 Y25.925 B-399.22 F3000
G1 X54.415 Y25.959 B-404.79 F3000
G1 X54.446 Y25.997 B-410.37 F3000
G1 X54.473 Y26.037 B-415.94 F3000
G1 X54.496 Y26.080 B-421.52 F3000
G1 X54.515 Y26.125 B-427.09 F3000
G1 X54.530 Y26.171 B-432.66 F3000
G1 X54.540 Y26.219 B-438.24 F3000
G1 X54.545 Y26.267 B-443.81 F3000
G1 X54.599 Y27.181 B-446.60 F3000
G1 X54.601 Y27.193 B-443.64 F3000
G1 X54.601 Y27.194 B-437.68 F3000
G1 X54.601 Y27.194 B-437.68 F3000
G1 Z10.000 F1000
G1 B-414.00 F2000
G0 X54.601 Y27.194
G1 Z0.000 F1000
G1 X54.601 Y27.194 B-414.00 F3000
G1 X54.601 Y27.194 B-414.00 F3000
G1 Z10.000 F1000
G1 B-390.32 F2000
G0 X54.601 Y27.194
G1 Z0.000 F1000
G1 X54.601 Y27.194 B-390.32 F3000
G1 X54.601 Y27.194 B-390.32 F3000
G1 Z10.000 F1000
G1 B-366.64 F2000
G0 X54.601 Y27.194
G1 Z0.000 F1000
G1 X54.601 Y27.194 B-366.64 F3000
G1 X54.602 Y27.194 B-360.76 F3000
G1 X54.614 Y27.193 B-354.84 F3000
G1 X56.685 Y26.898 B-351.88 F3000
G1 X56.697 Y26.895 B-349.07 F3000
G1 X56.697 Y26.895 B-349.07 F3000
G1 Z10.000 F1000
G1 B-337.81 F2000
G0 X56.697 Y26.895
G1 Z0.000 F1000
G1 X56.698 Y26.895 B-337.81 F3000
G1 X56.698 Y26.895 B-332.24 F3000
G1 X56.698 Y26.895 B-332.24 F3000
G1 Z10.000 F1000
G1 B-321.03 F2000
G0 X56.698 Y26.895
G1 Z0.000 F1000
G1 X56.707 Y26.887 B-321.03 F3000
G1 X57.806 Y25.906 B-318.22 F3000
G1 X57.815 Y25.896 B-315.21 F3000
G1 X57.816 Y25.896 B-309.14 F3000
G1 X57.816 Y25.896 B-309.14 F3000
G1 Z10.000 F1000
G1 B-285.03 F2000
G0 X57.816 Y25.896
G1 Z0.000 F1000
G1 X57.816 Y25.896 B-285.03 F3000
G1 X57.816 Y25.896 B-279.04 F3000
G1 X57.817 Y25.883 B-273.01 F3000
G1 X57.817 Y9.532 B-270.00 F3000
G1 X57.817 Y9.532 B-270.00 F3000
G1 Z10.000 F1000
G1 B-360.00 F2000
G0 X57.817 Y9.532
G1 Z0.000 F1000
G1 X60.506 Y9.532 B-360.00 F3000
G1 X60.506 Y9.532 B-360.00 F3000
G1 Z10.000 F1000
G1 B-450.00 F2000
G0 X60.506 Y9.532
G1 Z0.000 F1000
G1 X60.506 Y38.184 B-450.00 F3000
G1 X60.506 Y38.184 B-450.00 F3000
G1 Z10.000 F1000
G1 B-360.00 F2000
G0 X60.506 Y38.184
G1 Z0.000 F1000
G1 X63.656 Y38.184 B-360.00 F3000
G1 X63.656 Y38.184 B-360.00 F3000
G1 Z10.000 F1000
G1 B-270.00 F2000
G0 X63.656 Y38.184
G1 Z0.000 F1000
G1 X63.656 Y9.532 B-270.00 F3000
G1 X63.656 Y9.532 B-270.00 F3000
G1 Z10.000 F1000
G1 B-360.00 F2000
G0 X63.656 Y9.532
G1 Z0.000 F1000
G1 X72.081 Y9.532 B-360.00 F3000
G1 X72.081 Y9.532 B-360.00 F3000
G1 Z10.000 F1000
G1 B-450.00 F2000
G0 X72.081 Y9.532
G1 Z0.000 F1000
G1 X72.081 Y66.837 B-450.00 F3000
G1 X72.081 Y66.837 B-450.00 F3000
G1 Z10.000 F1000
G1 B-540.00 F2000
G0 X72.081 Y66.837
G1 Z0.000 F1000
G1 X-95.599 Y66.837 B-540.00 F3000
G1 Z10.000 F1000
M5 (Stop Oscillation)
M9 (Lights OFF)

M2