(Generated by custom-packaging - grblHAL Multi-Axis)
M8 (Lights ON)

G21  (mm)
G90  (absolute)
G1 Z10.000 F1000
G1 B-0.00 F2000
G1 Z10.000 F1000
G1 B90.00 F2000
G1 Z10.000 F1000
G0 X74.801 Y-4.497
M3 S2000 (Start Oscillation)
G1 Z10.000 F1000
G1 B90.00 F2000
G0 X74.801 Y-4.497
G1 Z0.000 F1000
G1 X74.801 Y-34.149 B90.00 F3000
G1 X74.801 Y-34.149 B90.00 F3000
G1 Z10.000 F1000
G1 B180.00 F2000
G0 X74.801 Y-34.149
G1 Z0.000 F1000
G1 X71.651 Y-34.149 B180.00 F3000
G1 X71.651 Y-34.149 B180.00 F3000
G1 Z10.000 F1000
G1 B270.00 F2000
G0 X71.651 Y-34.149
G1 Z0.000 F1000
G1 X71.651 Y-4.497 B270.00 F3000
G1 X71.651 Y-4.497 B270.00 F3000
G1 Z10.000 F1000
G1 B180.00 F2000
G0 X71.651 Y-4.497
G1 Z0.000 F1000
G1 X54.368 Y-4.497 B180.00 F3000
G1 X54.368 Y-4.497 B180.00 F3000
G1 Z10.000 F1000
G1 B90.00 F2000
G0 X54.368 Y-4.497
G1 Z0.000 F1000
G1 X54.368 Y-34.149 B90.00 F3000
G1 X54.368 Y-34.149 B90.00 F3000
G1 Z10.000 F1000
G1 B180.00 F2000
G0 X54.368 Y-34.149
G1 Z0.000 F1000
G1 X51.218 Y-34.149 B180.00 F3000
G1 X51.218 Y-34.149 B180.00 F3000
G1 Z10.000 F1000
G1 B270.00 F2000
G0 X51.218 Y-34.149
G1 Z0.000 F1000
G1 X51.218 Y-4.497 B270.00 F3000
G1 X51.218 Y-4.497 B270.00 F3000
G1 Z10.000 F1000
G1 B180.00 F2000
G0 X51.218 Y-4.497
G1 Z0.000 F1000
G1 X33.936 Y-4.497 B180.00 F3000
G1 X33.936 Y-4.497 B180.00 F3000
G1 Z10.000 F1000
G1 B90.00 F2000
G0 X33.936 Y-4.497
G1 Z0.000 F1000
G1 X33.936 Y-34.149 B90.00 F3000
G1 X33.936 Y-34.149 B90.00 F3000
G1 Z10.000 F1000
G1 B180.00 F2000
G0 X33.936 Y-34.149
G1 Z0.000 F1000
G1 X30.786 Y-34.149 B180.00 F3000
G1 X30.786 Y-34.149 B180.00 F3000
G1 Z10.000 F1000
G1 B270.00 F2000
G0 X30.786 Y-34.149
G1 Z0.000 F1000
G1 X30.786 Y-4.497 B270.00 F3000
G1 X30.786 Y-4.497 B270.00 F3000
G1 Z10.000 F1000
G1 B180.00 F2000
G0 X30.786 Y-4.497
G1 Z0.000 F1000
G1 X13.504 Y-4.497 B180.00 F3000
G1 X13.504 Y-4.497 B180.00 F3000
G1 Z10.000 F1000
G1 B90.00 F2000
G0 X13.504 Y-4.497
G1 Z0.000 F1000
G1 X13.504 Y-34.149 B90.00 F3000
G1 X13.504 Y-34.149 B90.00 F3000
G1 Z10.000 F1000
G1 B180.00 F2000
G0 X13.504 Y-34.149
G1 Z0.000 F1000
G1 X10.354 Y-34.149 B180.00 F3000
G1 X10.354 Y-34.149 B180.00 F3000
G1 Z10.000 F1000
G1 B270.00 F2000
G0 X10.354 Y-34.149
G1 Z0.000 F1000
G1 X10.354 Y-4.497 B270.00 F3000
G1 X10.354 Y-4.497 B270.00 F3000
G1 Z10.000 F1000
G1 B180.00 F2000
G0 X10.354 Y-4.497
G1 Z0.000 F1000
G1 X1.929 Y-4.497 B180.00 F3000
G1 X1.929 Y-4.497 B180.00 F3000
G1 Z10.000 F1000
G1 B90.00 F2000
G0 X1.929 Y-4.497
G1 Z0.000 F1000
G1 X1.929 Y-63.801 B90.00 F3000
G1 X1.929 Y-63.801 B90.00 F3000
G1 Z10.000 F1000
G1 B-0.00 F2000
G0 X1.929 Y-63.801
G1 Z0.000 F1000
G1 X83.226 Y-63.801 B-0.00 F3000
G1 X83.226 Y-63.801 B-0.00 F3000
G1 Z10.000 F1000
G1 B-90.00 F2000
G0 X83.226 Y-63.801
G1 Z0.000 F1000
G1 X83.226 Y-4.497 B-90.00 F3000
G1 X83.226 Y-4.497 B-90.00 F3000
G1 Z10.000 F1000
G1 B-180.00 F2000
G0 X83.226 Y-4.497
G1 Z0.000 F1000
G1 X74.801 Y-4.497 B-180.00 F3000
G1 Z10.000 F1000
G1 Z10.000 F1000
G0 X-16.398 Y-5.785
G1 Z10.000 F1000
G1 B-270.00 F2000
G0 X-16.398 Y-5.785
G1 Z0.000 F1000
G1 X-16.398 Y-34.437 B-270.00 F3000
G1 X-16.398 Y-34.437 B-270.00 F3000
G1 Z10.000 F1000
G1 B-180.00 F2000
G0 X-16.398 Y-34.437
G1 Z0.000 F1000
G1 X-19.548 Y-34.437 B-180.00 F3000
G1 X-19.548 Y-34.437 B-180.00 F3000
G1 Z10.000 F1000
G1 B-90.00 F2000
G0 X-19.548 Y-34.437
G1 Z0.000 F1000
G1 X-19.548 Y-5.785 B-90.00 F3000
G1 X-19.548 Y-5.785 B-90.00 F3000
G1 Z10.000 F1000
G1 B-180.00 F2000
G0 X-19.548 Y-5.785
G1 Z0.000 F1000
G1 X-33.603 Y-5.785 B-180.00 F3000
G1 X-33.603 Y-5.785 B-180.00 F3000
G1 Z10.000 F1000
G1 B-270.00 F2000
G0 X-33.603 Y-5.785
G1 Z0.000 F1000
G1 X-33.603 Y-16.895 B-270.00 F3000
G1 X-33.603 Y-16.905 B-267.91 F3000
G1 X-33.604 Y-16.914 B-263.76 F3000
G1 X-34.957 Y-26.161 B-261.68 F3000
G1 X-34.959 Y-26.173 B-258.67 F3000
G1 X-34.959 Y-26.174 B-252.61 F3000
G1 X-34.959 Y-26.174 B-252.61 F3000
G1 Z10.000 F1000
G1 B-228.51 F2000
G0 X-34.959 Y-26.174
G1 Z0.000 F1000
G1 X-34.960 Y-26.174 B-228.51 F3000
G1 X-34.960 Y-26.174 B-228.51 F3000
G1 Z10.000 F1000
G1 B-204.41 F2000
G0 X-34.960 Y-26.174
G1 Z0.000 F1000
G1 X-34.960 Y-26.174 B-204.41 F3000
G1 X-34.960 Y-26.174 B-198.42 F3000
G1 X-34.973 Y-26.177 B-192.40 F3000
G1 X-36.504 Y-26.430 B-189.39 F3000
G1 X-36.517 Y-26.432 B-186.45 F3000
G1 X-36.517 Y-26.432 B-180.56 F3000
G1 X-36.517 Y-26.432 B-180.56 F3000
G1 Z10.000 F1000
G1 B-157.11 F2000
G0 X-36.517 Y-26.432
G1 Z0.000 F1000
G1 X-36.517 Y-26.431 B-157.11 F3000
G1 X-36.518 Y-26.431 B-151.28 F3000
G1 X-36.529 Y-26.424 B-145.42 F3000
G1 X-36.569 Y-26.399 B-148.14 F3000
G1 X-36.612 Y-26.377 B-153.60 F3000
G1 X-36.656 Y-26.360 B-159.05 F3000
G1 X-36.702 Y-26.348 B-164.51 F3000
G1 X-36.749 Y-26.339 B-169.96 F3000
G1 X-36.796 Y-26.336 B-175.42 F3000
G1 X-36.830 Y-26.336 B-180.87 F3000
G1 X-36.830 Y-26.336 B-180.87 F3000
G1 Z10.000 F1000
G1 B-270.00 F2000
G0 X-36.830 Y-26.336
G1 Z0.000 F1000
G1 X-36.830 Y-44.922 B-270.00 F3000
G1 X-36.830 Y-44.922 B-270.00 F3000
G1 Z10.000 F1000
G1 B-180.00 F2000
G0 X-36.830 Y-44.922
G1 Z0.000 F1000
G1 X-39.980 Y-44.922 B-180.00 F3000
G1 X-39.980 Y-44.922 B-180.00 F3000
G1 Z10.000 F1000
G1 B-90.00 F2000
G0 X-39.980 Y-44.922
G1 Z0.000 F1000
G1 X-39.980 Y-27.064 B-90.00 F3000
G1 X-39.980 Y-27.064 B-90.00 F3000
G1 Z10.000 F1000
G1 B-191.15 F2000
G0 X-39.980 Y-27.064
G1 Z0.000 F1000
G1 X-44.965 Y-28.047 B-191.15 F3000
G1 X-45.022 Y-28.061 B-194.55 F3000
G1 X-54.338 Y-31.079 B-197.95 F3000
G1 X-54.351 Y-31.082 B-194.97 F3000
G1 X-54.364 Y-31.084 B-189.08 F3000
G1 X-57.262 Y-31.395 B-186.12 F3000
G1 X-57.262 Y-31.395 B-186.12 F3000
G1 Z10.000 F1000
G1 B-270.00 F2000
G0 X-57.262 Y-31.395
G1 Z0.000 F1000
G1 X-57.262 Y-47.327 B-270.00 F3000
G1 X-57.262 Y-47.327 B-270.00 F3000
G1 Z10.000 F1000
G1 B-180.00 F2000
G0 X-57.262 Y-47.327
G1 Z0.000 F1000
G1 X-60.412 Y-47.327 B-180.00 F3000
G1 X-60.412 Y-47.327 B-180.00 F3000
G1 Z10.000 F1000
G1 B-90.00 F2000
G0 X-60.412 Y-47.327
G1 Z0.000 F1000
G1 X-60.412 Y-31.486 B-90.00 F3000
G1 X-60.412 Y-31.486 B-90.00 F3000
G1 Z10.000 F1000
G1 B-168.02 F2000
G0 X-60.412 Y-31.486
G1 Z0.000 F1000
G1 X-67.629 Y-29.954 B-168.02 F3000
G1 X-67.640 Y-29.951 B-165.54 F3000
G1 X-67.640 Y-29.951 B-155.58 F3000
G1 X-67.640 Y-29.951 B-152.51 F3000
G1 X-67.640 Y-29.951 B-152.51 F3000
G1 Z10.000 F1000
G1 B-140.74 F2000
G0 X-67.640 Y-29.951
G1 Z0.000 F1000
G1 X-67.649 Y-29.944 B-140.74 F3000
G1 X-71.157 Y-26.814 B-138.26 F3000
G1 X-71.165 Y-26.806 B-135.63 F3000
G1 X-71.165 Y-26.806 B-135.63 F3000
G1 Z10.000 F1000
G1 B-125.07 F2000
G0 X-71.165 Y-26.806
G1 Z0.000 F1000
G1 X-71.166 Y-26.805 B-125.07 F3000
G1 X-71.166 Y-26.805 B-122.29 F3000
G1 X-71.166 Y-26.805 B-122.29 F3000
G1 Z10.000 F1000
G1 B-109.35 F2000
G0 X-71.166 Y-26.805
G1 Z0.000 F1000
G1 X-71.169 Y-26.795 B-109.35 F3000
G1 X-73.731 Y-18.269 B-106.72 F3000
G1 X-73.744 Y-18.230 B-109.09 F3000
G1 X-73.761 Y-18.192 B-113.84 F3000
G1 X-77.695 Y-10.201 B-116.21 F3000
G1 X-77.695 Y-10.201 B-116.21 F3000
G1 Z10.000 F1000
G1 B-270.00 F2000
G0 X-77.695 Y-10.201
G1 Z0.000 F1000
G1 X-77.695 Y-34.437 B-270.00 F3000
G1 X-77.695 Y-34.437 B-270.00 F3000
G1 Z10.000 F1000
G1 B-180.00 F2000
G0 X-77.695 Y-34.437
G1 Z0.000 F1000
G1 X-80.845 Y-34.437 B-180.00 F3000
G1 X-80.845 Y-34.437 B-180.00 F3000
G1 Z10.000 F1000
G1 B-90.00 F2000
G0 X-80.845 Y-34.437
G1 Z0.000 F1000
G1 X-80.845 Y-5.785 B-90.00 F3000
G1 X-80.845 Y-5.785 B-90.00 F3000
G1 Z10.000 F1000
G1 B-180.00 F2000
G0 X-80.845 Y-5.785
G1 Z0.000 F1000
G1 X-89.270 Y-5.785 B-180.00 F3000
G1 X-89.270 Y-5.785 B-180.00 F3000
G1 Z10.000 F1000
G1 B-270.00 F2000
G0 X-89.270 Y-5.785
G1 Z0.000 F1000
G1 X-89.270 Y-63.090 B-270.00 F3000
G1 X-89.270 Y-63.090 B-270.00 F3000
G1 Z10.000 F1000
G1 B-360.00 F2000
G0 X-89.270 Y-63.090
G1 Z0.000 F1000
G1 X-7.973 Y-63.090 B-360.00 F3000
G1 X-7.973 Y-63.090 B-360.00 F3000
G1 Z10.000 F1000
G1 B-450.00 F2000
G0 X-7.973 Y-63.090
G1 Z0.000 F1000
G1 X-7.973 Y-5.785 B-450.00 F3000
G1 X-7.973 Y-5.785 B-450.00 F3000
G1 Z10.000 F1000
G1 B-540.00 F2000
G0 X-7.973 Y-5.785
G1 Z0.000 F1000
G1 X-16.398 Y-5.785 B-540.00 F3000
G1 Z10.000 F1000
G1 Z10.000 F1000
G0 X-90.543 Y64.754
G1 Z10.000 F1000
G1 B-630.00 F2000
G0 X-90.543 Y64.754
G1 Z0.000 F1000
G1 X-90.543 Y5.449 B-630.00 F3000
G1 X-90.543 Y5.449 B-630.00 F3000
G1 Z10.000 F1000
G1 B-720.00 F2000
G0 X-90.543 Y5.449
G1 Z0.000 F1000
G1 X-82.118 Y5.449 B-720.00 F3000
G1 X-82.118 Y5.449 B-720.00 F3000
G1 Z10.000 F1000
G1 B-810.00 F2000
G0 X-82.118 Y5.449
G1 Z0.000 F1000
G1 X-82.118 Y35.102 B-810.00 F3000
G1 X-82.118 Y35.102 B-810.00 F3000
G1 Z10.000 F1000
G1 B-720.00 F2000
G0 X-82.118 Y35.102
G1 Z0.000 F1000
G1 X-78.968 Y35.102 B-720.00 F3000
G1 X-78.968 Y35.102 B-720.00 F3000
G1 Z10.000 F1000
G1 B-630.00 F2000
G0 X-78.968 Y35.102
G1 Z0.000 F1000
G1 X-78.968 Y5.449 B-630.00 F3000
G1 X-78.968 Y5.449 B-630.00 F3000
G1 Z10.000 F1000
G1 B-720.00 F2000
G0 X-78.968 Y5.449
G1 Z0.000 F1000
G1 X-61.686 Y5.449 B-720.00 F3000
G1 X-61.686 Y5.449 B-720.00 F3000
G1 Z10.000 F1000
G1 B-810.00 F2000
G0 X-61.686 Y5.449
G1 Z0.000 F1000
G1 X-61.686 Y35.102 B-810.00 F3000
G1 X-61.686 Y35.102 B-810.00 F3000
G1 Z10.000 F1000
G1 B-720.00 F2000
G0 X-61.686 Y35.102
G1 Z0.000 F1000
G1 X-58.536 Y35.102 B-720.00 F3000
G1 X-58.536 Y35.102 B-720.00 F3000
G1 Z10.000 F1000
G1 B-630.00 F2000
G0 X-58.536 Y35.102
G1 Z0.000 F1000
G1 X-58.536 Y5.449 B-630.00 F3000
G1 X-58.536 Y5.449 B-630.00 F3000
G1 Z10.000 F1000
G1 B-720.00 F2000
G0 X-58.536 Y5.449
G1 Z0.000 F1000
G1 X-41.254 Y5.449 B-720.00 F3000
G1 X-41.254 Y5.449 B-720.00 F3000
G1 Z10.000 F1000
G1 B-810.00 F2000
G0 X-41.254 Y5.449
G1 Z0.000 F1000
G1 X-41.254 Y35.102 B-810.00 F3000
G1 X-41.254 Y35.102 B-810.00 F3000
G1 Z10.000 F1000
G1 B-720.00 F2000
G0 X-41.254 Y35.102
G1 Z0.000 F1000
G1 X-38.104 Y35.102 B-720.00 F3000
G1 X-38.104 Y35.102 B-720.00 F3000
G1 Z10.000 F1000
G1 B-630.00 F2000
G0 X-38.104 Y35.102
G1 Z0.000 F1000
G1 X-38.104 Y5.449 B-630.00 F3000
G1 X-38.104 Y5.449 B-630.00 F3000
G1 Z10.000 F1000
G1 B-720.00 F2000
G0 X-38.104 Y5.449
G1 Z0.000 F1000
G1 X-20.821 Y5.449 B-720.00 F3000
G1 X-20.821 Y5.449 B-720.00 F3000
G1 Z10.000 F1000
G1 B-810.00 F2000
G0 X-20.821 Y5.449
G1 Z0.000 F1000
G1 X-20.821 Y35.102 B-810.00 F3000
G1 X-20.821 Y35.102 B-810.00 F3000
G1 Z10.000 F1000
G1 B-720.00 F2000
G0 X-20.821 Y35.102
G1 Z0.000 F1000
G1 X-17.671 Y35.102 B-720.00 F3000
G1 X-17.671 Y35.102 B-720.00 F3000
G1 Z10.000 F1000
G1 B-630.00 F2000
G0 X-17.671 Y35.102
G1 Z0.000 F1000
G1 X-17.671 Y5.449 B-630.00 F3000
G1 X-17.671 Y5.449 B-630.00 F3000
G1 Z10.000 F1000
G1 B-720.00 F2000
G0 X-17.671 Y5.449
G1 Z0.000 F1000
G1 X-9.246 Y5.449 B-720.00 F3000
G1 X-9.246 Y5.449 B-720.00 F3000
G1 Z10.000 F1000
G1 B-810.00 F2000
G0 X-9.246 Y5.449
G1 Z0.000 F1000
G1 X-9.246 Y64.754 B-810.00 F3000
G1 X-9.246 Y64.754 B-810.00 F3000
G1 Z10.000 F1000
G1 B-900.00 F2000
G0 X-9.246 Y64.754
G1 Z0.000 F1000
G1 X-90.543 Y64.754 B-900.00 F3000
G1 Z10.000 F1000
G1 Z10.000 F1000
G0 X2.603 Y63.503
G1 Z10.000 F1000
G1 B-990.00 F2000
G0 X2.603 Y63.503
G1 Z0.000 F1000
G1 X2.603 Y6.199 B-990.00 F3000
G1 X2.603 Y6.199 B-990.00 F3000
G1 Z10.000 F1000
G1 B-1080.00 F2000
G0 X2.603 Y6.199
G1 Z0.000 F1000
G1 X11.028 Y6.199 B-1080.00 F3000
G1 X11.028 Y6.199 B-1080.00 F3000
G1 Z10.000 F1000
G1 B-1170.00 F2000
G0 X11.028 Y6.199
G1 Z0.000 F1000
G1 X11.028 Y34.851 B-1170.00 F3000
G1 X11.028 Y34.851 B-1170.00 F3000
G1 Z10.000 F1000
G1 B-1080.00 F2000
G0 X11.028 Y34.851
G1 Z0.000 F1000
G1 X14.178 Y34.851 B-1080.00 F3000
G1 X14.178 Y34.851 B-1080.00 F3000
G1 Z10.000 F1000
G1 B-990.00 F2000
G0 X14.178 Y34.851
G1 Z0.000 F1000
G1 X14.178 Y22.791 B-990.00 F3000
G1 X14.178 Y22.791 B-990.00 F3000
G1 Z10.000 F1000
G1 B-1157.34 F2000
G0 X14.178 Y22.791
G1 Z0.000 F1000
G1 X14.601 Y24.676 B-1157.34 F3000
G1 X14.605 Y24.687 B-1154.58 F3000
G1 X14.605 Y24.688 B-1149.04 F3000
G1 X14.605 Y24.688 B-1149.04 F3000
G1 Z10.000 F1000
G1 B-1126.98 F2000
G0 X14.605 Y24.688
G1 Z0.000 F1000
G1 X14.605 Y24.688 B-1126.98 F3000
G1 X14.605 Y24.688 B-1126.98 F3000
G1 Z10.000 F1000
G1 B-1104.92 F2000
G0 X14.605 Y24.688
G1 Z0.000 F1000
G1 X14.605 Y24.688 B-1104.92 F3000
G1 X14.605 Y24.688 B-1099.44 F3000
G1 X14.617 Y24.691 B-1093.92 F3000
G1 X24.049 Y26.553 B-1091.17 F3000
G1 X24.096 Y26.565 B-1093.95 F3000
G1 X24.142 Y26.581 B-1099.51 F3000
G1 X31.133 Y29.447 B-1102.29 F3000
G1 X31.149 Y29.452 B-1098.58 F3000
G1 X31.165 Y29.455 B-1091.22 F3000
G1 X31.460 Y29.494 B-1087.53 F3000
G1 X31.460 Y29.494 B-1087.53 F3000
G1 Z10.000 F1000
G1 B-1170.00 F2000
G0 X31.460 Y29.494
G1 Z0.000 F1000
G1 X31.460 Y46.603 B-1170.00 F3000
G1 X31.460 Y46.603 B-1170.00 F3000
G1 Z10.000 F1000
G1 B-1080.00 F2000
G0 X31.460 Y46.603
G1 Z0.000 F1000
G1 X34.610 Y46.603 B-1080.00 F3000
G1 X34.610 Y46.603 B-1080.00 F3000
G1 Z10.000 F1000
G1 B-990.00 F2000
G0 X34.610 Y46.603
G1 Z0.000 F1000
G1 X34.610 Y29.911 B-990.00 F3000
G1 X34.610 Y29.911 B-990.00 F3000
G1 Z10.000 F1000
G1 B-1087.53 F2000
G0 X34.610 Y29.911
G1 Z0.000 F1000
G1 X45.667 Y31.373 B-1087.53 F3000
G1 X45.725 Y31.385 B-1090.94 F3000
G1 X45.782 Y31.403 B-1097.75 F3000
G1 X51.893 Y33.767 B-1101.15 F3000
G1 X51.893 Y33.767 B-1101.15 F3000
G1 Z10.000 F1000
G1 B-1170.00 F2000
G0 X51.893 Y33.767
G1 Z0.000 F1000
G1 X51.893 Y48.940 B-1170.00 F3000
G1 X51.893 Y48.940 B-1170.00 F3000
G1 Z10.000 F1000
G1 B-1080.00 F2000
G0 X51.893 Y48.940
G1 Z0.000 F1000
G1 X55.043 Y48.940 B-1080.00 F3000
G1 X55.043 Y48.940 B-1080.00 F3000
G1 Z10.000 F1000
G1 B-990.00 F2000
G0 X55.043 Y48.940
G1 Z0.000 F1000
G1 X55.043 Y35.159 B-990.00 F3000
G1 X55.043 Y35.159 B-990.00 F3000
G1 Z10.000 F1000
G1 B-1116.29 F2000
G0 X55.043 Y35.159
G1 Z0.000 F1000
G1 X58.966 Y38.040 B-1116.29 F3000
G1 X58.998 Y38.066 B-1118.66 F3000
G1 X59.028 Y38.094 B-1123.40 F3000
G1 X59.055 Y38.125 B-1128.14 F3000
G1 X62.229 Y41.975 B-1130.51 F3000
G1 X62.255 Y42.010 B-1132.99 F3000
G1 X62.278 Y42.046 B-1137.96 F3000
G1 X62.298 Y42.085 B-1142.93 F3000
G1 X64.551 Y47.010 B-1145.41 F3000
G1 X64.572 Y47.065 B-1148.78 F3000
G1 X64.587 Y47.122 B-1155.53 F3000
G1 X66.132 Y54.994 B-1158.90 F3000
G1 X66.135 Y55.006 B-1156.09 F3000
G1 X66.135 Y55.007 B-1150.43 F3000
G1 X66.135 Y55.007 B-1150.43 F3000
G1 Z10.000 F1000
G1 B-1127.95 F2000
G0 X66.135 Y55.007
G1 Z0.000 F1000
G1 X66.135 Y55.007 B-1127.95 F3000
G1 X66.135 Y55.007 B-1127.95 F3000
G1 Z10.000 F1000
G1 B-1105.47 F2000
G0 X66.135 Y55.007
G1 Z0.000 F1000
G1 X66.136 Y55.007 B-1105.47 F3000
G1 X66.136 Y55.007 B-1105.47 F3000
G1 Z10.000 F1000
G1 B-1082.99 F2000
G0 X66.136 Y55.007
G1 Z0.000 F1000
G1 X66.136 Y55.007 B-1082.99 F3000
G1 X66.136 Y55.007 B-1082.99 F3000
G1 Z10.000 F1000
G1 B-1060.51 F2000
G0 X66.136 Y55.007
G1 Z0.000 F1000
G1 X66.136 Y55.007 B-1060.51 F3000
G1 X66.136 Y55.007 B-1060.51 F3000
G1 Z10.000 F1000
G1 B-1038.04 F2000
G0 X66.136 Y55.007
G1 Z0.000 F1000
G1 X66.137 Y55.007 B-1038.04 F3000
G1 X66.137 Y55.007 B-1032.45 F3000
G1 X66.144 Y54.997 B-1026.83 F3000
G1 X73.724 Y43.767 B-1024.02 F3000
G1 X73.728 Y43.761 B-1021.89 F3000
G1 X73.729 Y43.759 B-1012.68 F3000
G1 X73.729 Y43.759 B-1012.68 F3000
G1 Z10.000 F1000
G1 B-1001.31 F2000
G0 X73.729 Y43.759
G1 Z0.000 F1000
G1 X73.729 Y43.757 B-1001.31 F3000
G1 X73.729 Y43.750 B-992.13 F3000
G1 X73.729 Y34.851 B-990.00 F3000
G1 X73.729 Y34.851 B-990.00 F3000
G1 Z10.000 F1000
G1 B-1080.00 F2000
G0 X73.729 Y34.851
G1 Z0.000 F1000
G1 X75.475 Y34.851 B-1080.00 F3000
G1 X75.475 Y34.851 B-1080.00 F3000
G1 Z10.000 F1000
G1 B-990.00 F2000
G0 X75.475 Y34.851
G1 Z0.000 F1000
G1 X75.475 Y6.199 B-990.00 F3000
G1 X75.475 Y6.199 B-990.00 F3000
G1 Z10.000 F1000
G1 B-1080.00 F2000
G0 X75.475 Y6.199
G1 Z0.000 F1000
G1 X83.900 Y6.199 B-1080.00 F3000
G1 X83.900 Y6.199 B-1080.00 F3000
G1 Z10.000 F1000
G1 B-1170.00 F2000
G0 X83.900 Y6.199
G1 Z0.000 F1000
G1 X83.900 Y63.503 B-1170.00 F3000
G1 X83.900 Y63.503 B-1170.00 F3000
G1 Z10.000 F1000
G1 B-1260.00 F2000
G0 X83.900 Y63.503
G1 Z0.000 F1000
G1 X2.603 Y63.503 B-1260.00 F3000
G1 Z10.000 F1000
M5 (Stop Oscillation)
M9 (Lights OFF)

M2