(Generated by custom-packaging - grblHAL Multi-Axis)
G21  (mm)
G90  (absolute)
G1 Z10.000 F100
G1 B-0.00 F1000
M8 (Process On / Lights On)
G1 Z10.000 F100
G0 X56.956 Y81.297
M3 S4000 (Start Oscillation)
G1 Z10.000 F100
G1 B90.00 F1000
G1 Z0.000 F100
G1 X56.956 Y0.000 B90.00 F1000
G1 Z10.000 F100
G1 B180.00 F1000
G1 Z0.000 F100
G1 X0.000 Y0.000 B180.00 F1000
G1 Z10.000 F100
G1 B270.00 F1000
G1 Z0.000 F100
G1 X0.000 Y8.425 B270.00 F1000
G1 Z10.000 F100
G1 B360.00 F1000
G1 Z0.000 F100
G1 X28.478 Y8.425 B360.00 F1000
G1 Z10.000 F100
G1 B270.00 F1000
G1 Z0.000 F100
G1 X28.478 Y10.235 B270.00 F1000
G1 Z10.000 F100
G1 B360.00 F1000
G1 Z0.000 F100
G1 X42.269 Y10.235 B360.00 F1000
G1 Z10.000 F100
G1 B310.77 F1000
G1 Z0.000 F100
G1 X42.370 Y10.351 B310.77 F1000
G1 X42.474 Y10.467 B311.89 F1000
G1 X42.578 Y10.584 B311.89 F1000
G1 X42.682 Y10.700 B311.89 F1000
G1 X42.787 Y10.816 B311.89 F1000
G1 X42.891 Y10.933 B311.89 F1000
G1 X42.995 Y11.049 B311.89 F1000
G1 X43.100 Y11.165 B311.89 F1000
G1 X43.204 Y11.282 B311.89 F1000
G1 X43.308 Y11.398 B311.89 F1000
G1 X43.403 Y11.514 B309.07 F1000
G1 X43.487 Y11.630 B305.97 F1000
G1 X43.574 Y11.747 B306.74 F1000
G1 X43.663 Y11.863 B307.36 F1000
G1 X43.752 Y11.979 B307.36 F1000
G1 X43.841 Y12.096 B307.36 F1000
G1 X43.929 Y12.212 B307.36 F1000
G1 X44.018 Y12.328 B307.36 F1000
G1 X44.107 Y12.445 B307.36 F1000
G1 X44.196 Y12.561 B307.36 F1000
G1 X44.284 Y12.677 B307.36 F1000
G1 X44.373 Y12.793 B307.36 F1000
G1 X44.460 Y12.910 B306.67 F1000
G1 X44.539 Y13.026 B304.27 F1000
G1 X44.613 Y13.142 B302.58 F1000
G1 X44.688 Y13.259 B302.58 F1000
G1 X44.762 Y13.375 B302.58 F1000
G1 X44.836 Y13.491 B302.58 F1000
G1 X44.911 Y13.608 B302.58 F1000
G1 X44.985 Y13.724 B302.58 F1000
G1 X45.059 Y13.840 B302.58 F1000
G1 X45.134 Y13.957 B302.58 F1000
G1 X45.208 Y14.073 B302.58 F1000
G1 X45.281 Y14.189 B302.10 F1000
G1 X45.352 Y14.305 B301.53 F1000
G1 X45.418 Y14.422 B299.63 F1000
G1 X45.477 Y14.538 B296.84 F1000
G1 X45.539 Y14.654 B297.74 F1000
G1 X45.605 Y14.771 B299.70 F1000
G1 X45.671 Y14.887 B299.70 F1000
G1 X45.737 Y15.003 B299.60 F1000
G1 X45.800 Y15.120 B298.24 F1000
G1 X45.862 Y15.236 B298.24 F1000
G1 X45.925 Y15.352 B298.24 F1000
G1 X45.987 Y15.468 B298.24 F1000
G1 X46.050 Y15.585 B298.24 F1000
G1 X46.112 Y15.701 B298.24 F1000
G1 X46.174 Y15.817 B298.24 F1000
G1 X46.237 Y15.934 B298.24 F1000
G1 X46.290 Y16.050 B294.48 F1000
G1 X46.342 Y16.166 B294.28 F1000
G1 X46.395 Y16.283 B294.28 F1000
G1 X46.447 Y16.399 B294.28 F1000
G1 X46.500 Y16.515 B294.28 F1000
G1 X46.552 Y16.632 B294.28 F1000
G1 X46.605 Y16.748 B294.28 F1000
G1 X46.657 Y16.864 B294.28 F1000
G1 X46.709 Y16.980 B294.26 F1000
G1 X46.761 Y17.097 B294.06 F1000
G1 X46.812 Y17.213 B293.44 F1000
G1 X46.850 Y17.329 B288.21 F1000
G1 X46.886 Y17.446 B287.14 F1000
G1 X46.919 Y17.562 B286.04 F1000
G1 X46.938 Y17.678 B278.94 F1000
G1 X46.952 Y17.795 B277.13 F1000
G1 X46.956 Y17.911 B271.85 F1000
G1 X46.948 Y18.027 B266.25 F1000
G1 X46.929 Y18.143 B260.64 F1000
G1 X46.900 Y18.260 B256.10 F1000
G1 X46.858 Y18.376 B250.17 F1000
G1 X46.805 Y18.492 B245.32 F1000
G1 X46.734 Y18.609 B238.68 F1000
G1 X46.651 Y18.725 B234.32 F1000
G1 X46.568 Y18.841 B234.60 F1000
G1 X46.485 Y18.958 B234.52 F1000
G1 X46.402 Y19.074 B234.42 F1000
G1 X46.319 Y19.190 B234.42 F1000
G1 X46.234 Y19.307 B234.00 F1000
G1 X46.148 Y19.423 B233.42 F1000
G1 X46.062 Y19.539 B233.42 F1000
G1 X45.975 Y19.655 B233.42 F1000
G1 X45.889 Y19.772 B233.42 F1000
G1 X45.803 Y19.888 B233.42 F1000
G1 X45.716 Y20.004 B233.42 F1000
G1 X45.634 Y20.121 B234.63 F1000
G1 X45.561 Y20.237 B237.97 F1000
G1 X45.488 Y20.353 B237.97 F1000
G1 X45.416 Y20.470 B237.97 F1000
G1 X45.343 Y20.586 B237.97 F1000
G1 X45.270 Y20.702 B237.97 F1000
G1 X45.197 Y20.818 B237.97 F1000
G1 X45.125 Y20.935 B237.97 F1000
G1 X45.050 Y21.051 B237.43 F1000
G1 X44.975 Y21.167 B237.08 F1000
G1 X44.900 Y21.284 B237.08 F1000
G1 X44.824 Y21.400 B237.08 F1000
G1 X44.749 Y21.516 B237.08 F1000
G1 X44.682 Y21.633 B240.08 F1000
G1 X44.615 Y21.749 B239.88 F1000
G1 X44.547 Y21.865 B239.88 F1000
G1 X44.480 Y21.982 B240.02 F1000
G1 X44.414 Y22.098 B240.35 F1000
G1 X44.348 Y22.214 B240.35 F1000
G1 X44.281 Y22.330 B240.35 F1000
G1 X44.222 Y22.447 B242.98 F1000
G1 X44.169 Y22.563 B245.61 F1000
G1 X44.117 Y22.679 B245.61 F1000
G1 X44.064 Y22.796 B245.61 F1000
G1 X44.011 Y22.912 B245.61 F1000
G1 X43.958 Y23.028 B245.61 F1000
G1 X43.902 Y23.145 B244.07 F1000
G1 X43.844 Y23.261 B243.43 F1000
G1 X43.786 Y23.377 B243.43 F1000
G1 X43.727 Y23.493 B243.43 F1000
G1 X43.669 Y23.610 B243.43 F1000
G1 X43.611 Y23.726 B243.43 F1000
G1 X43.600 Y23.749 B243.43 F1000
G1 Z10.000 F100
G1 B360.00 F1000
G1 Z0.000 F100
G1 X49.936 Y23.749 B360.00 F1000
G1 Z10.000 F100
G1 B270.00 F1000
G1 Z0.000 F100
G1 X49.936 Y26.899 B270.00 F1000
G1 Z10.000 F100
G1 B180.00 F1000
G1 Z0.000 F100
G1 X42.337 Y26.899 B180.00 F1000
G1 Z10.000 F100
G1 B251.77 F1000
G1 Z0.000 F100
G1 X42.309 Y26.983 B251.77 F1000
G1 X42.271 Y27.099 B251.77 F1000
G1 X42.233 Y27.215 B251.77 F1000
G1 X42.194 Y27.332 B251.77 F1000
G1 X42.156 Y27.448 B251.77 F1000
G1 X42.118 Y27.564 B251.77 F1000
G1 X42.079 Y27.680 B251.77 F1000
G1 X42.041 Y27.797 B251.77 F1000
G1 X42.003 Y27.913 B251.77 F1000
G1 X41.965 Y28.029 B251.77 F1000
G1 X41.926 Y28.146 B251.72 F1000
G1 X41.888 Y28.262 B251.70 F1000
G1 X41.852 Y28.378 B252.90 F1000
G1 X41.821 Y28.495 B255.29 F1000
G1 X41.791 Y28.611 B255.47 F1000
G1 X41.761 Y28.727 B255.47 F1000
G1 X41.731 Y28.843 B255.47 F1000
G1 X41.701 Y28.960 B255.47 F1000
G1 X41.671 Y29.076 B255.47 F1000
G1 X41.640 Y29.192 B255.47 F1000
G1 X41.610 Y29.309 B255.47 F1000
G1 X41.580 Y29.425 B255.47 F1000
G1 X41.550 Y29.541 B255.47 F1000
G1 X41.520 Y29.658 B255.47 F1000
G1 X41.490 Y29.774 B255.47 F1000
G1 X41.460 Y29.890 B255.47 F1000
G1 X41.430 Y30.007 B255.47 F1000
G1 X41.399 Y30.123 B255.47 F1000
G1 X41.369 Y30.239 B255.47 F1000
G1 X41.339 Y30.355 B255.47 F1000
G1 X41.311 Y30.472 B256.45 F1000
G1 X41.284 Y30.588 B256.94 F1000
G1 X41.257 Y30.704 B256.94 F1000
G1 X41.230 Y30.821 B256.94 F1000
G1 X41.203 Y30.937 B256.94 F1000
G1 X41.178 Y31.053 B257.76 F1000
G1 X41.153 Y31.170 B257.82 F1000
G1 X41.128 Y31.286 B257.82 F1000
G1 X41.103 Y31.402 B257.82 F1000
G1 X41.078 Y31.518 B257.82 F1000
G1 X41.052 Y31.635 B257.85 F1000
G1 X41.028 Y31.751 B258.29 F1000
G1 X41.004 Y31.867 B258.29 F1000
G1 X40.980 Y31.984 B258.29 F1000
G1 X40.956 Y32.100 B258.29 F1000
G1 X40.932 Y32.216 B258.29 F1000
G1 X40.908 Y32.333 B258.29 F1000
G1 X40.884 Y32.449 B258.29 F1000
G1 X40.860 Y32.565 B258.29 F1000
G1 X40.836 Y32.682 B258.29 F1000
G1 X40.811 Y32.798 B258.29 F1000
G1 X40.787 Y32.914 B258.29 F1000
G1 X40.763 Y33.030 B258.29 F1000
G1 X40.739 Y33.147 B258.29 F1000
G1 X40.715 Y33.263 B258.29 F1000
G1 X40.691 Y33.379 B258.29 F1000
G1 X40.667 Y33.496 B258.29 F1000
G1 X40.643 Y33.612 B258.29 F1000
G1 X40.619 Y33.728 B258.29 F1000
G1 X40.595 Y33.845 B258.29 F1000
G1 X40.571 Y33.961 B258.29 F1000
G1 X40.546 Y34.077 B258.27 F1000
G1 X40.521 Y34.193 B257.48 F1000
G1 X40.495 Y34.310 B257.48 F1000
G1 X40.469 Y34.426 B257.48 F1000
G1 X40.443 Y34.542 B257.48 F1000
G1 X40.417 Y34.659 B257.48 F1000
G1 X40.389 Y34.775 B256.14 F1000
G1 X40.357 Y34.891 B254.74 F1000
G1 X40.325 Y35.008 B254.81 F1000
G1 X40.299 Y35.124 B257.08 F1000
G1 X40.272 Y35.240 B257.08 F1000
G1 X40.245 Y35.357 B257.08 F1000
G1 X40.219 Y35.473 B257.08 F1000
G1 X40.192 Y35.589 B257.08 F1000
G1 X40.164 Y35.705 B256.75 F1000
G1 X40.134 Y35.822 B255.26 F1000
G1 X40.103 Y35.938 B255.26 F1000
G1 X40.073 Y36.054 B255.26 F1000
G1 X40.042 Y36.171 B255.26 F1000
G1 X40.012 Y36.287 B255.26 F1000
G1 X39.981 Y36.403 B255.26 F1000
G1 X39.950 Y36.520 B255.26 F1000
G1 X39.920 Y36.636 B255.26 F1000
G1 X39.889 Y36.752 B255.26 F1000
G1 X39.859 Y36.868 B255.26 F1000
G1 X39.828 Y36.985 B255.26 F1000
G1 X39.797 Y37.101 B255.26 F1000
G1 X39.767 Y37.217 B255.26 F1000
G1 X39.736 Y37.334 B255.26 F1000
G1 X39.706 Y37.450 B255.26 F1000
G1 X39.669 Y37.566 B252.51 F1000
G1 X39.629 Y37.683 B251.08 F1000
G1 X39.589 Y37.799 B251.14 F1000
G1 X39.550 Y37.915 B251.36 F1000
G1 X39.511 Y38.032 B251.36 F1000
G1 X39.472 Y38.148 B251.36 F1000
G1 X39.432 Y38.264 B251.36 F1000
G1 X39.393 Y38.380 B251.36 F1000
G1 X39.354 Y38.497 B251.36 F1000
G1 X39.315 Y38.613 B251.36 F1000
G1 X39.276 Y38.729 B251.36 F1000
G1 X39.236 Y38.846 B251.36 F1000
G1 X39.197 Y38.962 B251.36 F1000
G1 X39.160 Y39.073 B251.36 F1000
G1 Z10.000 F100
G1 B360.00 F1000
G1 Z0.000 F100
G1 X47.737 Y39.073 B360.00 F1000
G1 Z10.000 F100
G1 B270.00 F1000
G1 Z0.000 F100
G1 X47.737 Y42.223 B270.00 F1000
G1 Z10.000 F100
G1 B180.00 F1000
G1 Z0.000 F100
G1 X37.751 Y42.223 B180.00 F1000
G1 Z10.000 F100
G1 B238.00 F1000
G1 Z0.000 F100
G1 X37.682 Y42.335 B238.00 F1000
G1 X37.609 Y42.451 B238.00 F1000
G1 X37.536 Y42.567 B238.00 F1000
G1 X37.464 Y42.684 B238.00 F1000
G1 X37.391 Y42.800 B238.00 F1000
G1 X37.320 Y42.916 B238.46 F1000
G1 X37.252 Y43.033 B239.82 F1000
G1 X37.184 Y43.149 B239.82 F1000
G1 X37.108 Y43.265 B236.86 F1000
G1 X37.031 Y43.382 B236.29 F1000
G1 X36.953 Y43.498 B236.29 F1000
G1 X36.876 Y43.614 B236.29 F1000
G1 X36.798 Y43.730 B236.29 F1000
G1 X36.720 Y43.847 B236.29 F1000
G1 X36.643 Y43.963 B236.29 F1000
G1 X36.552 Y44.079 B231.98 F1000
G1 X36.455 Y44.196 B230.10 F1000
G1 X36.358 Y44.312 B230.10 F1000
G1 X36.260 Y44.428 B230.10 F1000
G1 X36.163 Y44.545 B230.10 F1000
G1 X36.066 Y44.661 B230.10 F1000
G1 X35.971 Y44.777 B230.68 F1000
G1 X35.876 Y44.893 B230.93 F1000
G1 X35.778 Y45.010 B229.72 F1000
G1 X35.679 Y45.126 B229.72 F1000
G1 X35.580 Y45.242 B229.72 F1000
G1 X35.482 Y45.359 B229.72 F1000
G1 X35.383 Y45.475 B229.72 F1000
G1 X35.272 Y45.591 B226.17 F1000
G1 X35.151 Y45.708 B224.03 F1000
G1 X35.031 Y45.824 B224.03 F1000
G1 X34.911 Y45.940 B224.03 F1000
G1 X34.790 Y46.057 B224.03 F1000
G1 X34.670 Y46.173 B224.03 F1000
G1 X34.550 Y46.289 B224.06 F1000
G1 X34.431 Y46.405 B224.33 F1000
G1 X34.312 Y46.522 B224.33 F1000
G1 X34.193 Y46.638 B224.33 F1000
G1 X34.074 Y46.754 B224.33 F1000
G1 X33.955 Y46.871 B224.33 F1000
G1 X33.836 Y46.987 B224.33 F1000
G1 X33.705 Y47.103 B221.75 F1000
G1 X33.574 Y47.220 B221.62 F1000
G1 X33.443 Y47.336 B221.49 F1000
G1 X33.311 Y47.452 B221.49 F1000
G1 X33.180 Y47.568 B221.49 F1000
G1 X33.048 Y47.685 B221.49 F1000
G1 X32.917 Y47.801 B221.49 F1000
G1 X32.785 Y47.917 B221.49 F1000
G1 X32.654 Y48.034 B221.49 F1000
G1 X32.522 Y48.150 B221.46 F1000
G1 X32.389 Y48.266 B221.14 F1000
G1 X32.256 Y48.383 B221.14 F1000
G1 X32.123 Y48.499 B221.14 F1000
G1 X31.990 Y48.615 B221.14 F1000
G1 X31.857 Y48.732 B221.14 F1000
G1 X31.723 Y48.848 B221.14 F1000
G1 X31.587 Y48.964 B220.45 F1000
G1 X31.447 Y49.080 B219.68 F1000
G1 X31.307 Y49.197 B219.68 F1000
G1 X31.166 Y49.313 B219.68 F1000
G1 X31.026 Y49.429 B219.68 F1000
G1 X30.886 Y49.546 B219.68 F1000
G1 X30.746 Y49.662 B219.68 F1000
G1 X30.606 Y49.778 B219.68 F1000
G1 X30.466 Y49.895 B219.68 F1000
G1 X30.325 Y50.011 B219.68 F1000
G1 X30.185 Y50.127 B219.68 F1000
G1 X30.045 Y50.243 B219.68 F1000
G1 X29.905 Y50.360 B219.68 F1000
G1 X29.763 Y50.476 B219.28 F1000
G1 X29.619 Y50.592 B218.91 F1000
G1 X29.475 Y50.709 B218.91 F1000
G1 X29.326 Y50.825 B218.14 F1000
G1 X29.174 Y50.941 B217.26 F1000
G1 X29.021 Y51.058 B217.26 F1000
G1 X28.868 Y51.174 B217.26 F1000
G1 X28.715 Y51.290 B217.26 F1000
G1 X28.562 Y51.407 B217.26 F1000
G1 X28.409 Y51.523 B217.26 F1000
G1 X28.256 Y51.639 B217.26 F1000
G1 X28.103 Y51.755 B217.26 F1000
G1 X27.950 Y51.872 B217.26 F1000
G1 X27.797 Y51.988 B217.26 F1000
G1 X27.644 Y52.104 B217.26 F1000
G1 X27.492 Y52.221 B217.26 F1000
G1 X27.339 Y52.337 B217.26 F1000
G1 X27.186 Y52.453 B217.26 F1000
G1 X27.033 Y52.570 B217.26 F1000
G1 X26.880 Y52.686 B217.26 F1000
G1 X26.727 Y52.802 B217.26 F1000
G1 X26.574 Y52.918 B217.26 F1000
G1 X26.421 Y53.035 B217.26 F1000
G1 X26.268 Y53.151 B217.26 F1000
G1 X26.114 Y53.267 B216.95 F1000
G1 X25.955 Y53.384 B216.30 F1000
G1 X25.798 Y53.500 B216.51 F1000
G1 X25.636 Y53.616 B215.64 F1000
G1 X25.474 Y53.733 B215.62 F1000
G1 X25.311 Y53.849 B215.62 F1000
G1 X25.141 Y53.965 B214.35 F1000
G1 X24.993 Y54.082 B218.13 F1000
G1 X24.851 Y54.198 B219.38 F1000
G1 X24.716 Y54.314 B220.56 F1000
G1 X24.620 Y54.398 B221.19 F1000
G1 Z10.000 F100
G1 B360.00 F1000
G1 Z0.000 F100
G1 X39.572 Y54.398 B360.00 F1000
G1 Z10.000 F100
G1 B270.00 F1000
G1 Z0.000 F100
G1 X39.572 Y57.548 B270.00 F1000
G1 Z10.000 F100
G1 B180.00 F1000
G1 Z0.000 F100
G1 X19.740 Y57.548 B180.00 F1000
G1 Z10.000 F100
G1 B211.37 F1000
G1 Z0.000 F100
G1 X19.703 Y57.571 B211.37 F1000
G1 X19.510 Y57.687 B211.16 F1000
G1 X19.315 Y57.803 B210.82 F1000
G1 X19.120 Y57.920 B210.82 F1000
G1 X18.925 Y58.036 B210.82 F1000
G1 X18.730 Y58.152 B210.82 F1000
G1 X18.535 Y58.268 B210.82 F1000
G1 X18.340 Y58.385 B210.82 F1000
G1 X18.145 Y58.501 B210.81 F1000
G1 X17.949 Y58.617 B210.59 F1000
G1 X17.752 Y58.734 B210.59 F1000
G1 X17.555 Y58.850 B210.59 F1000
G1 X17.358 Y58.966 B210.59 F1000
G1 X17.162 Y59.083 B210.59 F1000
G1 X16.965 Y59.199 B210.59 F1000
G1 X16.768 Y59.315 B210.59 F1000
G1 X16.569 Y59.432 B210.30 F1000
G1 X16.358 Y59.548 B208.85 F1000
G1 X16.147 Y59.664 B208.85 F1000
G1 X15.936 Y59.780 B208.85 F1000
G1 X15.725 Y59.897 B208.85 F1000
G1 X15.511 Y60.013 B208.58 F1000
G1 X15.291 Y60.129 B207.86 F1000
G1 X15.071 Y60.246 B207.86 F1000
G1 X14.851 Y60.362 B207.86 F1000
G1 X14.631 Y60.478 B207.86 F1000
G1 X14.411 Y60.595 B207.86 F1000
G1 X14.191 Y60.711 B207.86 F1000
G1 X13.971 Y60.827 B207.86 F1000
G1 X13.745 Y60.943 B207.17 F1000
G1 X13.518 Y61.060 B207.15 F1000
G1 X13.291 Y61.176 B207.15 F1000
G1 X13.064 Y61.292 B207.15 F1000
G1 X12.837 Y61.409 B207.15 F1000
G1 X12.604 Y61.525 B206.49 F1000
G1 X12.360 Y61.641 B205.52 F1000
G1 X12.106 Y61.758 B204.57 F1000
G1 X11.852 Y61.874 B204.57 F1000
G1 X11.597 Y61.990 B204.57 F1000
G1 X11.347 Y62.107 B204.95 F1000
G1 X11.109 Y62.223 B206.05 F1000
G1 X10.863 Y62.339 B205.25 F1000
G1 X10.616 Y62.455 B205.25 F1000
G1 X10.370 Y62.572 B205.25 F1000
G1 X10.115 Y62.688 B204.54 F1000
G1 X9.850 Y62.804 B203.74 F1000
G1 X9.584 Y62.921 B203.57 F1000
G1 X9.343 Y63.037 B205.75 F1000
G1 X9.118 Y63.153 B207.40 F1000
G1 X8.899 Y63.270 B207.89 F1000
G1 X8.684 Y63.386 B208.42 F1000
G1 X8.464 Y63.502 B207.89 F1000
G1 X8.228 Y63.619 B206.25 F1000
G1 X7.947 Y63.735 B202.46 F1000
G1 X7.571 Y63.851 B197.21 F1000
G1 X7.061 Y63.967 B192.84 F1000
G1 X6.618 Y64.084 B194.71 F1000
G1 X6.253 Y64.200 B197.68 F1000
G1 X5.933 Y64.316 B199.93 F1000
G1 X5.577 Y64.433 B198.10 F1000
G1 X5.221 Y64.549 B198.10 F1000
G1 X4.864 Y64.665 B198.05 F1000
G1 X4.481 Y64.782 B196.88 F1000
G1 X4.019 Y64.898 B194.13 F1000
G1 X3.540 Y65.014 B193.64 F1000
G1 X3.086 Y65.130 B194.38 F1000
G1 X2.636 Y65.247 B194.49 F1000
G1 X2.186 Y65.363 B194.49 F1000
G1 X1.694 Y65.479 B193.31 F1000
G1 X1.017 Y65.596 B189.74 F1000
G1 X0.352 Y65.712 B189.92 F1000
G1 X0.000 Y65.782 B191.21 F1000
G1 Z10.000 F100
G1 B270.00 F1000
G1 Z0.000 F100
G1 X0.000 Y69.722 B270.00 F1000
G1 Z10.000 F100
G1 B360.00 F1000
G1 Z0.000 F100
G1 X28.478 Y69.722 B360.00 F1000
G1 Z10.000 F100
G1 B270.00 F1000
G1 Z0.000 F100
G1 X28.478 Y72.872 B270.00 F1000
G1 Z10.000 F100
G1 B180.00 F1000
G1 Z0.000 F100
G1 X0.000 Y72.872 B180.00 F1000
G1 Z10.000 F100
G1 B270.00 F1000
G1 Z0.000 F100
G1 X0.000 Y81.297 B270.00 F1000
G1 Z10.000 F100
G1 B360.00 F1000
G1 Z0.000 F100
G1 X56.956 Y81.297 B360.00 F1000
G1 Z10.000 F100
M5 (Stop Oscillation)
M9 (Process Off / Lights Off)