(Generated by custom-packaging - grblHAL Multi-Axis)
M8 (Lights ON)

G21  (mm)
G90  (absolute)
G1 Z10.000 F1000
G1 B-0.00 F2000
G1 Z10.000 F1000
G1 B90.00 F2000
G1 Z10.000 F1000
G0 X41.584 Y18.865
M3 S2000 (Start Oscillation)
G1 Z10.000 F1000
G1 B90.00 F2000
G0 X41.584 Y18.865
G1 Z0.000 F1000
G1 X41.584 Y-18.865 B90.00 F3000
G1 X41.584 Y-18.865 B90.00 F3000
G1 Z10.000 F1000
G1 B180.00 F2000
G0 X41.584 Y-18.865
G1 Z0.000 F1000
G1 X-41.584 Y-18.865 B180.00 F3000
G1 X-41.584 Y-18.865 B180.00 F3000
G1 Z10.000 F1000
G1 B270.00 F2000
G0 X-41.584 Y-18.865
G1 Z0.000 F1000
G1 X-41.584 Y18.865 B270.00 F3000
G1 X-41.584 Y18.865 B270.00 F3000
G1 Z10.000 F1000
G1 B360.00 F2000
G0 X-41.584 Y18.865
G1 Z0.000 F1000
G1 X-33.159 Y18.865 B360.00 F3000
G1 X-33.159 Y18.865 B360.00 F3000
G1 Z10.000 F1000
G1 B450.00 F2000
G0 X-33.159 Y18.865
G1 Z0.000 F1000
G1 X-33.159 Y0.000 B450.00 F3000
G1 X-33.159 Y0.000 B450.00 F3000
G1 Z10.000 F1000
G1 B360.00 F2000
G0 X-33.159 Y0.000
G1 Z0.000 F1000
G1 X-30.009 Y0.000 B360.00 F3000
G1 X-30.009 Y0.000 B360.00 F3000
G1 Z10.000 F1000
G1 B270.00 F2000
G0 X-30.009 Y0.000
G1 Z0.000 F1000
G1 X-30.009 Y18.865 B270.00 F3000
G1 X-30.009 Y18.865 B270.00 F3000
G1 Z10.000 F1000
G1 B360.00 F2000
G0 X-30.009 Y18.865
G1 Z0.000 F1000
G1 X-12.103 Y18.865 B360.00 F3000
G1 X-12.103 Y18.865 B360.00 F3000
G1 Z10.000 F1000
G1 B450.00 F2000
G0 X-12.103 Y18.865
G1 Z0.000 F1000
G1 X-12.103 Y-2.897 B450.00 F3000
G1 X-12.103 Y-2.897 B450.00 F3000
G1 Z10.000 F1000
G1 B360.00 F2000
G0 X-12.103 Y-2.897
G1 Z0.000 F1000
G1 X-8.953 Y-2.897 B360.00 F3000
G1 X-8.953 Y-2.897 B360.00 F3000
G1 Z10.000 F1000
G1 B270.00 F2000
G0 X-8.953 Y-2.897
G1 Z0.000 F1000
G1 X-8.953 Y10.721 B270.00 F3000
G1 X-8.953 Y10.721 B270.00 F3000
G1 Z10.000 F1000
G1 B416.17 F2000
G0 X-8.953 Y10.721
G1 Z0.000 F1000
G1 X-8.864 Y10.588 B416.17 F3000
G1 X-8.864 Y10.588 B416.17 F3000
G1 Z10.000 F1000
G1 B392.20 F2000
G0 X-8.864 Y10.588
G1 Z0.000 F1000
G1 X-3.629 Y7.292 B392.20 F3000
G1 X-3.629 Y7.292 B392.20 F3000
G1 Z10.000 F1000
G1 B365.76 F2000
G0 X-3.629 Y7.292
G1 Z0.000 F1000
G1 X1.249 Y6.800 B365.76 F3000
G1 X1.249 Y6.800 B365.76 F3000
G1 Z10.000 F1000
G1 B342.42 F2000
G0 X1.249 Y6.800
G1 Z0.000 F1000
G1 X5.890 Y8.270 B342.42 F3000
G1 X5.890 Y8.270 B342.42 F3000
G1 Z10.000 F1000
G1 B319.24 F2000
G0 X5.890 Y8.270
G1 Z0.000 F1000
G1 X8.953 Y10.911 B319.24 F3000
G1 X8.953 Y10.911 B319.24 F3000
G1 Z10.000 F1000
G1 B450.00 F2000
G0 X8.953 Y10.911
G1 Z0.000 F1000
G1 X8.953 Y-2.819 B450.00 F3000
G1 X8.953 Y-2.819 B450.00 F3000
G1 Z10.000 F1000
G1 B360.00 F2000
G0 X8.953 Y-2.819
G1 Z0.000 F1000
G1 X12.103 Y-2.819 B360.00 F3000
G1 X12.103 Y-2.819 B360.00 F3000
G1 Z10.000 F1000
G1 B270.00 F2000
G0 X12.103 Y-2.819
G1 Z0.000 F1000
G1 X12.103 Y18.865 B270.00 F3000
G1 X12.103 Y18.865 B270.00 F3000
G1 Z10.000 F1000
G1 B360.00 F2000
G0 X12.103 Y18.865
G1 Z0.000 F1000
G1 X30.009 Y18.865 B360.00 F3000
G1 X30.009 Y18.865 B360.00 F3000
G1 Z10.000 F1000
G1 B450.00 F2000
G0 X30.009 Y18.865
G1 Z0.000 F1000
G1 X30.009 Y0.000 B450.00 F3000
G1 X30.009 Y0.000 B450.00 F3000
G1 Z10.000 F1000
G1 B360.00 F2000
G0 X30.009 Y0.000
G1 Z0.000 F1000
G1 X33.159 Y0.000 B360.00 F3000
G1 X33.159 Y0.000 B360.00 F3000
G1 Z10.000 F1000
G1 B270.00 F2000
G0 X33.159 Y0.000
G1 Z0.000 F1000
G1 X33.159 Y18.865 B270.00 F3000
G1 X33.159 Y18.865 B270.00 F3000
G1 Z10.000 F1000
G1 B360.00 F2000
G0 X33.159 Y18.865
G1 Z0.000 F1000
G1 X41.584 Y18.865 B360.00 F3000
G1 Z10.000 F1000
M5 (Stop Oscillation)
M9 (Lights OFF)

M2