(Generated by custom-packaging - grblHAL Multi-Axis)
M8 (Lights ON)

G21  (mm)
G90  (absolute)
G1 Z10.000 F1000
G1 B-0.00 F2000
G1 Z10.000 F1000
G0 X-25.000 Y-25.000
G1 Z10.000 F1000
G1 B-90.00 F2000
M3 S2000 (Start Oscillation)
G1 Z10.000 F1000
G1 B-90.00 F2000
G0 X-25.000 Y-25.000
G1 Z0.000 F1000
G1 X-25.000 Y25.000 B-90.00 F2000
G1 X-25.000 Y25.000 B-90.00 F2000
G1 Z10.000 F1000
G1 B-0.00 F2000
G0 X-25.000 Y25.000
G1 Z0.000 F1000
G1 X25.000 Y25.000 B-0.00 F2000
G1 X25.000 Y25.000 B-0.00 F2000
G1 Z10.000 F1000
G1 B90.00 F2000
G0 X25.000 Y25.000
G1 Z0.000 F1000
G1 X25.000 Y-25.000 B90.00 F2000
G1 X25.000 Y-25.000 B90.00 F2000
G1 Z10.000 F1000
G1 B180.00 F2000
G0 X25.000 Y-25.000
G1 Z0.000 F1000
G1 X-25.000 Y-25.000 B180.00 F2000
G1 Z10.000 F1000
M5 (Stop Oscillation)
M9 (Lights OFF)

M2