(Generated by custom-packaging - grblHAL Multi-Axis)
G21  (mm)
G90  (absolute)
G0 Z0.000
G1 A50.000 F1500 (ADVANCE MATERIAL)
G0 X0.000 Y-50.000
G0 Z0.000
M3 S5000 (Start Oscillation)
G1 Z-3.000 F2000
G1 X300.000 Y-50.000 C0.00 F2000
G0 Z0.000
M5 (Stop Oscillation)
G0 X148.000 Y-50.000
G0 Z0.000
M3 S5000 (Start Oscillation)
G1 Z-3.000 F2000
G1 X148.000 Y-20.000 C90.00 F2000
G0 Z0.000
M5 (Stop Oscillation)
G0 X148.000 Y-20.000
G0 Z0.000
M3 S5000 (Start Oscillation)
G1 Z-3.000 F2000
G1 X152.000 Y-20.000 C0.00 F2000
G0 Z0.000
M5 (Stop Oscillation)
G0 X152.000 Y-20.000
G0 Z0.000
M3 S5000 (Start Oscillation)
G1 Z-3.000 F2000
G1 X152.000 Y-50.000 C-90.00 F2000
G0 Z0.000
M5 (Stop Oscillation)
G0 X0.000 Y10.000
G0 Z0.000
G1 Z3.000 F3000
G1 X300.000 Y10.000 B0.00 F3000
G0 Z0.000
G1 A450.000 F1500 (ADVANCE MATERIAL)
G0 Z0.000
G0 X0 Y0
M2