(Generated by custom-packaging - grblHAL Multi-Axis)
M8 (Lights ON)

G21  (mm)
G90  (absolute)
G1 Z10.000 F1000
G1 B-0.00 F2000
G1 Z10.000 F1000
G1 B90.00 F2000
G1 Z10.000 F1000
G0 X-88.596 Y30.058
M3 S2000 (Start Oscillation)
G1 Z10.000 F1000
G1 B90.00 F2000
G0 X-88.596 Y30.058
G1 Z0.000 F1000
G1 X-88.596 Y-27.247 B90.00 F3000
G1 X-88.596 Y-27.247 B90.00 F3000
G1 Z10.000 F1000
G1 B-0.00 F2000
G0 X-88.596 Y-27.247
G1 Z0.000 F1000
G1 X-80.171 Y-27.247 B-0.00 F3000
G1 X-80.171 Y-27.247 B-0.00 F3000
G1 Z10.000 F1000
G1 B-90.00 F2000
G0 X-80.171 Y-27.247
G1 Z0.000 F1000
G1 X-80.171 Y1.405 B-90.00 F3000
G1 X-80.171 Y1.405 B-90.00 F3000
G1 Z10.000 F1000
G1 B-0.00 F2000
G0 X-80.171 Y1.405
G1 Z0.000 F1000
G1 X-77.021 Y1.405 B-0.00 F3000
G1 X-77.021 Y1.405 B-0.00 F3000
G1 Z10.000 F1000
G1 B90.00 F2000
G0 X-77.021 Y1.405
G1 Z0.000 F1000
G1 X-77.021 Y-27.247 B90.00 F3000
G1 X-77.021 Y-27.247 B90.00 F3000
G1 Z10.000 F1000
G1 B-0.00 F2000
G0 X-77.021 Y-27.247
G1 Z0.000 F1000
G1 X-75.971 Y-27.247 B-0.00 F3000
G1 X-75.971 Y-27.247 B-0.00 F3000
G1 Z10.000 F1000
G1 B-52.19 F2000
G0 X-75.971 Y-27.247
G1 Z0.000 F1000
G1 X-65.669 Y-13.969 B-52.19 F3000
G1 X-65.659 Y-13.958 B-49.07 F3000
G1 X-65.650 Y-13.949 B-42.88 F3000
G1 X-56.859 Y-6.631 B-39.78 F3000
G1 X-56.849 Y-6.623 B-36.86 F3000
G1 X-56.838 Y-6.617 B-31.08 F3000
G1 X-50.711 Y-3.335 B-28.18 F3000
G1 X-50.696 Y-3.328 B-24.29 F3000
G1 X-50.679 Y-3.323 B-16.59 F3000
G1 X-35.460 Y0.114 B-12.72 F3000
G1 X-35.452 Y0.115 B-11.02 F3000
G1 X-35.445 Y0.116 B-7.65 F3000
G1 X-30.944 Y0.586 B-5.95 F3000
G1 X-30.944 Y0.586 B-5.95 F3000
G1 Z10.000 F1000
G1 B-90.00 F2000
G0 X-30.944 Y0.586
G1 Z0.000 F1000
G1 X-30.944 Y15.404 B-90.00 F3000
G1 X-30.944 Y15.404 B-90.00 F3000
G1 Z10.000 F1000
G1 B-0.00 F2000
G0 X-30.944 Y15.404
G1 Z0.000 F1000
G1 X-27.794 Y15.404 B-0.00 F3000
G1 X-27.794 Y15.404 B-0.00 F3000
G1 Z10.000 F1000
G1 B90.00 F2000
G0 X-27.794 Y15.404
G1 Z0.000 F1000
G1 X-27.794 Y0.914 B90.00 F3000
G1 X-27.794 Y0.914 B90.00 F3000
G1 Z10.000 F1000
G1 B-5.95 F2000
G0 X-27.794 Y0.914
G1 Z0.000 F1000
G1 X-19.098 Y1.821 B-5.95 F3000
G1 X-19.090 Y1.821 B-4.16 F3000
G1 X-19.082 Y1.821 B-0.61 F3000
G1 X-12.102 Y1.679 B1.17 F3000
G1 X-12.097 Y1.679 B2.25 F3000
G1 X-12.093 Y1.678 B4.38 F3000
G1 X18.283 Y-1.218 B5.45 F3000
G1 X18.283 Y-1.218 B5.45 F3000
G1 Z10.000 F1000
G1 B-90.00 F2000
G0 X18.283 Y-1.218
G1 Z0.000 F1000
G1 X18.283 Y14.246 B-90.00 F3000
G1 X18.283 Y14.246 B-90.00 F3000
G1 Z10.000 F1000
G1 B-0.00 F2000
G0 X18.283 Y14.246
G1 Z0.000 F1000
G1 X21.433 Y14.246 B-0.00 F3000
G1 X21.433 Y14.246 B-0.00 F3000
G1 Z10.000 F1000
G1 B90.00 F2000
G0 X21.433 Y14.246
G1 Z0.000 F1000
G1 X21.433 Y-2.606 B90.00 F3000
G1 X21.433 Y-2.606 B90.00 F3000
G1 Z10.000 F1000
G1 B33.44 F2000
G0 X21.433 Y-2.606
G1 Z0.000 F1000
G1 X31.698 Y-9.384 B33.44 F3000
G1 X31.737 Y-9.407 B30.80 F3000
G1 X31.779 Y-9.427 B25.53 F3000
G1 X31.822 Y-9.443 B20.25 F3000
G1 X31.866 Y-9.455 B14.97 F3000
G1 X31.912 Y-9.463 B9.70 F3000
G1 X31.958 Y-9.466 B4.42 F3000
G1 X34.041 Y-9.531 B1.78 F3000
G1 X34.052 Y-9.532 B4.43 F3000
G1 X34.053 Y-9.532 B9.64 F3000
G1 X34.053 Y-9.532 B9.64 F3000
G1 Z10.000 F1000
G1 B30.79 F2000
G0 X34.053 Y-9.532
G1 Z0.000 F1000
G1 X34.053 Y-9.532 B30.79 F3000
G1 X34.053 Y-9.532 B30.79 F3000
G1 Z10.000 F1000
G1 B52.05 F2000
G0 X34.053 Y-9.532
G1 Z0.000 F1000
G1 X34.053 Y-9.533 B52.05 F3000
G1 X34.053 Y-9.533 B57.31 F3000
G1 X34.058 Y-9.543 B62.59 F3000
G1 X34.509 Y-10.519 B65.24 F3000
G1 X34.532 Y-10.564 B62.30 F3000
G1 X34.561 Y-10.607 B56.42 F3000
G1 X34.593 Y-10.646 B50.54 F3000
G1 X34.630 Y-10.682 B44.67 F3000
G1 X34.670 Y-10.715 B38.79 F3000
G1 X34.713 Y-10.742 B32.91 F3000
G1 X34.758 Y-10.766 B27.04 F3000
G1 X34.806 Y-10.784 B21.16 F3000
G1 X34.856 Y-10.798 B15.28 F3000
G1 X39.998 Y-11.923 B12.35 F3000
G1 X40.044 Y-11.931 B9.68 F3000
G1 X40.090 Y-11.935 B4.36 F3000
G1 X40.137 Y-11.934 B-0.96 F3000
G1 X48.001 Y-11.436 B-3.62 F3000
G1 X48.038 Y-11.432 B-5.76 F3000
G1 X48.075 Y-11.426 B-10.04 F3000
G1 X51.751 Y-10.633 B-12.17 F3000
G1 X51.800 Y-10.620 B-15.09 F3000
G1 X51.848 Y-10.601 B-20.93 F3000
G1 X51.893 Y-10.578 B-26.77 F3000
G1 X51.936 Y-10.551 B-32.61 F3000
G1 X51.976 Y-10.519 B-38.45 F3000
G1 X52.013 Y-10.484 B-44.29 F3000
G1 X52.045 Y-10.445 B-50.13 F3000
G1 X52.074 Y-10.402 B-55.97 F3000
G1 X52.098 Y-10.357 B-61.81 F3000
G1 X52.117 Y-10.310 B-67.65 F3000
G1 X52.132 Y-10.262 B-73.49 F3000
G1 X52.141 Y-10.211 B-79.33 F3000
G1 X52.232 Y-9.544 B-82.25 F3000
G1 X52.234 Y-9.533 B-79.68 F3000
G1 X52.234 Y-9.533 B-74.53 F3000
G1 X52.234 Y-9.533 B-74.53 F3000
G1 Z10.000 F1000
G1 B-53.97 F2000
G0 X52.234 Y-9.533
G1 Z0.000 F1000
G1 X52.234 Y-9.532 B-53.97 F3000
G1 X52.234 Y-9.532 B-53.97 F3000
G1 Z10.000 F1000
G1 B-33.41 F2000
G0 X52.234 Y-9.532
G1 Z0.000 F1000
G1 X52.235 Y-9.532 B-33.41 F3000
G1 X52.235 Y-9.532 B-33.41 F3000
G1 Z10.000 F1000
G1 B-12.82 F2000
G0 X52.235 Y-9.532
G1 Z0.000 F1000
G1 X52.235 Y-9.532 B-12.82 F3000
G1 X52.235 Y-9.532 B-7.71 F3000
G1 X52.246 Y-9.532 B-2.57 F3000
G1 X60.472 Y-9.532 B-0.00 F3000
G1 X60.483 Y-9.532 B2.69 F3000
G1 X60.484 Y-9.532 B8.11 F3000
G1 X60.484 Y-9.532 B8.11 F3000
G1 Z10.000 F1000
G1 B29.66 F2000
G0 X60.484 Y-9.532
G1 Z0.000 F1000
G1 X60.484 Y-9.532 B29.66 F3000
G1 X60.484 Y-9.532 B29.66 F3000
G1 Z10.000 F1000
G1 B51.21 F2000
G0 X60.484 Y-9.532
G1 Z0.000 F1000
G1 X60.484 Y-9.533 B51.21 F3000
G1 X60.484 Y-9.533 B51.21 F3000
G1 Z10.000 F1000
G1 B72.75 F2000
G0 X60.484 Y-9.533
G1 Z0.000 F1000
G1 X60.484 Y-9.533 B72.75 F3000
G1 X60.484 Y-9.533 B78.11 F3000
G1 X60.486 Y-9.545 B83.49 F3000
G1 X60.551 Y-10.516 B86.19 F3000
G1 X60.556 Y-10.564 B83.40 F3000
G1 X60.566 Y-10.611 B77.83 F3000
G1 X60.581 Y-10.658 B72.25 F3000
G1 X60.600 Y-10.702 B66.68 F3000
G1 X60.624 Y-10.745 B61.11 F3000
G1 X60.651 Y-10.785 B55.53 F3000
G1 X60.683 Y-10.822 B49.96 F3000
G1 X60.717 Y-10.856 B44.38 F3000
G1 X60.755 Y-10.887 B38.81 F3000
G1 X60.796 Y-10.913 B33.24 F3000
G1 X60.839 Y-10.936 B27.66 F3000
G1 X60.884 Y-10.954 B22.09 F3000
G1 X60.931 Y-10.968 B16.52 F3000
G1 X60.978 Y-10.977 B10.94 F3000
G1 X61.027 Y-10.982 B5.37 F3000
G1 X61.076 Y-10.982 B-0.21 F3000
G1 X61.124 Y-10.977 B-5.78 F3000
G1 X61.172 Y-10.967 B-11.35 F3000
G1 X61.218 Y-10.953 B-16.93 F3000
G1 X61.263 Y-10.934 B-22.50 F3000
G1 X61.306 Y-10.912 B-28.07 F3000
G1 X61.346 Y-10.885 B-33.65 F3000
G1 X61.384 Y-10.854 B-39.22 F3000
G1 X61.419 Y-10.820 B-44.79 F3000
G1 X61.450 Y-10.782 B-50.37 F3000
G1 X61.477 Y-10.742 B-55.94 F3000
G1 X61.500 Y-10.699 B-61.52 F3000
G1 X61.519 Y-10.654 B-67.09 F3000
G1 X61.533 Y-10.608 B-72.66 F3000
G1 X61.543 Y-10.560 B-78.24 F3000
G1 X61.549 Y-10.512 B-83.81 F3000
G1 X61.603 Y-9.598 B-86.60 F3000
G1 X61.604 Y-9.586 B-83.64 F3000
G1 X61.604 Y-9.585 B-77.68 F3000
G1 X61.604 Y-9.585 B-77.68 F3000
G1 Z10.000 F1000
G1 B-54.00 F2000
G0 X61.604 Y-9.585
G1 Z0.000 F1000
G1 X61.605 Y-9.585 B-54.00 F3000
G1 X61.605 Y-9.585 B-54.00 F3000
G1 Z10.000 F1000
G1 B-30.32 F2000
G0 X61.605 Y-9.585
G1 Z0.000 F1000
G1 X61.605 Y-9.585 B-30.32 F3000
G1 X61.605 Y-9.585 B-30.32 F3000
G1 Z10.000 F1000
G1 B-6.64 F2000
G0 X61.605 Y-9.585
G1 Z0.000 F1000
G1 X61.605 Y-9.585 B-6.64 F3000
G1 X61.605 Y-9.585 B-0.76 F3000
G1 X61.618 Y-9.586 B5.16 F3000
G1 X63.689 Y-9.881 B8.12 F3000
G1 X63.701 Y-9.884 B10.93 F3000
G1 X63.701 Y-9.884 B10.93 F3000
G1 Z10.000 F1000
G1 B22.19 F2000
G0 X63.701 Y-9.884
G1 Z0.000 F1000
G1 X63.701 Y-9.884 B22.19 F3000
G1 X63.701 Y-9.884 B27.76 F3000
G1 X63.701 Y-9.884 B27.76 F3000
G1 Z10.000 F1000
G1 B38.97 F2000
G0 X63.701 Y-9.884
G1 Z0.000 F1000
G1 X63.711 Y-9.892 B38.97 F3000
G1 X64.810 Y-10.873 B41.78 F3000
G1 X64.819 Y-10.883 B44.79 F3000
G1 X64.819 Y-10.883 B50.86 F3000
G1 X64.819 Y-10.883 B50.86 F3000
G1 Z10.000 F1000
G1 B74.97 F2000
G0 X64.819 Y-10.883
G1 Z0.000 F1000
G1 X64.820 Y-10.883 B74.97 F3000
G1 X64.820 Y-10.883 B80.96 F3000
G1 X64.820 Y-10.897 B86.99 F3000
G1 X64.820 Y-27.247 B90.00 F3000
G1 X64.820 Y-27.247 B90.00 F3000
G1 Z10.000 F1000
G1 B-0.00 F2000
G0 X64.820 Y-27.247
G1 Z0.000 F1000
G1 X67.510 Y-27.247 B-0.00 F3000
G1 X67.510 Y-27.247 B-0.00 F3000
G1 Z10.000 F1000
G1 B-90.00 F2000
G0 X67.510 Y-27.247
G1 Z0.000 F1000
G1 X67.510 Y1.405 B-90.00 F3000
G1 X67.510 Y1.405 B-90.00 F3000
G1 Z10.000 F1000
G1 B-0.00 F2000
G0 X67.510 Y1.405
G1 Z0.000 F1000
G1 X70.660 Y1.405 B-0.00 F3000
G1 X70.660 Y1.405 B-0.00 F3000
G1 Z10.000 F1000
G1 B90.00 F2000
G0 X70.660 Y1.405
G1 Z0.000 F1000
G1 X70.660 Y-27.247 B90.00 F3000
G1 X70.660 Y-27.247 B90.00 F3000
G1 Z10.000 F1000
G1 B-0.00 F2000
G0 X70.660 Y-27.247
G1 Z0.000 F1000
G1 X79.085 Y-27.247 B-0.00 F3000
G1 X79.085 Y-27.247 B-0.00 F3000
G1 Z10.000 F1000
G1 B-90.00 F2000
G0 X79.085 Y-27.247
G1 Z0.000 F1000
G1 X79.085 Y30.058 B-90.00 F3000
G1 X79.085 Y30.058 B-90.00 F3000
G1 Z10.000 F1000
G1 B-180.00 F2000
G0 X79.085 Y30.058
G1 Z0.000 F1000
G1 X-88.596 Y30.058 B-180.00 F3000
G1 Z10.000 F1000
M5 (Stop Oscillation)
M9 (Lights OFF)

M2