(Generated by custom-packaging - grblHAL Multi-Axis)
M8 (Lights ON)

G21  (mm)
G90  (absolute)
G1 Z10.000 F1000
G1 B-0.00 F2000
G1 Z10.000 F1000
G1 B90.00 F2000
G1 Z10.000 F1000
G0 X70.211 Y30.260
M3 S2000 (Start Oscillation)
G1 Z10.000 F1000
G1 B90.00 F2000
G0 X70.211 Y30.260
G1 Z0.000 F1000
G1 X70.211 Y0.607 B90.00 F3000
G1 X70.211 Y0.607 B90.00 F3000
G1 Z10.000 F1000
G1 B180.00 F2000
G0 X70.211 Y0.607
G1 Z0.000 F1000
G1 X67.061 Y0.607 B180.00 F3000
G1 X67.061 Y0.607 B180.00 F3000
G1 Z10.000 F1000
G1 B270.00 F2000
G0 X67.061 Y0.607
G1 Z0.000 F1000
G1 X67.061 Y30.260 B270.00 F3000
G1 X67.061 Y30.260 B270.00 F3000
G1 Z10.000 F1000
G1 B180.00 F2000
G0 X67.061 Y30.260
G1 Z0.000 F1000
G1 X20.984 Y30.260 B180.00 F3000
G1 X20.984 Y30.260 B180.00 F3000
G1 Z10.000 F1000
G1 B90.00 F2000
G0 X20.984 Y30.260
G1 Z0.000 F1000
G1 X20.984 Y0.607 B90.00 F3000
G1 X20.984 Y0.607 B90.00 F3000
G1 Z10.000 F1000
G1 B180.00 F2000
G0 X20.984 Y0.607
G1 Z0.000 F1000
G1 X17.834 Y0.607 B180.00 F3000
G1 X17.834 Y0.607 B180.00 F3000
G1 Z10.000 F1000
G1 B270.00 F2000
G0 X17.834 Y0.607
G1 Z0.000 F1000
G1 X17.834 Y30.260 B270.00 F3000
G1 X17.834 Y30.260 B270.00 F3000
G1 Z10.000 F1000
G1 B180.00 F2000
G0 X17.834 Y30.260
G1 Z0.000 F1000
G1 X-28.243 Y30.260 B180.00 F3000
G1 X-28.243 Y30.260 B180.00 F3000
G1 Z10.000 F1000
G1 B90.00 F2000
G0 X-28.243 Y30.260
G1 Z0.000 F1000
G1 X-28.243 Y0.607 B90.00 F3000
G1 X-28.243 Y0.607 B90.00 F3000
G1 Z10.000 F1000
G1 B180.00 F2000
G0 X-28.243 Y0.607
G1 Z0.000 F1000
G1 X-31.393 Y0.607 B180.00 F3000
G1 X-31.393 Y0.607 B180.00 F3000
G1 Z10.000 F1000
G1 B270.00 F2000
G0 X-31.393 Y0.607
G1 Z0.000 F1000
G1 X-31.393 Y30.260 B270.00 F3000
G1 X-31.393 Y30.260 B270.00 F3000
G1 Z10.000 F1000
G1 B180.00 F2000
G0 X-31.393 Y30.260
G1 Z0.000 F1000
G1 X-77.470 Y30.260 B180.00 F3000
G1 X-77.470 Y30.260 B180.00 F3000
G1 Z10.000 F1000
G1 B90.00 F2000
G0 X-77.470 Y30.260
G1 Z0.000 F1000
G1 X-77.470 Y0.607 B90.00 F3000
G1 X-77.470 Y0.607 B90.00 F3000
G1 Z10.000 F1000
G1 B180.00 F2000
G0 X-77.470 Y0.607
G1 Z0.000 F1000
G1 X-80.620 Y0.607 B180.00 F3000
G1 X-80.620 Y0.607 B180.00 F3000
G1 Z10.000 F1000
G1 B270.00 F2000
G0 X-80.620 Y0.607
G1 Z0.000 F1000
G1 X-80.620 Y30.260 B270.00 F3000
G1 X-80.620 Y30.260 B270.00 F3000
G1 Z10.000 F1000
G1 B180.00 F2000
G0 X-80.620 Y30.260
G1 Z0.000 F1000
G1 X-89.045 Y30.260 B180.00 F3000
G1 X-89.045 Y30.260 B180.00 F3000
G1 Z10.000 F1000
G1 B90.00 F2000
G0 X-89.045 Y30.260
G1 Z0.000 F1000
G1 X-89.045 Y-29.045 B90.00 F3000
G1 X-89.045 Y-29.045 B90.00 F3000
G1 Z10.000 F1000
G1 B-0.00 F2000
G0 X-89.045 Y-29.045
G1 Z0.000 F1000
G1 X78.636 Y-29.045 B-0.00 F3000
G1 X78.636 Y-29.045 B-0.00 F3000
G1 Z10.000 F1000
G1 B-90.00 F2000
G0 X78.636 Y-29.045
G1 Z0.000 F1000
G1 X78.636 Y30.260 B-90.00 F3000
G1 X78.636 Y30.260 B-90.00 F3000
G1 Z10.000 F1000
G1 B-180.00 F2000
G0 X78.636 Y30.260
G1 Z0.000 F1000
G1 X70.211 Y30.260 B-180.00 F3000
G1 Z10.000 F1000
M5 (Stop Oscillation)
M9 (Lights OFF)

M2