(Generated by custom-packaging - grblHAL Multi-Axis)
M8 (Lights ON)

G21  (mm)
G90  (absolute)
G1 Z10.000 F1000
G1 B-0.00 F2000
G1 Z10.000 F1000
G1 B90.00 F2000
G1 Z10.000 F1000
G0 X65.395 Y27.878
M3 S2000 (Start Oscillation)
G1 Z10.000 F1000
G1 B90.00 F2000
G0 X65.395 Y27.878
G1 Z0.000 F1000
G1 X65.395 Y2.012 B90.00 F2000
G1 X65.395 Y2.012 B90.00 F2000
G1 Z10.000 F1000
G1 B180.00 F2000
G0 X65.395 Y2.012
G1 Z0.000 F1000
G1 X62.245 Y2.012 B180.00 F2000
G1 X62.245 Y2.012 B180.00 F2000
G1 Z10.000 F1000
G1 B270.00 F2000
G0 X62.245 Y2.012
G1 Z0.000 F1000
G1 X62.245 Y27.878 B270.00 F2000
G1 X62.245 Y27.878 B270.00 F2000
G1 Z10.000 F1000
G1 B180.00 F2000
G0 X62.245 Y27.878
G1 Z0.000 F1000
G1 X48.120 Y27.878 B180.00 F2000
G1 X48.120 Y27.878 B180.00 F2000
G1 Z10.000 F1000
G1 B116.60 F2000
G0 X48.120 Y27.878
G1 Z0.000 F1000
G1 X41.909 Y15.472 B116.60 F2000
G1 X41.900 Y15.456 B119.21 F2000
G1 X41.900 Y15.456 B119.21 F2000
G1 Z10.000 F1000
G1 B129.70 F2000
G0 X41.900 Y15.456
G1 Z0.000 F1000
G1 X41.899 Y15.455 B129.70 F2000
G1 X41.899 Y15.455 B132.69 F2000
G1 X41.899 Y15.455 B132.69 F2000
G1 Z10.000 F1000
G1 B145.32 F2000
G0 X41.899 Y15.455
G1 Z0.000 F1000
G1 X41.884 Y15.445 B145.32 F2000
G1 X33.303 Y10.068 B147.93 F2000
G1 X33.286 Y10.058 B150.86 F2000
G1 X33.285 Y10.058 B156.77 F2000
G1 X33.285 Y10.058 B162.60 F2000
G1 X33.265 Y10.054 B168.46 F2000
G1 X23.729 Y8.611 B171.40 F2000
G1 X23.729 Y8.611 B171.40 F2000
G1 Z10.000 F1000
G1 B90.00 F2000
G0 X23.729 Y8.611
G1 Z0.000 F1000
G1 X23.729 Y-7.740 B90.00 F2000
G1 X23.729 Y-7.740 B90.00 F2000
G1 Z10.000 F1000
G1 B180.00 F2000
G0 X23.729 Y-7.740
G1 Z0.000 F1000
G1 X20.579 Y-7.740 B180.00 F2000
G1 X20.579 Y-7.740 B180.00 F2000
G1 Z10.000 F1000
G1 B270.00 F2000
G0 X20.579 Y-7.740
G1 Z0.000 F1000
G1 X20.579 Y8.135 B270.00 F2000
G1 X20.579 Y8.135 B270.00 F2000
G1 Z10.000 F1000
G1 B171.40 F2000
G0 X20.579 Y8.135
G1 Z0.000 F1000
G1 X15.073 Y7.302 B171.40 F2000
G1 X15.058 Y7.300 B173.51 F2000
G1 X15.044 Y7.300 B177.70 F2000
G1 X3.109 Y7.259 B179.81 F2000
G1 X3.091 Y7.260 B182.44 F2000
G1 X3.090 Y7.260 B187.70 F2000
G1 X3.090 Y7.260 B187.70 F2000
G1 Z10.000 F1000
G1 B208.82 F2000
G0 X3.090 Y7.260
G1 Z0.000 F1000
G1 X3.090 Y7.260 B208.82 F2000
G1 X3.083 Y7.265 B214.06 F2000
G1 X3.014 Y7.307 B211.14 F2000
G1 X2.940 Y7.342 B205.32 F2000
G1 X2.864 Y7.369 B199.50 F2000
G1 X2.785 Y7.388 B193.67 F2000
G1 X2.704 Y7.399 B187.85 F2000
G1 X2.623 Y7.402 B182.02 F2000
G1 X2.542 Y7.396 B176.20 F2000
G1 X2.462 Y7.383 B170.37 F2000
G1 X2.383 Y7.361 B164.55 F2000
G1 X2.308 Y7.332 B158.72 F2000
G1 X2.235 Y7.295 B152.90 F2000
G1 X2.202 Y7.273 B147.08 F2000
G1 X2.180 Y7.260 B149.09 F2000
G1 X2.180 Y7.260 B149.09 F2000
G1 Z10.000 F1000
G1 B164.34 F2000
G0 X2.180 Y7.260
G1 Z0.000 F1000
G1 X2.180 Y7.260 B164.34 F2000
G1 X2.179 Y7.260 B169.38 F2000
G1 X2.162 Y7.258 B174.45 F2000
G1 X-6.770 Y6.787 B176.98 F2000
G1 X-6.796 Y6.787 B180.58 F2000
G1 X-6.821 Y6.791 B187.71 F2000
G1 X-8.136 Y7.053 B191.28 F2000
G1 X-8.154 Y7.058 B194.00 F2000
G1 X-8.155 Y7.058 B199.46 F2000
G1 X-8.155 Y7.058 B199.46 F2000
G1 Z10.000 F1000
G1 B221.19 F2000
G0 X-8.155 Y7.058
G1 Z0.000 F1000
G1 X-8.155 Y7.058 B221.19 F2000
G1 X-8.155 Y7.058 B221.19 F2000
G1 Z10.000 F1000
G1 B242.91 F2000
G0 X-8.155 Y7.058
G1 Z0.000 F1000
G1 X-8.155 Y7.059 B242.91 F2000
G1 X-8.156 Y7.059 B248.31 F2000
G1 X-8.161 Y7.077 B253.74 F2000
G1 X-8.566 Y8.758 B256.45 F2000
G1 X-8.587 Y8.832 B253.71 F2000
G1 X-8.616 Y8.903 B248.23 F2000
G1 X-8.651 Y8.971 B242.75 F2000
G1 X-8.692 Y9.035 B237.27 F2000
G1 X-8.739 Y9.095 B231.79 F2000
G1 X-8.792 Y9.151 B226.30 F2000
G1 X-8.850 Y9.201 B220.82 F2000
G1 X-8.913 Y9.245 B215.34 F2000
G1 X-8.979 Y9.283 B209.86 F2000
G1 X-9.049 Y9.314 B204.38 F2000
G1 X-9.121 Y9.339 B198.89 F2000
G1 X-9.195 Y9.357 B193.41 F2000
G1 X-9.271 Y9.368 B187.93 F2000
G1 X-17.938 Y10.155 B185.19 F2000
G1 X-17.938 Y10.155 B185.19 F2000
G1 Z10.000 F1000
G1 B90.00 F2000
G0 X-17.938 Y10.155
G1 Z0.000 F1000
G1 X-17.938 Y-6.778 B90.00 F2000
G1 X-17.938 Y-6.778 B90.00 F2000
G1 Z10.000 F1000
G1 B180.00 F2000
G0 X-17.938 Y-6.778
G1 Z0.000 F1000
G1 X-21.088 Y-6.778 B180.00 F2000
G1 X-21.088 Y-6.778 B180.00 F2000
G1 Z10.000 F1000
G1 B270.00 F2000
G0 X-21.088 Y-6.778
G1 Z0.000 F1000
G1 X-21.088 Y10.441 B270.00 F2000
G1 X-21.088 Y10.441 B270.00 F2000
G1 Z10.000 F1000
G1 B185.19 F2000
G0 X-21.088 Y10.441
G1 Z0.000 F1000
G1 X-26.269 Y10.911 B185.19 F2000
G1 X-26.290 Y10.914 B188.32 F2000
G1 X-26.291 Y10.915 B194.62 F2000
G1 X-26.291 Y10.915 B194.62 F2000
G1 Z10.000 F1000
G1 B219.66 F2000
G0 X-26.291 Y10.915
G1 Z0.000 F1000
G1 X-26.291 Y10.915 B219.66 F2000
G1 X-26.291 Y10.915 B219.66 F2000
G1 Z10.000 F1000
G1 B244.70 F2000
G0 X-26.291 Y10.915
G1 Z0.000 F1000
G1 X-26.291 Y10.916 B244.70 F2000
G1 X-26.292 Y10.916 B250.92 F2000
G1 X-26.296 Y10.937 B257.18 F2000
G1 X-27.559 Y18.332 B260.31 F2000
G1 X-27.561 Y18.350 B262.75 F2000
G1 X-27.562 Y18.367 B267.58 F2000
G1 X-27.562 Y27.878 B270.00 F2000
G1 X-27.562 Y27.878 B270.00 F2000
G1 Z10.000 F1000
G1 B180.00 F2000
G0 X-27.562 Y27.878
G1 Z0.000 F1000
G1 X-59.605 Y27.878 B180.00 F2000
G1 X-59.605 Y27.878 B180.00 F2000
G1 Z10.000 F1000
G1 B90.00 F2000
G0 X-59.605 Y27.878
G1 Z0.000 F1000
G1 X-59.605 Y2.012 B90.00 F2000
G1 X-59.605 Y2.012 B90.00 F2000
G1 Z10.000 F1000
G1 B180.00 F2000
G0 X-59.605 Y2.012
G1 Z0.000 F1000
G1 X-62.755 Y2.012 B180.00 F2000
G1 X-62.755 Y2.012 B180.00 F2000
G1 Z10.000 F1000
G1 B270.00 F2000
G0 X-62.755 Y2.012
G1 Z0.000 F1000
G1 X-62.755 Y27.878 B270.00 F2000
G1 X-62.755 Y27.878 B270.00 F2000
G1 Z10.000 F1000
G1 B180.00 F2000
G0 X-62.755 Y27.878
G1 Z0.000 F1000
G1 X-71.180 Y27.878 B180.00 F2000
G1 X-71.180 Y27.878 B180.00 F2000
G1 Z10.000 F1000
G1 B90.00 F2000
G0 X-71.180 Y27.878
G1 Z0.000 F1000
G1 X-71.180 Y-21.854 B90.00 F2000
G1 X-71.180 Y-21.854 B90.00 F2000
G1 Z10.000 F1000
G1 B-0.00 F2000
G0 X-71.180 Y-21.854
G1 Z0.000 F1000
G1 X73.820 Y-21.854 B-0.00 F2000
G1 X73.820 Y-21.854 B-0.00 F2000
G1 Z10.000 F1000
G1 B-90.00 F2000
G0 X73.820 Y-21.854
G1 Z0.000 F1000
G1 X73.820 Y27.878 B-90.00 F2000
G1 X73.820 Y27.878 B-90.00 F2000
G1 Z10.000 F1000
G1 B-180.00 F2000
G0 X73.820 Y27.878
G1 Z0.000 F1000
G1 X65.395 Y27.878 B-180.00 F2000
G1 Z10.000 F1000
M5 (Stop Oscillation)
M9 (Lights OFF)

M2