(Generated by custom-packaging - grblHAL Multi-Axis)
M8 (Lights ON)

G21  (mm)
G90  (absolute)
G1 Z10.000 F1000
G1 B-0.00 F2000
G1 Z10.000 F1000
G1 B90.00 F2000
G1 Z10.000 F1000
G0 X41.912 Y16.643
M3 S2000 (Start Oscillation)
G1 Z10.000 F1000
G1 B90.00 F2000
G0 X41.912 Y16.643
G1 Z0.000 F1000
G1 X41.912 Y-9.224 B90.00 F2000
G1 X41.912 Y-9.224 B90.00 F2000
G1 Z10.000 F1000
G1 B180.00 F2000
G0 X41.912 Y-9.224
G1 Z0.000 F1000
G1 X38.762 Y-9.224 B180.00 F2000
G1 X38.762 Y-9.224 B180.00 F2000
G1 Z10.000 F1000
G1 B270.00 F2000
G0 X38.762 Y-9.224
G1 Z0.000 F1000
G1 X38.762 Y16.643 B270.00 F2000
G1 X38.762 Y16.643 B270.00 F2000
G1 Z10.000 F1000
G1 B180.00 F2000
G0 X38.762 Y16.643
G1 Z0.000 F1000
G1 X38.124 Y16.643 B180.00 F2000
G1 X38.124 Y16.643 B180.00 F2000
G1 Z10.000 F1000
G1 B127.83 F2000
G0 X38.124 Y16.643
G1 Z0.000 F1000
G1 X29.403 Y5.413 B127.83 F2000
G1 X29.389 Y5.396 B130.94 F2000
G1 X29.373 Y5.381 B137.11 F2000
G1 X21.969 Y-0.785 B140.21 F2000
G1 X21.953 Y-0.798 B143.09 F2000
G1 X21.936 Y-0.808 B148.81 F2000
G1 X16.809 Y-3.571 B151.67 F2000
G1 X16.784 Y-3.583 B155.59 F2000
G1 X16.758 Y-3.591 B163.36 F2000
G1 X3.829 Y-6.515 B167.25 F2000
G1 X3.817 Y-6.518 B168.97 F2000
G1 X3.805 Y-6.519 B172.37 F2000
G1 X0.245 Y-6.889 B174.08 F2000
G1 X0.245 Y-6.889 B174.08 F2000
G1 Z10.000 F1000
G1 B90.00 F2000
G0 X0.245 Y-6.889
G1 Z0.000 F1000
G1 X0.245 Y-21.071 B90.00 F2000
G1 X0.245 Y-21.071 B90.00 F2000
G1 Z10.000 F1000
G1 B180.00 F2000
G0 X0.245 Y-21.071
G1 Z0.000 F1000
G1 X-2.905 Y-21.071 B180.00 F2000
G1 X-2.905 Y-21.071 B180.00 F2000
G1 Z10.000 F1000
G1 B270.00 F2000
G0 X-2.905 Y-21.071
G1 Z0.000 F1000
G1 X-2.905 Y-7.216 B270.00 F2000
G1 X-2.905 Y-7.216 B270.00 F2000
G1 Z10.000 F1000
G1 B174.08 F2000
G0 X-2.905 Y-7.216
G1 Z0.000 F1000
G1 X-10.133 Y-7.966 B174.08 F2000
G1 X-10.148 Y-7.967 B176.12 F2000
G1 X-10.162 Y-7.967 B180.16 F2000
G1 X-23.289 Y-7.464 B182.19 F2000
G1 X-23.296 Y-7.463 B183.27 F2000
G1 X-23.304 Y-7.462 B185.41 F2000
G1 X-41.421 Y-5.402 B186.49 F2000
G1 X-41.421 Y-5.402 B186.49 F2000
G1 Z10.000 F1000
G1 B90.00 F2000
G0 X-41.421 Y-5.402
G1 Z0.000 F1000
G1 X-41.421 Y-20.151 B90.00 F2000
G1 X-41.421 Y-20.151 B90.00 F2000
G1 Z10.000 F1000
G1 B180.00 F2000
G0 X-41.421 Y-20.151
G1 Z0.000 F1000
G1 X-44.571 Y-20.151 B180.00 F2000
G1 X-44.571 Y-20.151 B180.00 F2000
G1 Z10.000 F1000
G1 B270.00 F2000
G0 X-44.571 Y-20.151
G1 Z0.000 F1000
G1 X-44.571 Y-4.711 B270.00 F2000
G1 X-44.571 Y-4.711 B270.00 F2000
G1 Z10.000 F1000
G1 B360.00 F2000
G0 X-44.571 Y-4.711
G1 Z0.000 F1000
G1 X-43.742 Y-4.711 B360.00 F2000
G1 X-43.742 Y-4.711 B360.00 F2000
G1 Z10.000 F1000
G1 B213.84 F2000
G0 X-43.742 Y-4.711
G1 Z0.000 F1000
G1 X-53.024 Y1.511 B213.84 F2000
G1 X-53.090 Y1.551 B211.07 F2000
G1 X-53.160 Y1.584 B205.55 F2000
G1 X-53.232 Y1.610 B200.02 F2000
G1 X-53.307 Y1.630 B194.50 F2000
G1 X-53.383 Y1.642 B188.97 F2000
G1 X-53.460 Y1.646 B183.45 F2000
G1 X-80.134 Y1.966 B180.69 F2000
G1 X-80.153 Y1.967 B183.33 F2000
G1 X-80.153 Y1.967 B188.60 F2000
G1 X-80.153 Y1.967 B188.60 F2000
G1 Z10.000 F1000
G1 B209.79 F2000
G0 X-80.153 Y1.967
G1 Z0.000 F1000
G1 X-80.154 Y1.967 B209.79 F2000
G1 X-80.154 Y1.967 B215.04 F2000
G1 X-80.168 Y1.979 B220.32 F2000
G1 X-81.045 Y2.796 B222.97 F2000
G1 X-81.059 Y2.811 B225.91 F2000
G1 X-81.059 Y2.811 B231.82 F2000
G1 X-81.059 Y2.811 B231.82 F2000
G1 Z10.000 F1000
G1 B255.34 F2000
G0 X-81.059 Y2.811
G1 Z0.000 F1000
G1 X-81.060 Y2.812 B255.34 F2000
G1 X-81.060 Y2.812 B261.18 F2000
G1 X-81.061 Y2.832 B267.06 F2000
G1 X-81.061 Y16.643 B270.00 F2000
G1 X-81.061 Y16.643 B270.00 F2000
G1 Z10.000 F1000
G1 B180.00 F2000
G0 X-81.061 Y16.643
G1 Z0.000 F1000
G1 X-83.088 Y16.643 B180.00 F2000
G1 X-83.088 Y16.643 B180.00 F2000
G1 Z10.000 F1000
G1 B90.00 F2000
G0 X-83.088 Y16.643
G1 Z0.000 F1000
G1 X-83.088 Y-9.224 B90.00 F2000
G1 X-83.088 Y-9.224 B90.00 F2000
G1 Z10.000 F1000
G1 B180.00 F2000
G0 X-83.088 Y-9.224
G1 Z0.000 F1000
G1 X-86.238 Y-9.224 B180.00 F2000
G1 X-86.238 Y-9.224 B180.00 F2000
G1 Z10.000 F1000
G1 B270.00 F2000
G0 X-86.238 Y-9.224
G1 Z0.000 F1000
G1 X-86.238 Y16.643 B270.00 F2000
G1 X-86.238 Y16.643 B270.00 F2000
G1 Z10.000 F1000
G1 B180.00 F2000
G0 X-86.238 Y16.643
G1 Z0.000 F1000
G1 X-94.663 Y16.643 B180.00 F2000
G1 X-94.663 Y16.643 B180.00 F2000
G1 Z10.000 F1000
G1 B90.00 F2000
G0 X-94.663 Y16.643
G1 Z0.000 F1000
G1 X-94.663 Y-33.090 B90.00 F2000
G1 X-94.663 Y-33.090 B90.00 F2000
G1 Z10.000 F1000
G1 B-0.00 F2000
G0 X-94.663 Y-33.090
G1 Z0.000 F1000
G1 X50.337 Y-33.090 B-0.00 F2000
G1 X50.337 Y-33.090 B-0.00 F2000
G1 Z10.000 F1000
G1 B-90.00 F2000
G0 X50.337 Y-33.090
G1 Z0.000 F1000
G1 X50.337 Y16.643 B-90.00 F2000
G1 X50.337 Y16.643 B-90.00 F2000
G1 Z10.000 F1000
G1 B-180.00 F2000
G0 X50.337 Y16.643
G1 Z0.000 F1000
G1 X41.912 Y16.643 B-180.00 F2000
G1 Z10.000 F1000
G1 Z10.000 F1000
G0 X40.169 Y38.454
G1 Z10.000 F1000
G1 B-270.00 F2000
G0 X40.169 Y38.454
G1 Z0.000 F1000
G1 X40.169 Y28.249 B-270.00 F2000
G1 X40.169 Y28.249 B-270.00 F2000
G1 Z10.000 F1000
G1 B-360.00 F2000
G0 X40.169 Y28.249
G1 Z0.000 F1000
G1 X49.189 Y28.249 B-360.00 F2000
G1 X49.211 Y28.248 B-356.86 F2000
G1 X49.233 Y28.244 B-350.65 F2000
G1 X55.697 Y26.815 B-347.53 F2000
G1 X55.714 Y26.810 B-344.98 F2000
G1 X55.714 Y26.810 B-339.81 F2000
G1 X55.714 Y26.810 B-339.81 F2000
G1 Z10.000 F1000
G1 B-319.43 F2000
G0 X55.714 Y26.810
G1 Z0.000 F1000
G1 X55.715 Y26.810 B-319.43 F2000
G1 X55.715 Y26.810 B-319.43 F2000
G1 Z10.000 F1000
G1 B-299.10 F2000
G0 X55.715 Y26.810
G1 Z0.000 F1000
G1 X55.715 Y26.809 B-299.10 F2000
G1 X55.715 Y26.809 B-294.04 F2000
G1 X55.721 Y26.792 B-288.94 F2000
G1 X59.851 Y12.755 B-286.40 F2000
G1 X59.855 Y12.740 B-284.16 F2000
G1 X59.858 Y12.724 B-279.74 F2000
G1 X61.470 Y0.516 B-277.52 F2000
G1 X61.488 Y0.423 B-280.91 F2000
G1 X61.517 Y0.333 B-287.69 F2000
G1 X64.286 Y-6.852 B-291.08 F2000
G1 X64.317 Y-6.921 B-293.81 F2000
G1 X64.354 Y-6.988 B-299.27 F2000
G1 X64.398 Y-7.050 B-304.73 F2000
G1 X64.447 Y-7.109 B-310.19 F2000
G1 X70.297 Y-13.399 B-312.92 F2000
G1 X70.358 Y-13.458 B-315.97 F2000
G1 X70.425 Y-13.511 B-322.08 F2000
G1 X70.498 Y-13.556 B-328.18 F2000
G1 X70.574 Y-13.593 B-334.29 F2000
G1 X70.655 Y-13.621 B-340.39 F2000
G1 X81.460 Y-16.834 B-343.44 F2000
G1 X81.477 Y-16.840 B-340.75 F2000
G1 X81.478 Y-16.840 B-335.32 F2000
G1 X81.478 Y-16.840 B-335.32 F2000
G1 Z10.000 F1000
G1 B-313.76 F2000
G0 X81.478 Y-16.840
G1 Z0.000 F1000
G1 X81.478 Y-16.841 B-313.76 F2000
G1 X81.478 Y-16.841 B-313.76 F2000
G1 Z10.000 F1000
G1 B-292.20 F2000
G0 X81.478 Y-16.841
G1 Z0.000 F1000
G1 X81.479 Y-16.841 B-292.20 F2000
G1 X81.479 Y-16.841 B-292.20 F2000
G1 Z10.000 F1000
G1 B-270.63 F2000
G0 X81.479 Y-16.841
G1 Z0.000 F1000
G1 X81.479 Y-16.842 B-270.63 F2000
G1 X81.479 Y-16.842 B-270.63 F2000
G1 Z10.000 F1000
G1 B-249.07 F2000
G0 X81.479 Y-16.842
G1 Z0.000 F1000
G1 X81.478 Y-16.842 B-249.07 F2000
G1 X81.478 Y-16.842 B-249.07 F2000
G1 Z10.000 F1000
G1 B-227.51 F2000
G0 X81.478 Y-16.842
G1 Z0.000 F1000
G1 X81.478 Y-16.843 B-227.51 F2000
G1 X81.478 Y-16.843 B-222.15 F2000
G1 X81.463 Y-16.854 B-216.76 F2000
G1 X74.067 Y-21.854 B-214.06 F2000
G1 X74.067 Y-21.854 B-214.06 F2000
G1 Z10.000 F1000
G1 B-360.00 F2000
G0 X74.067 Y-21.854
G1 Z0.000 F1000
G1 X89.901 Y-21.854 B-360.00 F2000
G1 X89.901 Y-21.854 B-360.00 F2000
G1 Z10.000 F1000
G1 B-450.00 F2000
G0 X89.901 Y-21.854
G1 Z0.000 F1000
G1 X89.901 Y-7.710 B-450.00 F2000
G1 X89.901 Y-7.710 B-450.00 F2000
G1 Z10.000 F1000
G1 B-540.00 F2000
G0 X89.901 Y-7.710
G1 Z0.000 F1000
G1 X77.955 Y-7.710 B-540.00 F2000
G1 X77.955 Y-7.710 B-540.00 F2000
G1 Z10.000 F1000
G1 B-450.00 F2000
G0 X77.955 Y-7.710
G1 Z0.000 F1000
G1 X77.955 Y-4.560 B-450.00 F2000
G1 X77.955 Y-4.560 B-450.00 F2000
G1 Z10.000 F1000
G1 B-360.00 F2000
G0 X77.955 Y-4.560
G1 Z0.000 F1000
G1 X89.901 Y-4.560 B-360.00 F2000
G1 X89.901 Y-4.560 B-360.00 F2000
G1 Z10.000 F1000
G1 B-450.00 F2000
G0 X89.901 Y-4.560
G1 Z0.000 F1000
G1 X89.901 Y9.585 B-450.00 F2000
G1 X89.901 Y9.585 B-450.00 F2000
G1 Z10.000 F1000
G1 B-540.00 F2000
G0 X89.901 Y9.585
G1 Z0.000 F1000
G1 X75.983 Y9.585 B-540.00 F2000
G1 X75.983 Y9.585 B-540.00 F2000
G1 Z10.000 F1000
G1 B-450.00 F2000
G0 X75.983 Y9.585
G1 Z0.000 F1000
G1 X75.983 Y12.735 B-450.00 F2000
G1 X75.983 Y12.735 B-450.00 F2000
G1 Z10.000 F1000
G1 B-360.00 F2000
G0 X75.983 Y12.735
G1 Z0.000 F1000
G1 X89.901 Y12.735 B-360.00 F2000
G1 X89.901 Y12.735 B-360.00 F2000
G1 Z10.000 F1000
G1 B-450.00 F2000
G0 X89.901 Y12.735
G1 Z0.000 F1000
G1 X89.901 Y26.879 B-450.00 F2000
G1 X89.901 Y26.879 B-450.00 F2000
G1 Z10.000 F1000
G1 B-540.00 F2000
G0 X89.901 Y26.879
G1 Z0.000 F1000
G1 X66.035 Y26.879 B-540.00 F2000
G1 X66.035 Y26.879 B-540.00 F2000
G1 Z10.000 F1000
G1 B-450.00 F2000
G0 X66.035 Y26.879
G1 Z0.000 F1000
G1 X66.035 Y30.029 B-450.00 F2000
G1 X66.035 Y30.029 B-450.00 F2000
G1 Z10.000 F1000
G1 B-360.00 F2000
G0 X66.035 Y30.029
G1 Z0.000 F1000
G1 X89.901 Y30.029 B-360.00 F2000
G1 X89.901 Y30.029 B-360.00 F2000
G1 Z10.000 F1000
G1 B-450.00 F2000
G0 X89.901 Y30.029
G1 Z0.000 F1000
G1 X89.901 Y38.454 B-450.00 F2000
G1 X89.901 Y38.454 B-450.00 F2000
G1 Z10.000 F1000
G1 B-540.00 F2000
G0 X89.901 Y38.454
G1 Z0.000 F1000
G1 X40.169 Y38.454 B-540.00 F2000
G1 Z10.000 F1000
M5 (Stop Oscillation)
M9 (Lights OFF)

M2