(Generated by custom-packaging - grblHAL Multi-Axis)
M8 (Lights ON)

G21  (mm)
G90  (absolute)
G1 Z10.000 F1000
G1 B-0.00 F2000
G1 Z10.000 F1000
G1 B90.00 F2000
G1 Z10.000 F1000
G0 X64.791 Y26.558
M3 S2000 (Start Oscillation)
G1 Z10.000 F1000
G1 B90.00 F2000
G0 X64.791 Y26.558
G1 Z0.000 F1000
G1 X64.791 Y0.692 B90.00 F2000
G1 X64.791 Y0.692 B90.00 F2000
G1 Z10.000 F1000
G1 B180.00 F2000
G0 X64.791 Y0.692
G1 Z0.000 F1000
G1 X61.641 Y0.692 B180.00 F2000
G1 X61.641 Y0.692 B180.00 F2000
G1 Z10.000 F1000
G1 B270.00 F2000
G0 X61.641 Y0.692
G1 Z0.000 F1000
G1 X61.641 Y26.558 B270.00 F2000
G1 X61.641 Y26.558 B270.00 F2000
G1 Z10.000 F1000
G1 B180.00 F2000
G0 X61.641 Y26.558
G1 Z0.000 F1000
G1 X23.124 Y26.558 B180.00 F2000
G1 X23.124 Y26.558 B180.00 F2000
G1 Z10.000 F1000
G1 B90.00 F2000
G0 X23.124 Y26.558
G1 Z0.000 F1000
G1 X23.124 Y0.692 B90.00 F2000
G1 X23.124 Y0.692 B90.00 F2000
G1 Z10.000 F1000
G1 B180.00 F2000
G0 X23.124 Y0.692
G1 Z0.000 F1000
G1 X19.974 Y0.692 B180.00 F2000
G1 X19.974 Y0.692 B180.00 F2000
G1 Z10.000 F1000
G1 B270.00 F2000
G0 X19.974 Y0.692
G1 Z0.000 F1000
G1 X19.974 Y26.558 B270.00 F2000
G1 X19.974 Y26.558 B270.00 F2000
G1 Z10.000 F1000
G1 B180.00 F2000
G0 X19.974 Y26.558
G1 Z0.000 F1000
G1 X-18.543 Y26.558 B180.00 F2000
G1 X-18.543 Y26.558 B180.00 F2000
G1 Z10.000 F1000
G1 B90.00 F2000
G0 X-18.543 Y26.558
G1 Z0.000 F1000
G1 X-18.543 Y0.692 B90.00 F2000
G1 X-18.543 Y0.692 B90.00 F2000
G1 Z10.000 F1000
G1 B180.00 F2000
G0 X-18.543 Y0.692
G1 Z0.000 F1000
G1 X-21.693 Y0.692 B180.00 F2000
G1 X-21.693 Y0.692 B180.00 F2000
G1 Z10.000 F1000
G1 B270.00 F2000
G0 X-21.693 Y0.692
G1 Z0.000 F1000
G1 X-21.693 Y26.558 B270.00 F2000
G1 X-21.693 Y26.558 B270.00 F2000
G1 Z10.000 F1000
G1 B180.00 F2000
G0 X-21.693 Y26.558
G1 Z0.000 F1000
G1 X-60.209 Y26.558 B180.00 F2000
G1 X-60.209 Y26.558 B180.00 F2000
G1 Z10.000 F1000
G1 B90.00 F2000
G0 X-60.209 Y26.558
G1 Z0.000 F1000
G1 X-60.209 Y0.692 B90.00 F2000
G1 X-60.209 Y0.692 B90.00 F2000
G1 Z10.000 F1000
G1 B180.00 F2000
G0 X-60.209 Y0.692
G1 Z0.000 F1000
G1 X-63.359 Y0.692 B180.00 F2000
G1 X-63.359 Y0.692 B180.00 F2000
G1 Z10.000 F1000
G1 B270.00 F2000
G0 X-63.359 Y0.692
G1 Z0.000 F1000
G1 X-63.359 Y26.558 B270.00 F2000
G1 X-63.359 Y26.558 B270.00 F2000
G1 Z10.000 F1000
G1 B180.00 F2000
G0 X-63.359 Y26.558
G1 Z0.000 F1000
G1 X-71.784 Y26.558 B180.00 F2000
G1 X-71.784 Y26.558 B180.00 F2000
G1 Z10.000 F1000
G1 B90.00 F2000
G0 X-71.784 Y26.558
G1 Z0.000 F1000
G1 X-71.784 Y-25.174 B90.00 F2000
G1 X-71.784 Y-25.174 B90.00 F2000
G1 Z10.000 F1000
G1 B-0.00 F2000
G0 X-71.784 Y-25.174
G1 Z0.000 F1000
G1 X73.216 Y-25.174 B-0.00 F2000
G1 X73.216 Y-25.174 B-0.00 F2000
G1 Z10.000 F1000
G1 B-90.00 F2000
G0 X73.216 Y-25.174
G1 Z0.000 F1000
G1 X73.216 Y26.558 B-90.00 F2000
G1 X73.216 Y26.558 B-90.00 F2000
G1 Z10.000 F1000
G1 B-180.00 F2000
G0 X73.216 Y26.558
G1 Z0.000 F1000
G1 X64.791 Y26.558 B-180.00 F2000
G1 Z10.000 F1000
M5 (Stop Oscillation)
M9 (Lights OFF)

M2