(Generated by custom-packaging - grblHAL Multi-Axis)
M8 (Lights ON)

G21  (mm)
G90  (absolute)
G1 Z10.000 F1000
G1 B-0.00 F2000
G1 Z10.000 F1000
G1 B90.00 F2000
G1 Z10.000 F1000
G0 X35.899 Y35.310
M3 S2000 (Start Oscillation)
G1 Z10.000 F1000
G1 B90.00 F2000
G0 X35.899 Y35.310
G1 Z0.000 F1000
G1 X35.899 Y12.068 B90.00 F2000
G1 X35.899 Y12.068 B90.00 F2000
G1 Z10.000 F1000
G1 B-0.00 F2000
G0 X35.899 Y12.068
G1 Z0.000 F1000
G1 X45.657 Y12.068 B-0.00 F2000
G1 X45.672 Y12.068 B2.15 F2000
G1 X45.687 Y12.066 B6.41 F2000
G1 X53.130 Y10.948 B8.55 F2000
G1 X53.149 Y10.944 B11.42 F2000
G1 X53.150 Y10.943 B17.20 F2000
G1 X53.150 Y10.943 B17.20 F2000
G1 Z10.000 F1000
G1 B40.18 F2000
G0 X53.150 Y10.943
G1 Z0.000 F1000
G1 X53.150 Y10.943 B40.18 F2000
G1 X53.150 Y10.943 B40.18 F2000
G1 Z10.000 F1000
G1 B63.16 F2000
G0 X53.150 Y10.943
G1 Z0.000 F1000
G1 X53.151 Y10.942 B63.16 F2000
G1 X53.151 Y10.942 B68.87 F2000
G1 X53.156 Y10.923 B74.61 F2000
G1 X57.787 Y-9.938 B77.49 F2000
G1 X57.790 Y-9.959 B80.55 F2000
G1 X57.790 Y-9.960 B86.72 F2000
G1 X57.790 Y-9.960 B92.82 F2000
G1 X57.787 Y-9.981 B98.96 F2000
G1 X56.349 Y-16.730 B102.02 F2000
G1 X56.345 Y-16.747 B104.54 F2000
G1 X56.345 Y-16.747 B104.54 F2000
G1 Z10.000 F1000
G1 B114.68 F2000
G0 X56.345 Y-16.747
G1 Z0.000 F1000
G1 X56.345 Y-16.748 B114.68 F2000
G1 X56.345 Y-16.748 B117.81 F2000
G1 X56.345 Y-16.748 B117.81 F2000
G1 Z10.000 F1000
G1 B129.76 F2000
G0 X56.345 Y-16.748
G1 Z0.000 F1000
G1 X56.333 Y-16.761 B129.76 F2000
G1 X53.622 Y-19.743 B132.28 F2000
G1 X53.607 Y-19.758 B135.47 F2000
G1 X53.606 Y-19.759 B141.90 F2000
G1 X53.606 Y-19.759 B148.25 F2000
G1 X53.586 Y-19.769 B154.64 F2000
G1 X37.185 Y-26.451 B157.83 F2000
G1 X37.167 Y-26.457 B160.60 F2000
G1 X37.167 Y-26.457 B166.18 F2000
G1 X37.166 Y-26.457 B171.69 F2000
G1 X37.147 Y-26.458 B177.23 F2000
G1 X35.899 Y-26.458 B180.00 F2000
G1 X35.899 Y-26.458 B180.00 F2000
G1 Z10.000 F1000
G1 B90.00 F2000
G0 X35.899 Y-26.458
G1 Z0.000 F1000
G1 X35.899 Y-36.573 B90.00 F2000
G1 X35.899 Y-36.573 B90.00 F2000
G1 Z10.000 F1000
G1 B-0.00 F2000
G0 X35.899 Y-36.573
G1 Z0.000 F1000
G1 X85.631 Y-36.573 B-0.00 F2000
G1 X85.631 Y-36.573 B-0.00 F2000
G1 Z10.000 F1000
G1 B-90.00 F2000
G0 X85.631 Y-36.573
G1 Z0.000 F1000
G1 X85.631 Y-28.148 B-90.00 F2000
G1 X85.631 Y-28.148 B-90.00 F2000
G1 Z10.000 F1000
G1 B-180.00 F2000
G0 X85.631 Y-28.148
G1 Z0.000 F1000
G1 X61.765 Y-28.148 B-180.00 F2000
G1 X61.765 Y-28.148 B-180.00 F2000
G1 Z10.000 F1000
G1 B-90.00 F2000
G0 X61.765 Y-28.148
G1 Z0.000 F1000
G1 X61.765 Y-24.998 B-90.00 F2000
G1 X61.765 Y-24.998 B-90.00 F2000
G1 Z10.000 F1000
G1 B-0.00 F2000
G0 X61.765 Y-24.998
G1 Z0.000 F1000
G1 X85.631 Y-24.998 B-0.00 F2000
G1 X85.631 Y-24.998 B-0.00 F2000
G1 Z10.000 F1000
G1 B-90.00 F2000
G0 X85.631 Y-24.998
G1 Z0.000 F1000
G1 X85.631 Y-10.854 B-90.00 F2000
G1 X85.631 Y-10.854 B-90.00 F2000
G1 Z10.000 F1000
G1 B-180.00 F2000
G0 X85.631 Y-10.854
G1 Z0.000 F1000
G1 X72.636 Y-10.854 B-180.00 F2000
G1 X72.636 Y-10.854 B-180.00 F2000
G1 Z10.000 F1000
G1 B-90.00 F2000
G0 X72.636 Y-10.854
G1 Z0.000 F1000
G1 X72.636 Y-7.704 B-90.00 F2000
G1 X72.636 Y-7.704 B-90.00 F2000
G1 Z10.000 F1000
G1 B-0.00 F2000
G0 X72.636 Y-7.704
G1 Z0.000 F1000
G1 X85.631 Y-7.704 B-0.00 F2000
G1 X85.631 Y-7.704 B-0.00 F2000
G1 Z10.000 F1000
G1 B-90.00 F2000
G0 X85.631 Y-7.704
G1 Z0.000 F1000
G1 X85.631 Y6.441 B-90.00 F2000
G1 X85.631 Y6.441 B-90.00 F2000
G1 Z10.000 F1000
G1 B-180.00 F2000
G0 X85.631 Y6.441
G1 Z0.000 F1000
G1 X70.716 Y6.441 B-180.00 F2000
G1 X70.716 Y6.441 B-180.00 F2000
G1 Z10.000 F1000
G1 B-90.00 F2000
G0 X70.716 Y6.441
G1 Z0.000 F1000
G1 X70.716 Y9.591 B-90.00 F2000
G1 X70.716 Y9.591 B-90.00 F2000
G1 Z10.000 F1000
G1 B-0.00 F2000
G0 X70.716 Y9.591
G1 Z0.000 F1000
G1 X85.631 Y9.591 B-0.00 F2000
G1 X85.631 Y9.591 B-0.00 F2000
G1 Z10.000 F1000
G1 B-90.00 F2000
G0 X85.631 Y9.591
G1 Z0.000 F1000
G1 X85.631 Y23.735 B-90.00 F2000
G1 X85.631 Y23.735 B-90.00 F2000
G1 Z10.000 F1000
G1 B-180.00 F2000
G0 X85.631 Y23.735
G1 Z0.000 F1000
G1 X61.765 Y23.735 B-180.00 F2000
G1 X61.765 Y23.735 B-180.00 F2000
G1 Z10.000 F1000
G1 B-90.00 F2000
G0 X61.765 Y23.735
G1 Z0.000 F1000
G1 X61.765 Y26.885 B-90.00 F2000
G1 X61.765 Y26.885 B-90.00 F2000
G1 Z10.000 F1000
G1 B-0.00 F2000
G0 X61.765 Y26.885
G1 Z0.000 F1000
G1 X85.631 Y26.885 B-0.00 F2000
G1 X85.631 Y26.885 B-0.00 F2000
G1 Z10.000 F1000
G1 B-90.00 F2000
G0 X85.631 Y26.885
G1 Z0.000 F1000
G1 X85.631 Y35.310 B-90.00 F2000
G1 X85.631 Y35.310 B-90.00 F2000
G1 Z10.000 F1000
G1 B-180.00 F2000
G0 X85.631 Y35.310
G1 Z0.000 F1000
G1 X35.899 Y35.310 B-180.00 F2000
G1 Z10.000 F1000
G1 Z10.000 F1000
G0 X-25.225 Y36.995
G1 Z10.000 F1000
G1 B-270.00 F2000
G0 X-25.225 Y36.995
G1 Z0.000 F1000
G1 X-25.225 Y-34.888 B-270.00 F2000
G1 X-25.225 Y-34.888 B-270.00 F2000
G1 Z10.000 F1000
G1 B-360.00 F2000
G0 X-25.225 Y-34.888
G1 Z0.000 F1000
G1 X26.508 Y-34.888 B-360.00 F2000
G1 X26.508 Y-34.888 B-360.00 F2000
G1 Z10.000 F1000
G1 B-450.00 F2000
G0 X26.508 Y-34.888
G1 Z0.000 F1000
G1 X26.508 Y-26.463 B-450.00 F2000
G1 X26.508 Y-26.463 B-450.00 F2000
G1 Z10.000 F1000
G1 B-540.00 F2000
G0 X26.508 Y-26.463
G1 Z0.000 F1000
G1 X0.641 Y-26.463 B-540.00 F2000
G1 X0.641 Y-26.463 B-540.00 F2000
G1 Z10.000 F1000
G1 B-450.00 F2000
G0 X0.641 Y-26.463
G1 Z0.000 F1000
G1 X0.641 Y-23.313 B-450.00 F2000
G1 X0.641 Y-23.313 B-450.00 F2000
G1 Z10.000 F1000
G1 B-360.00 F2000
G0 X0.641 Y-23.313
G1 Z0.000 F1000
G1 X26.508 Y-23.313 B-360.00 F2000
G1 X26.508 Y-23.313 B-360.00 F2000
G1 Z10.000 F1000
G1 B-450.00 F2000
G0 X26.508 Y-23.313
G1 Z0.000 F1000
G1 X26.508 Y-9.168 B-450.00 F2000
G1 X26.508 Y-9.168 B-450.00 F2000
G1 Z10.000 F1000
G1 B-540.00 F2000
G0 X26.508 Y-9.168
G1 Z0.000 F1000
G1 X0.641 Y-9.168 B-540.00 F2000
G1 X0.641 Y-9.168 B-540.00 F2000
G1 Z10.000 F1000
G1 B-450.00 F2000
G0 X0.641 Y-9.168
G1 Z0.000 F1000
G1 X0.641 Y-6.018 B-450.00 F2000
G1 X0.641 Y-6.018 B-450.00 F2000
G1 Z10.000 F1000
G1 B-360.00 F2000
G0 X0.641 Y-6.018
G1 Z0.000 F1000
G1 X26.508 Y-6.018 B-360.00 F2000
G1 X26.508 Y-6.018 B-360.00 F2000
G1 Z10.000 F1000
G1 B-450.00 F2000
G0 X26.508 Y-6.018
G1 Z0.000 F1000
G1 X26.508 Y8.126 B-450.00 F2000
G1 X26.508 Y8.126 B-450.00 F2000
G1 Z10.000 F1000
G1 B-540.00 F2000
G0 X26.508 Y8.126
G1 Z0.000 F1000
G1 X0.641 Y8.126 B-540.00 F2000
G1 X0.641 Y8.126 B-540.00 F2000
G1 Z10.000 F1000
G1 B-450.00 F2000
G0 X0.641 Y8.126
G1 Z0.000 F1000
G1 X0.641 Y11.276 B-450.00 F2000
G1 X0.641 Y11.276 B-450.00 F2000
G1 Z10.000 F1000
G1 B-360.00 F2000
G0 X0.641 Y11.276
G1 Z0.000 F1000
G1 X26.508 Y11.276 B-360.00 F2000
G1 X26.508 Y11.276 B-360.00 F2000
G1 Z10.000 F1000
G1 B-450.00 F2000
G0 X26.508 Y11.276
G1 Z0.000 F1000
G1 X26.508 Y25.420 B-450.00 F2000
G1 X26.508 Y25.420 B-450.00 F2000
G1 Z10.000 F1000
G1 B-540.00 F2000
G0 X26.508 Y25.420
G1 Z0.000 F1000
G1 X0.641 Y25.420 B-540.00 F2000
G1 X0.641 Y25.420 B-540.00 F2000
G1 Z10.000 F1000
G1 B-450.00 F2000
G0 X0.641 Y25.420
G1 Z0.000 F1000
G1 X0.641 Y28.570 B-450.00 F2000
G1 X0.641 Y28.570 B-450.00 F2000
G1 Z10.000 F1000
G1 B-360.00 F2000
G0 X0.641 Y28.570
G1 Z0.000 F1000
G1 X26.508 Y28.570 B-360.00 F2000
G1 X26.508 Y28.570 B-360.00 F2000
G1 Z10.000 F1000
G1 B-450.00 F2000
G0 X26.508 Y28.570
G1 Z0.000 F1000
G1 X26.508 Y36.995 B-450.00 F2000
G1 X26.508 Y36.995 B-450.00 F2000
G1 Z10.000 F1000
G1 B-540.00 F2000
G0 X26.508 Y36.995
G1 Z0.000 F1000
G1 X-25.225 Y36.995 B-540.00 F2000
G1 Z10.000 F1000
G1 Z10.000 F1000
G0 X-85.674 Y38.681
G1 Z10.000 F1000
G1 B-630.00 F2000
G0 X-85.674 Y38.681
G1 Z0.000 F1000
G1 X-85.674 Y-33.202 B-630.00 F2000
G1 X-85.674 Y-33.202 B-630.00 F2000
G1 Z10.000 F1000
G1 B-720.00 F2000
G0 X-85.674 Y-33.202
G1 Z0.000 F1000
G1 X-33.942 Y-33.202 B-720.00 F2000
G1 X-33.942 Y-33.202 B-720.00 F2000
G1 Z10.000 F1000
G1 B-810.00 F2000
G0 X-33.942 Y-33.202
G1 Z0.000 F1000
G1 X-33.942 Y-24.777 B-810.00 F2000
G1 X-33.942 Y-24.777 B-810.00 F2000
G1 Z10.000 F1000
G1 B-900.00 F2000
G0 X-33.942 Y-24.777
G1 Z0.000 F1000
G1 X-59.808 Y-24.777 B-900.00 F2000
G1 X-59.808 Y-24.777 B-900.00 F2000
G1 Z10.000 F1000
G1 B-810.00 F2000
G0 X-59.808 Y-24.777
G1 Z0.000 F1000
G1 X-59.808 Y-21.627 B-810.00 F2000
G1 X-59.808 Y-21.627 B-810.00 F2000
G1 Z10.000 F1000
G1 B-720.00 F2000
G0 X-59.808 Y-21.627
G1 Z0.000 F1000
G1 X-33.942 Y-21.627 B-720.00 F2000
G1 X-33.942 Y-21.627 B-720.00 F2000
G1 Z10.000 F1000
G1 B-810.00 F2000
G0 X-33.942 Y-21.627
G1 Z0.000 F1000
G1 X-33.942 Y-7.483 B-810.00 F2000
G1 X-33.942 Y-7.483 B-810.00 F2000
G1 Z10.000 F1000
G1 B-900.00 F2000
G0 X-33.942 Y-7.483
G1 Z0.000 F1000
G1 X-59.808 Y-7.483 B-900.00 F2000
G1 X-59.808 Y-7.483 B-900.00 F2000
G1 Z10.000 F1000
G1 B-810.00 F2000
G0 X-59.808 Y-7.483
G1 Z0.000 F1000
G1 X-59.808 Y-4.333 B-810.00 F2000
G1 X-59.808 Y-4.333 B-810.00 F2000
G1 Z10.000 F1000
G1 B-720.00 F2000
G0 X-59.808 Y-4.333
G1 Z0.000 F1000
G1 X-33.942 Y-4.333 B-720.00 F2000
G1 X-33.942 Y-4.333 B-720.00 F2000
G1 Z10.000 F1000
G1 B-810.00 F2000
G0 X-33.942 Y-4.333
G1 Z0.000 F1000
G1 X-33.942 Y9.811 B-810.00 F2000
G1 X-33.942 Y9.811 B-810.00 F2000
G1 Z10.000 F1000
G1 B-900.00 F2000
G0 X-33.942 Y9.811
G1 Z0.000 F1000
G1 X-59.808 Y9.811 B-900.00 F2000
G1 X-59.808 Y9.811 B-900.00 F2000
G1 Z10.000 F1000
G1 B-810.00 F2000
G0 X-59.808 Y9.811
G1 Z0.000 F1000
G1 X-59.808 Y12.961 B-810.00 F2000
G1 X-59.808 Y12.961 B-810.00 F2000
G1 Z10.000 F1000
G1 B-720.00 F2000
G0 X-59.808 Y12.961
G1 Z0.000 F1000
G1 X-33.942 Y12.961 B-720.00 F2000
G1 X-33.942 Y12.961 B-720.00 F2000
G1 Z10.000 F1000
G1 B-810.00 F2000
G0 X-33.942 Y12.961
G1 Z0.000 F1000
G1 X-33.942 Y27.106 B-810.00 F2000
G1 X-33.942 Y27.106 B-810.00 F2000
G1 Z10.000 F1000
G1 B-900.00 F2000
G0 X-33.942 Y27.106
G1 Z0.000 F1000
G1 X-59.808 Y27.106 B-900.00 F2000
G1 X-59.808 Y27.106 B-900.00 F2000
G1 Z10.000 F1000
G1 B-810.00 F2000
G0 X-59.808 Y27.106
G1 Z0.000 F1000
G1 X-59.808 Y30.256 B-810.00 F2000
G1 X-59.808 Y30.256 B-810.00 F2000
G1 Z10.000 F1000
G1 B-720.00 F2000
G0 X-59.808 Y30.256
G1 Z0.000 F1000
G1 X-33.942 Y30.256 B-720.00 F2000
G1 X-33.942 Y30.256 B-720.00 F2000
G1 Z10.000 F1000
G1 B-810.00 F2000
G0 X-33.942 Y30.256
G1 Z0.000 F1000
G1 X-33.942 Y38.681 B-810.00 F2000
G1 X-33.942 Y38.681 B-810.00 F2000
G1 Z10.000 F1000
G1 B-900.00 F2000
G0 X-33.942 Y38.681
G1 Z0.000 F1000
G1 X-85.674 Y38.681 B-900.00 F2000
G1 Z10.000 F1000
M5 (Stop Oscillation)
M9 (Lights OFF)

M2