(Generated by custom-packaging - grblHAL Multi-Axis)
M8 (Lights ON)

G21  (mm)
G90  (absolute)
G1 Z10.000 F1000
G1 B-0.00 F2000
G1 Z10.000 F1000
G1 B90.00 F2000
G1 Z10.000 F1000
G0 X66.069 Y19.991
M3 S2000 (Start Oscillation)
G1 Z10.000 F1000
G1 B90.00 F2000
G0 X66.069 Y19.991
G1 Z0.000 F1000
G1 X66.069 Y-5.875 B90.00 F2000
G1 X66.069 Y-5.875 B90.00 F2000
G1 Z10.000 F1000
G1 B180.00 F2000
G0 X66.069 Y-5.875
G1 Z0.000 F1000
G1 X62.919 Y-5.875 B180.00 F2000
G1 X62.919 Y-5.875 B180.00 F2000
G1 Z10.000 F1000
G1 B270.00 F2000
G0 X62.919 Y-5.875
G1 Z0.000 F1000
G1 X62.919 Y19.991 B270.00 F2000
G1 X62.919 Y19.991 B270.00 F2000
G1 Z10.000 F1000
G1 B180.00 F2000
G0 X62.919 Y19.991
G1 Z0.000 F1000
G1 X24.403 Y19.991 B180.00 F2000
G1 X24.403 Y19.991 B180.00 F2000
G1 Z10.000 F1000
G1 B90.00 F2000
G0 X24.403 Y19.991
G1 Z0.000 F1000
G1 X24.403 Y-5.875 B90.00 F2000
G1 X24.403 Y-5.875 B90.00 F2000
G1 Z10.000 F1000
G1 B180.00 F2000
G0 X24.403 Y-5.875
G1 Z0.000 F1000
G1 X21.253 Y-5.875 B180.00 F2000
G1 X21.253 Y-5.875 B180.00 F2000
G1 Z10.000 F1000
G1 B270.00 F2000
G0 X21.253 Y-5.875
G1 Z0.000 F1000
G1 X21.253 Y19.991 B270.00 F2000
G1 X21.253 Y19.991 B270.00 F2000
G1 Z10.000 F1000
G1 B180.00 F2000
G0 X21.253 Y19.991
G1 Z0.000 F1000
G1 X-17.264 Y19.991 B180.00 F2000
G1 X-17.264 Y19.991 B180.00 F2000
G1 Z10.000 F1000
G1 B90.00 F2000
G0 X-17.264 Y19.991
G1 Z0.000 F1000
G1 X-17.264 Y-5.875 B90.00 F2000
G1 X-17.264 Y-5.875 B90.00 F2000
G1 Z10.000 F1000
G1 B180.00 F2000
G0 X-17.264 Y-5.875
G1 Z0.000 F1000
G1 X-20.414 Y-5.875 B180.00 F2000
G1 X-20.414 Y-5.875 B180.00 F2000
G1 Z10.000 F1000
G1 B270.00 F2000
G0 X-20.414 Y-5.875
G1 Z0.000 F1000
G1 X-20.414 Y19.991 B270.00 F2000
G1 X-20.414 Y19.991 B270.00 F2000
G1 Z10.000 F1000
G1 B180.00 F2000
G0 X-20.414 Y19.991
G1 Z0.000 F1000
G1 X-58.931 Y19.991 B180.00 F2000
G1 X-58.931 Y19.991 B180.00 F2000
G1 Z10.000 F1000
G1 B90.00 F2000
G0 X-58.931 Y19.991
G1 Z0.000 F1000
G1 X-58.931 Y-5.875 B90.00 F2000
G1 X-58.931 Y-5.875 B90.00 F2000
G1 Z10.000 F1000
G1 B180.00 F2000
G0 X-58.931 Y-5.875
G1 Z0.000 F1000
G1 X-62.081 Y-5.875 B180.00 F2000
G1 X-62.081 Y-5.875 B180.00 F2000
G1 Z10.000 F1000
G1 B270.00 F2000
G0 X-62.081 Y-5.875
G1 Z0.000 F1000
G1 X-62.081 Y19.991 B270.00 F2000
G1 X-62.081 Y19.991 B270.00 F2000
G1 Z10.000 F1000
G1 B180.00 F2000
G0 X-62.081 Y19.991
G1 Z0.000 F1000
G1 X-70.506 Y19.991 B180.00 F2000
G1 X-70.506 Y19.991 B180.00 F2000
G1 Z10.000 F1000
G1 B90.00 F2000
G0 X-70.506 Y19.991
G1 Z0.000 F1000
G1 X-70.506 Y-31.742 B90.00 F2000
G1 X-70.506 Y-31.742 B90.00 F2000
G1 Z10.000 F1000
G1 B-0.00 F2000
G0 X-70.506 Y-31.742
G1 Z0.000 F1000
G1 X74.494 Y-31.742 B-0.00 F2000
G1 X74.494 Y-31.742 B-0.00 F2000
G1 Z10.000 F1000
G1 B-90.00 F2000
G0 X74.494 Y-31.742
G1 Z0.000 F1000
G1 X74.494 Y19.991 B-90.00 F2000
G1 X74.494 Y19.991 B-90.00 F2000
G1 Z10.000 F1000
G1 B-180.00 F2000
G0 X74.494 Y19.991
G1 Z0.000 F1000
G1 X66.069 Y19.991 B-180.00 F2000
G1 Z10.000 F1000
M5 (Stop Oscillation)
M9 (Lights OFF)

M2