(Generated by custom-packaging - grblHAL Multi-Axis)
M8 (Lights ON)

G21  (mm)
G90  (absolute)
G1 Z10.000 F1000
G1 B-0.00 F2000
G1 Z10.000 F1000
G1 B90.00 F2000
G1 Z10.000 F1000
G0 X-45.225 Y41.089
M3 S2000 (Start Oscillation)
G1 Z10.000 F1000
G1 B90.00 F2000
G0 X-45.225 Y41.089
G1 Z0.000 F1000
G1 X-45.225 Y10.406 B90.00 F2000
G1 X-45.225 Y10.406 B90.00 F2000
G1 Z10.000 F1000
G1 B0.14 F2000
G0 X-45.225 Y10.406
G1 Z0.000 F1000
G1 X-43.628 Y10.402 B0.14 F2000
G1 X-43.607 Y10.401 B3.31 F2000
G1 X-43.606 Y10.401 B9.70 F2000
G1 X-43.606 Y10.401 B16.01 F2000
G1 X-43.585 Y10.392 B22.36 F2000
G1 X-37.744 Y7.602 B25.54 F2000
G1 X-37.728 Y7.593 B28.22 F2000
G1 X-37.728 Y7.593 B28.22 F2000
G1 Z10.000 F1000
G1 B38.99 F2000
G0 X-37.728 Y7.593
G1 Z0.000 F1000
G1 X-37.727 Y7.592 B38.99 F2000
G1 X-37.727 Y7.592 B44.30 F2000
G1 X-37.727 Y7.592 B44.30 F2000
G1 Z10.000 F1000
G1 B55.02 F2000
G0 X-37.727 Y7.592
G1 Z0.000 F1000
G1 X-37.716 Y7.577 B55.02 F2000
G1 X-34.714 Y2.828 B57.70 F2000
G1 X-34.703 Y2.808 B61.03 F2000
G1 X-34.703 Y2.807 B67.73 F2000
G1 X-34.703 Y2.807 B74.35 F2000
G1 X-34.699 Y2.784 B81.00 F2000
G1 X-34.260 Y-1.644 B84.33 F2000
G1 X-34.259 Y-1.664 B87.27 F2000
G1 X-34.259 Y-1.665 B93.19 F2000
G1 X-34.259 Y-1.665 B99.03 F2000
G1 X-34.264 Y-1.685 B104.91 F2000
G1 X-35.625 Y-5.910 B107.85 F2000
G1 X-35.632 Y-5.929 B110.80 F2000
G1 X-35.633 Y-5.930 B116.72 F2000
G1 X-35.633 Y-5.930 B122.57 F2000
G1 X-35.646 Y-5.946 B128.45 F2000
G1 X-38.598 Y-9.295 B131.39 F2000
G1 X-38.612 Y-9.309 B134.32 F2000
G1 X-38.612 Y-9.310 B140.20 F2000
G1 X-38.613 Y-9.310 B146.01 F2000
G1 X-38.630 Y-9.320 B151.86 F2000
G1 X-42.567 Y-11.174 B154.78 F2000
G1 X-42.587 Y-11.182 B157.88 F2000
G1 X-42.588 Y-11.182 B164.12 F2000
G1 X-42.588 Y-11.182 B170.29 F2000
G1 X-42.609 Y-11.183 B176.49 F2000
G1 X-45.225 Y-11.202 B179.60 F2000
G1 X-45.225 Y-11.202 B179.60 F2000
G1 Z10.000 F1000
G1 B90.00 F2000
G0 X-45.225 Y-11.202
G1 Z0.000 F1000
G1 X-45.225 Y-42.079 B90.00 F2000
G1 X-45.225 Y-42.079 B90.00 F2000
G1 Z10.000 F1000
G1 B-0.00 F2000
G0 X-45.225 Y-42.079
G1 Z0.000 F1000
G1 X-7.489 Y-42.079 B-0.00 F2000
G1 X-7.489 Y-42.079 B-0.00 F2000
G1 Z10.000 F1000
G1 B-90.00 F2000
G0 X-7.489 Y-42.079
G1 Z0.000 F1000
G1 X-7.489 Y-33.654 B-90.00 F2000
G1 X-7.489 Y-33.654 B-90.00 F2000
G1 Z10.000 F1000
G1 B-180.00 F2000
G0 X-7.489 Y-33.654
G1 Z0.000 F1000
G1 X-25.357 Y-33.654 B-180.00 F2000
G1 X-25.357 Y-33.654 B-180.00 F2000
G1 Z10.000 F1000
G1 B-90.00 F2000
G0 X-25.357 Y-33.654
G1 Z0.000 F1000
G1 X-25.357 Y-30.504 B-90.00 F2000
G1 X-25.357 Y-30.504 B-90.00 F2000
G1 Z10.000 F1000
G1 B-0.00 F2000
G0 X-25.357 Y-30.504
G1 Z0.000 F1000
G1 X-7.489 Y-30.504 B-0.00 F2000
G1 X-7.489 Y-30.504 B-0.00 F2000
G1 Z10.000 F1000
G1 B-90.00 F2000
G0 X-7.489 Y-30.504
G1 Z0.000 F1000
G1 X-7.489 Y-12.598 B-90.00 F2000
G1 X-7.489 Y-12.598 B-90.00 F2000
G1 Z10.000 F1000
G1 B-180.00 F2000
G0 X-7.489 Y-12.598
G1 Z0.000 F1000
G1 X-23.868 Y-12.598 B-180.00 F2000
G1 X-23.868 Y-12.598 B-180.00 F2000
G1 Z10.000 F1000
G1 B-90.00 F2000
G0 X-23.868 Y-12.598
G1 Z0.000 F1000
G1 X-23.868 Y-9.448 B-90.00 F2000
G1 X-23.868 Y-9.448 B-90.00 F2000
G1 Z10.000 F1000
G1 B-0.00 F2000
G0 X-23.868 Y-9.448
G1 Z0.000 F1000
G1 X-7.489 Y-9.448 B-0.00 F2000
G1 X-7.489 Y-9.448 B-0.00 F2000
G1 Z10.000 F1000
G1 B-90.00 F2000
G0 X-7.489 Y-9.448
G1 Z0.000 F1000
G1 X-7.489 Y8.458 B-90.00 F2000
G1 X-7.489 Y8.458 B-90.00 F2000
G1 Z10.000 F1000
G1 B-180.00 F2000
G0 X-7.489 Y8.458
G1 Z0.000 F1000
G1 X-24.161 Y8.458 B-180.00 F2000
G1 X-24.161 Y8.458 B-180.00 F2000
G1 Z10.000 F1000
G1 B-90.00 F2000
G0 X-24.161 Y8.458
G1 Z0.000 F1000
G1 X-24.161 Y11.608 B-90.00 F2000
G1 X-24.161 Y11.608 B-90.00 F2000
G1 Z10.000 F1000
G1 B-0.00 F2000
G0 X-24.161 Y11.608
G1 Z0.000 F1000
G1 X-7.489 Y11.608 B-0.00 F2000
G1 X-7.489 Y11.608 B-0.00 F2000
G1 Z10.000 F1000
G1 B-90.00 F2000
G0 X-7.489 Y11.608
G1 Z0.000 F1000
G1 X-7.489 Y29.514 B-90.00 F2000
G1 X-7.489 Y29.514 B-90.00 F2000
G1 Z10.000 F1000
G1 B-180.00 F2000
G0 X-7.489 Y29.514
G1 Z0.000 F1000
G1 X-25.357 Y29.514 B-180.00 F2000
G1 X-25.357 Y29.514 B-180.00 F2000
G1 Z10.000 F1000
G1 B-90.00 F2000
G0 X-25.357 Y29.514
G1 Z0.000 F1000
G1 X-25.357 Y32.664 B-90.00 F2000
G1 X-25.357 Y32.664 B-90.00 F2000
G1 Z10.000 F1000
G1 B-0.00 F2000
G0 X-25.357 Y32.664
G1 Z0.000 F1000
G1 X-7.489 Y32.664 B-0.00 F2000
G1 X-7.489 Y32.664 B-0.00 F2000
G1 Z10.000 F1000
G1 B-90.00 F2000
G0 X-7.489 Y32.664
G1 Z0.000 F1000
G1 X-7.489 Y41.089 B-90.00 F2000
G1 X-7.489 Y41.089 B-90.00 F2000
G1 Z10.000 F1000
G1 B-180.00 F2000
G0 X-7.489 Y41.089
G1 Z0.000 F1000
G1 X-45.225 Y41.089 B-180.00 F2000
G1 Z10.000 F1000
G1 Z10.000 F1000
G0 X4.326 Y41.089
G1 Z10.000 F1000
G1 B-270.00 F2000
G0 X4.326 Y41.089
G1 Z0.000 F1000
G1 X4.326 Y17.989 B-270.00 F2000
G1 X4.326 Y17.989 B-270.00 F2000
G1 Z10.000 F1000
G1 B-359.42 F2000
G0 X4.326 Y17.989
G1 Z0.000 F1000
G1 X8.709 Y17.944 B-359.42 F2000
G1 X8.731 Y17.943 B-356.33 F2000
G1 X8.731 Y17.942 B-350.12 F2000
G1 X8.732 Y17.942 B-343.98 F2000
G1 X8.751 Y17.934 B-337.80 F2000
G1 X15.757 Y14.625 B-334.72 F2000
G1 X15.777 Y14.614 B-331.40 F2000
G1 X15.778 Y14.614 B-324.73 F2000
G1 X15.778 Y14.614 B-318.14 F2000
G1 X15.794 Y14.596 B-311.51 F2000
G1 X21.699 Y7.092 B-308.20 F2000
G1 X21.711 Y7.073 B-304.89 F2000
G1 X21.712 Y7.072 B-298.23 F2000
G1 X21.712 Y7.072 B-291.65 F2000
G1 X21.718 Y7.050 B-285.03 F2000
G1 X23.285 Y-0.500 B-281.72 F2000
G1 X23.288 Y-0.520 B-278.78 F2000
G1 X23.288 Y-0.521 B-272.85 F2000
G1 X23.288 Y-0.521 B-266.99 F2000
G1 X23.285 Y-0.541 B-261.10 F2000
G1 X21.711 Y-8.044 B-258.16 F2000
G1 X21.707 Y-8.062 B-255.57 F2000
G1 X21.707 Y-8.062 B-250.37 F2000
G1 X21.707 Y-8.062 B-245.22 F2000
G1 X21.698 Y-8.078 B-240.05 F2000
G1 X18.532 Y-13.040 B-237.46 F2000
G1 X18.522 Y-13.055 B-234.86 F2000
G1 X18.521 Y-13.055 B-229.62 F2000
G1 X18.521 Y-13.055 B-224.45 F2000
G1 X18.507 Y-13.067 B-219.25 F2000
G1 X12.316 Y-17.673 B-216.65 F2000
G1 X12.300 Y-17.683 B-213.77 F2000
G1 X12.299 Y-17.684 B-207.99 F2000
G1 X12.299 Y-17.684 B-202.28 F2000
G1 X12.279 Y-17.690 B-196.53 F2000
G1 X5.258 Y-19.395 B-193.65 F2000
G1 X5.234 Y-19.400 B-190.22 F2000
G1 X5.210 Y-19.401 B-183.41 F2000
G1 X4.326 Y-19.401 B-180.00 F2000
G1 X4.326 Y-19.401 B-180.00 F2000
G1 Z10.000 F1000
G1 B-270.00 F2000
G0 X4.326 Y-19.401
G1 Z0.000 F1000
G1 X4.326 Y-42.079 B-270.00 F2000
G1 X4.326 Y-42.079 B-270.00 F2000
G1 Z10.000 F1000
G1 B-360.00 F2000
G0 X4.326 Y-42.079
G1 Z0.000 F1000
G1 X42.062 Y-42.079 B-360.00 F2000
G1 X42.062 Y-42.079 B-360.00 F2000
G1 Z10.000 F1000
G1 B-450.00 F2000
G0 X42.062 Y-42.079
G1 Z0.000 F1000
G1 X42.062 Y-33.654 B-450.00 F2000
G1 X42.062 Y-33.654 B-450.00 F2000
G1 Z10.000 F1000
G1 B-540.00 F2000
G0 X42.062 Y-33.654
G1 Z0.000 F1000
G1 X24.194 Y-33.654 B-540.00 F2000
G1 X24.194 Y-33.654 B-540.00 F2000
G1 Z10.000 F1000
G1 B-450.00 F2000
G0 X24.194 Y-33.654
G1 Z0.000 F1000
G1 X24.194 Y-30.504 B-450.00 F2000
G1 X24.194 Y-30.504 B-450.00 F2000
G1 Z10.000 F1000
G1 B-360.00 F2000
G0 X24.194 Y-30.504
G1 Z0.000 F1000
G1 X42.062 Y-30.504 B-360.00 F2000
G1 X42.062 Y-30.504 B-360.00 F2000
G1 Z10.000 F1000
G1 B-450.00 F2000
G0 X42.062 Y-30.504
G1 Z0.000 F1000
G1 X42.062 Y-12.598 B-450.00 F2000
G1 X42.062 Y-12.598 B-450.00 F2000
G1 Z10.000 F1000
G1 B-540.00 F2000
G0 X42.062 Y-12.598
G1 Z0.000 F1000
G1 X31.940 Y-12.598 B-540.00 F2000
G1 X31.940 Y-12.598 B-540.00 F2000
G1 Z10.000 F1000
G1 B-450.00 F2000
G0 X31.940 Y-12.598
G1 Z0.000 F1000
G1 X31.940 Y-9.448 B-450.00 F2000
G1 X31.940 Y-9.448 B-450.00 F2000
G1 Z10.000 F1000
G1 B-360.00 F2000
G0 X31.940 Y-9.448
G1 Z0.000 F1000
G1 X42.062 Y-9.448 B-360.00 F2000
G1 X42.062 Y-9.448 B-360.00 F2000
G1 Z10.000 F1000
G1 B-450.00 F2000
G0 X42.062 Y-9.448
G1 Z0.000 F1000
G1 X42.062 Y8.458 B-450.00 F2000
G1 X42.062 Y8.458 B-450.00 F2000
G1 Z10.000 F1000
G1 B-540.00 F2000
G0 X42.062 Y8.458
G1 Z0.000 F1000
G1 X31.723 Y8.458 B-540.00 F2000
G1 X31.723 Y8.458 B-540.00 F2000
G1 Z10.000 F1000
G1 B-450.00 F2000
G0 X31.723 Y8.458
G1 Z0.000 F1000
G1 X31.723 Y11.608 B-450.00 F2000
G1 X31.723 Y11.608 B-450.00 F2000
G1 Z10.000 F1000
G1 B-360.00 F2000
G0 X31.723 Y11.608
G1 Z0.000 F1000
G1 X42.062 Y11.608 B-360.00 F2000
G1 X42.062 Y11.608 B-360.00 F2000
G1 Z10.000 F1000
G1 B-450.00 F2000
G0 X42.062 Y11.608
G1 Z0.000 F1000
G1 X42.062 Y29.514 B-450.00 F2000
G1 X42.062 Y29.514 B-450.00 F2000
G1 Z10.000 F1000
G1 B-540.00 F2000
G0 X42.062 Y29.514
G1 Z0.000 F1000
G1 X24.194 Y29.514 B-540.00 F2000
G1 X24.194 Y29.514 B-540.00 F2000
G1 Z10.000 F1000
G1 B-450.00 F2000
G0 X24.194 Y29.514
G1 Z0.000 F1000
G1 X24.194 Y32.664 B-450.00 F2000
G1 X24.194 Y32.664 B-450.00 F2000
G1 Z10.000 F1000
G1 B-360.00 F2000
G0 X24.194 Y32.664
G1 Z0.000 F1000
G1 X42.062 Y32.664 B-360.00 F2000
G1 X42.062 Y32.664 B-360.00 F2000
G1 Z10.000 F1000
G1 B-450.00 F2000
G0 X42.062 Y32.664
G1 Z0.000 F1000
G1 X42.062 Y41.089 B-450.00 F2000
G1 X42.062 Y41.089 B-450.00 F2000
G1 Z10.000 F1000
G1 B-540.00 F2000
G0 X42.062 Y41.089
G1 Z0.000 F1000
G1 X4.326 Y41.089 B-540.00 F2000
G1 Z10.000 F1000
M5 (Stop Oscillation)
M9 (Lights OFF)

M2