(Generated by custom-packaging - grblHAL Multi-Axis)
M8 (Lights ON)

G21  (mm)
G90  (absolute)
G1 Z10.000 F1000
G1 B-0.00 F2000
G1 Z10.000 F1000
G1 B90.00 F2000
G1 Z10.000 F1000
G0 X67.283 Y-2.585
M3 S2000 (Start Oscillation)
G1 Z10.000 F1000
G1 B90.00 F2000
G0 X67.283 Y-2.585
G1 Z0.000 F1000
G1 X67.283 Y-22.453 B90.00 F2000
G1 X67.283 Y-22.453 B90.00 F2000
G1 Z10.000 F1000
G1 B180.00 F2000
G0 X67.283 Y-22.453
G1 Z0.000 F1000
G1 X64.133 Y-22.453 B180.00 F2000
G1 X64.133 Y-22.453 B180.00 F2000
G1 Z10.000 F1000
G1 B270.00 F2000
G0 X64.133 Y-22.453
G1 Z0.000 F1000
G1 X64.133 Y-13.250 B270.00 F2000
G1 X64.133 Y-13.250 B270.00 F2000
G1 Z10.000 F1000
G1 B180.00 F2000
G0 X64.133 Y-13.250
G1 Z0.000 F1000
G1 X60.785 Y-13.250 B180.00 F2000
G1 X60.767 Y-13.250 B182.65 F2000
G1 X60.766 Y-13.249 B187.93 F2000
G1 X60.766 Y-13.249 B187.93 F2000
G1 Z10.000 F1000
G1 B209.17 F2000
G0 X60.766 Y-13.249
G1 Z0.000 F1000
G1 X60.766 Y-13.249 B209.17 F2000
G1 X60.766 Y-13.249 B209.17 F2000
G1 Z10.000 F1000
G1 B230.41 F2000
G0 X60.766 Y-13.249
G1 Z0.000 F1000
G1 X60.765 Y-13.249 B230.41 F2000
G1 X60.765 Y-13.249 B230.41 F2000
G1 Z10.000 F1000
G1 B251.70 F2000
G0 X60.765 Y-13.249
G1 Z0.000 F1000
G1 X60.765 Y-13.248 B251.70 F2000
G1 X60.765 Y-13.248 B256.98 F2000
G1 X60.763 Y-13.230 B262.29 F2000
G1 X60.729 Y-12.844 B264.94 F2000
G1 X60.718 Y-12.766 B262.10 F2000
G1 X60.699 Y-12.689 B256.42 F2000
G1 X60.673 Y-12.614 B250.74 F2000
G1 X60.640 Y-12.542 B245.05 F2000
G1 X60.599 Y-12.474 B239.37 F2000
G1 X60.552 Y-12.410 B233.69 F2000
G1 X60.499 Y-12.351 B228.01 F2000
G1 X60.440 Y-12.297 B222.32 F2000
G1 X60.377 Y-12.250 B216.64 F2000
G1 X60.309 Y-12.209 B210.96 F2000
G1 X60.237 Y-12.175 B205.28 F2000
G1 X60.162 Y-12.149 B199.59 F2000
G1 X60.085 Y-12.130 B193.91 F2000
G1 X31.837 Y-6.603 B191.07 F2000
G1 X31.766 Y-6.593 B188.50 F2000
G1 X31.695 Y-6.588 B183.37 F2000
G1 X26.539 Y-6.516 B180.81 F2000
G1 X26.539 Y-6.516 B180.81 F2000
G1 Z10.000 F1000
G1 B90.00 F2000
G0 X26.539 Y-6.516
G1 Z0.000 F1000
G1 X26.539 Y-24.408 B90.00 F2000
G1 X26.539 Y-24.408 B90.00 F2000
G1 Z10.000 F1000
G1 B180.00 F2000
G0 X26.539 Y-24.408
G1 Z0.000 F1000
G1 X23.389 Y-24.408 B180.00 F2000
G1 X23.389 Y-24.408 B180.00 F2000
G1 Z10.000 F1000
G1 B270.00 F2000
G0 X23.389 Y-24.408
G1 Z0.000 F1000
G1 X23.389 Y-6.472 B270.00 F2000
G1 X23.389 Y-6.472 B270.00 F2000
G1 Z10.000 F1000
G1 B180.81 F2000
G0 X23.389 Y-6.472
G1 Z0.000 F1000
G1 X14.173 Y-6.342 B180.81 F2000
G1 X14.102 Y-6.344 B178.25 F2000
G1 X14.031 Y-6.353 B173.15 F2000
G1 X13.961 Y-6.367 B168.04 F2000
G1 X1.228 Y-9.663 B165.49 F2000
G1 X1.168 Y-9.681 B163.26 F2000
G1 X1.110 Y-9.703 B158.79 F2000
G1 X-8.451 Y-13.849 B156.56 F2000
G1 X-8.526 Y-13.886 B153.56 F2000
G1 X-8.597 Y-13.931 B147.56 F2000
G1 X-15.077 Y-18.542 B144.57 F2000
G1 X-15.077 Y-18.542 B144.57 F2000
G1 Z10.000 F1000
G1 B-0.00 F2000
G0 X-15.077 Y-18.542
G1 Z0.000 F1000
G1 X-14.205 Y-18.542 B-0.00 F2000
G1 X-14.205 Y-18.542 B-0.00 F2000
G1 Z10.000 F1000
G1 B90.00 F2000
G0 X-14.205 Y-18.542
G1 Z0.000 F1000
G1 X-14.205 Y-30.682 B90.00 F2000
G1 X-14.205 Y-30.682 B90.00 F2000
G1 Z10.000 F1000
G1 B180.00 F2000
G0 X-14.205 Y-30.682
G1 Z0.000 F1000
G1 X-17.355 Y-30.682 B180.00 F2000
G1 X-17.355 Y-30.682 B180.00 F2000
G1 Z10.000 F1000
G1 B270.00 F2000
G0 X-17.355 Y-30.682
G1 Z0.000 F1000
G1 X-17.355 Y-20.163 B270.00 F2000
G1 X-17.355 Y-20.163 B270.00 F2000
G1 Z10.000 F1000
G1 B144.57 F2000
G0 X-17.355 Y-20.163
G1 Z0.000 F1000
G1 X-29.681 Y-28.933 B144.57 F2000
G1 X-29.699 Y-28.945 B147.60 F2000
G1 X-29.718 Y-28.954 B153.60 F2000
G1 X-34.931 Y-31.209 B156.61 F2000
G1 X-34.946 Y-31.215 B158.89 F2000
G1 X-34.947 Y-31.215 B163.50 F2000
G1 X-34.947 Y-31.215 B168.04 F2000
G1 X-34.963 Y-31.217 B172.62 F2000
G1 X-45.868 Y-32.190 B174.90 F2000
G1 X-45.886 Y-32.191 B177.56 F2000
G1 X-45.887 Y-32.191 B182.91 F2000
G1 X-45.887 Y-32.190 B188.20 F2000
G1 X-45.905 Y-32.186 B193.51 F2000
G1 X-53.961 Y-29.850 B196.17 F2000
G1 X-53.981 Y-29.843 B199.19 F2000
G1 X-54.000 Y-29.834 B205.17 F2000
G1 X-56.455 Y-28.519 B208.17 F2000
G1 X-56.470 Y-28.510 B210.75 F2000
G1 X-56.471 Y-28.510 B215.95 F2000
G1 X-56.471 Y-28.510 B215.95 F2000
G1 Z10.000 F1000
G1 B236.56 F2000
G0 X-56.471 Y-28.510
G1 Z0.000 F1000
G1 X-56.471 Y-28.509 B236.56 F2000
G1 X-56.471 Y-28.509 B236.56 F2000
G1 Z10.000 F1000
G1 B257.15 F2000
G0 X-56.471 Y-28.509
G1 Z0.000 F1000
G1 X-56.471 Y-28.509 B257.15 F2000
G1 X-56.472 Y-28.509 B262.27 F2000
G1 X-56.472 Y-28.491 B267.42 F2000
G1 X-56.472 Y-22.453 B270.00 F2000
G1 X-56.472 Y-22.453 B270.00 F2000
G1 Z10.000 F1000
G1 B180.00 F2000
G0 X-56.472 Y-22.453
G1 Z0.000 F1000
G1 X-58.099 Y-22.453 B180.00 F2000
G1 X-58.099 Y-22.453 B180.00 F2000
G1 Z10.000 F1000
G1 B270.00 F2000
G0 X-58.099 Y-22.453
G1 Z0.000 F1000
G1 X-58.099 Y-2.585 B270.00 F2000
G1 X-58.099 Y-2.585 B270.00 F2000
G1 Z10.000 F1000
G1 B180.00 F2000
G0 X-58.099 Y-2.585
G1 Z0.000 F1000
G1 X-66.524 Y-2.585 B180.00 F2000
G1 X-66.524 Y-2.585 B180.00 F2000
G1 Z10.000 F1000
G1 B90.00 F2000
G0 X-66.524 Y-2.585
G1 Z0.000 F1000
G1 X-66.524 Y-40.321 B90.00 F2000
G1 X-66.524 Y-40.321 B90.00 F2000
G1 Z10.000 F1000
G1 B-0.00 F2000
G0 X-66.524 Y-40.321
G1 Z0.000 F1000
G1 X75.708 Y-40.321 B-0.00 F2000
G1 X75.708 Y-40.321 B-0.00 F2000
G1 Z10.000 F1000
G1 B-90.00 F2000
G0 X75.708 Y-40.321
G1 Z0.000 F1000
G1 X75.708 Y-2.585 B-90.00 F2000
G1 X75.708 Y-2.585 B-90.00 F2000
G1 Z10.000 F1000
G1 B-180.00 F2000
G0 X75.708 Y-2.585
G1 Z0.000 F1000
G1 X67.283 Y-2.585 B-180.00 F2000
G1 Z10.000 F1000
G1 Z10.000 F1000
G0 X66.672 Y44.399
G1 Z10.000 F1000
G1 B-270.00 F2000
G0 X66.672 Y44.399
G1 Z0.000 F1000
G1 X66.672 Y24.531 B-270.00 F2000
G1 X66.672 Y24.531 B-270.00 F2000
G1 Z10.000 F1000
G1 B-180.00 F2000
G0 X66.672 Y24.531
G1 Z0.000 F1000
G1 X63.522 Y24.531 B-180.00 F2000
G1 X63.522 Y24.531 B-180.00 F2000
G1 Z10.000 F1000
G1 B-90.00 F2000
G0 X63.522 Y24.531
G1 Z0.000 F1000
G1 X63.522 Y44.399 B-90.00 F2000
G1 X63.522 Y44.399 B-90.00 F2000
G1 Z10.000 F1000
G1 B-180.00 F2000
G0 X63.522 Y44.399
G1 Z0.000 F1000
G1 X25.928 Y44.399 B-180.00 F2000
G1 X25.928 Y44.399 B-180.00 F2000
G1 Z10.000 F1000
G1 B-270.00 F2000
G0 X25.928 Y44.399
G1 Z0.000 F1000
G1 X25.928 Y24.531 B-270.00 F2000
G1 X25.928 Y24.531 B-270.00 F2000
G1 Z10.000 F1000
G1 B-180.00 F2000
G0 X25.928 Y24.531
G1 Z0.000 F1000
G1 X22.778 Y24.531 B-180.00 F2000
G1 X22.778 Y24.531 B-180.00 F2000
G1 Z10.000 F1000
G1 B-90.00 F2000
G0 X22.778 Y24.531
G1 Z0.000 F1000
G1 X22.778 Y44.399 B-90.00 F2000
G1 X22.778 Y44.399 B-90.00 F2000
G1 Z10.000 F1000
G1 B-180.00 F2000
G0 X22.778 Y44.399
G1 Z0.000 F1000
G1 X-14.816 Y44.399 B-180.00 F2000
G1 X-14.816 Y44.399 B-180.00 F2000
G1 Z10.000 F1000
G1 B-270.00 F2000
G0 X-14.816 Y44.399
G1 Z0.000 F1000
G1 X-14.816 Y24.531 B-270.00 F2000
G1 X-14.816 Y24.531 B-270.00 F2000
G1 Z10.000 F1000
G1 B-180.00 F2000
G0 X-14.816 Y24.531
G1 Z0.000 F1000
G1 X-17.966 Y24.531 B-180.00 F2000
G1 X-17.966 Y24.531 B-180.00 F2000
G1 Z10.000 F1000
G1 B-90.00 F2000
G0 X-17.966 Y24.531
G1 Z0.000 F1000
G1 X-17.966 Y44.399 B-90.00 F2000
G1 X-17.966 Y44.399 B-90.00 F2000
G1 Z10.000 F1000
G1 B-180.00 F2000
G0 X-17.966 Y44.399
G1 Z0.000 F1000
G1 X-55.560 Y44.399 B-180.00 F2000
G1 X-55.560 Y44.399 B-180.00 F2000
G1 Z10.000 F1000
G1 B-270.00 F2000
G0 X-55.560 Y44.399
G1 Z0.000 F1000
G1 X-55.560 Y24.531 B-270.00 F2000
G1 X-55.560 Y24.531 B-270.00 F2000
G1 Z10.000 F1000
G1 B-180.00 F2000
G0 X-55.560 Y24.531
G1 Z0.000 F1000
G1 X-58.710 Y24.531 B-180.00 F2000
G1 X-58.710 Y24.531 B-180.00 F2000
G1 Z10.000 F1000
G1 B-90.00 F2000
G0 X-58.710 Y24.531
G1 Z0.000 F1000
G1 X-58.710 Y44.399 B-90.00 F2000
G1 X-58.710 Y44.399 B-90.00 F2000
G1 Z10.000 F1000
G1 B-180.00 F2000
G0 X-58.710 Y44.399
G1 Z0.000 F1000
G1 X-67.135 Y44.399 B-180.00 F2000
G1 X-67.135 Y44.399 B-180.00 F2000
G1 Z10.000 F1000
G1 B-270.00 F2000
G0 X-67.135 Y44.399
G1 Z0.000 F1000
G1 X-67.135 Y4.663 B-270.00 F2000
G1 X-67.135 Y4.663 B-270.00 F2000
G1 Z10.000 F1000
G1 B-360.00 F2000
G0 X-67.135 Y4.663
G1 Z0.000 F1000
G1 X75.097 Y4.663 B-360.00 F2000
G1 X75.097 Y4.663 B-360.00 F2000
G1 Z10.000 F1000
G1 B-450.00 F2000
G0 X75.097 Y4.663
G1 Z0.000 F1000
G1 X75.097 Y44.399 B-450.00 F2000
G1 X75.097 Y44.399 B-450.00 F2000
G1 Z10.000 F1000
G1 B-540.00 F2000
G0 X75.097 Y44.399
G1 Z0.000 F1000
G1 X66.672 Y44.399 B-540.00 F2000
G1 Z10.000 F1000
M5 (Stop Oscillation)
M9 (Lights OFF)

M2