(Generated by custom-packaging - grblHAL Multi-Axis)
M8 (Lights ON)

G21  (mm)
G90  (absolute)
G1 Z10.000 F1000
G1 B-0.00 F2000
G1 Z10.000 F1000
G1 B90.00 F2000
G1 Z10.000 F1000
G0 X64.987 Y-3.444
M3 S2000 (Start Oscillation)
G1 Z10.000 F1000
G1 B90.00 F2000
G0 X64.987 Y-3.444
G1 Z0.000 F1000
G1 X64.987 Y-23.312 B90.00 F2000
G1 X64.987 Y-23.312 B90.00 F2000
G1 Z10.000 F1000
G1 B180.00 F2000
G0 X64.987 Y-23.312
G1 Z0.000 F1000
G1 X61.837 Y-23.312 B180.00 F2000
G1 X61.837 Y-23.312 B180.00 F2000
G1 Z10.000 F1000
G1 B270.00 F2000
G0 X61.837 Y-23.312
G1 Z0.000 F1000
G1 X61.837 Y-14.099 B270.00 F2000
G1 X61.837 Y-14.099 B270.00 F2000
G1 Z10.000 F1000
G1 B180.00 F2000
G0 X61.837 Y-14.099
G1 Z0.000 F1000
G1 X58.489 Y-14.099 B180.00 F2000
G1 X58.471 Y-14.098 B182.65 F2000
G1 X58.470 Y-14.098 B187.93 F2000
G1 X58.470 Y-14.098 B187.93 F2000
G1 Z10.000 F1000
G1 B209.17 F2000
G0 X58.470 Y-14.098
G1 Z0.000 F1000
G1 X58.469 Y-14.098 B209.17 F2000
G1 X58.469 Y-14.098 B209.17 F2000
G1 Z10.000 F1000
G1 B230.40 F2000
G0 X58.469 Y-14.098
G1 Z0.000 F1000
G1 X58.469 Y-14.097 B230.40 F2000
G1 X58.469 Y-14.097 B230.40 F2000
G1 Z10.000 F1000
G1 B251.69 F2000
G0 X58.469 Y-14.097
G1 Z0.000 F1000
G1 X58.469 Y-14.097 B251.69 F2000
G1 X58.469 Y-14.096 B256.97 F2000
G1 X58.466 Y-14.078 B262.27 F2000
G1 X58.432 Y-13.695 B264.93 F2000
G1 X58.421 Y-13.617 B262.09 F2000
G1 X58.403 Y-13.540 B256.41 F2000
G1 X58.377 Y-13.465 B250.73 F2000
G1 X58.343 Y-13.393 B245.05 F2000
G1 X58.303 Y-13.325 B239.38 F2000
G1 X58.256 Y-13.261 B233.70 F2000
G1 X58.203 Y-13.202 B228.02 F2000
G1 X58.144 Y-13.149 B222.34 F2000
G1 X58.081 Y-13.101 B216.66 F2000
G1 X58.013 Y-13.060 B210.98 F2000
G1 X57.941 Y-13.027 B205.30 F2000
G1 X57.866 Y-13.000 B199.63 F2000
G1 X57.790 Y-12.981 B193.95 F2000
G1 X29.541 Y-7.434 B191.11 F2000
G1 X29.470 Y-7.423 B188.53 F2000
G1 X29.398 Y-7.419 B183.39 F2000
G1 X24.243 Y-7.346 B180.81 F2000
G1 X24.243 Y-7.346 B180.81 F2000
G1 Z10.000 F1000
G1 B90.00 F2000
G0 X24.243 Y-7.346
G1 Z0.000 F1000
G1 X24.243 Y-25.252 B90.00 F2000
G1 X24.243 Y-25.252 B90.00 F2000
G1 Z10.000 F1000
G1 B180.00 F2000
G0 X24.243 Y-25.252
G1 Z0.000 F1000
G1 X21.093 Y-25.252 B180.00 F2000
G1 X21.093 Y-25.252 B180.00 F2000
G1 Z10.000 F1000
G1 B270.00 F2000
G0 X21.093 Y-25.252
G1 Z0.000 F1000
G1 X21.093 Y-7.302 B270.00 F2000
G1 X21.093 Y-7.302 B270.00 F2000
G1 Z10.000 F1000
G1 B180.81 F2000
G0 X21.093 Y-7.302
G1 Z0.000 F1000
G1 X11.877 Y-7.171 B180.81 F2000
G1 X11.805 Y-7.174 B178.25 F2000
G1 X11.734 Y-7.182 B173.12 F2000
G1 X11.664 Y-7.197 B167.99 F2000
G1 X-1.069 Y-10.507 B165.43 F2000
G1 X-1.128 Y-10.525 B163.20 F2000
G1 X-1.186 Y-10.547 B158.75 F2000
G1 X-10.748 Y-14.701 B156.52 F2000
G1 X-10.822 Y-14.738 B153.53 F2000
G1 X-10.893 Y-14.782 B147.55 F2000
G1 X-17.374 Y-19.394 B144.57 F2000
G1 X-17.374 Y-19.394 B144.57 F2000
G1 Z10.000 F1000
G1 B-0.00 F2000
G0 X-17.374 Y-19.394
G1 Z0.000 F1000
G1 X-16.501 Y-19.394 B-0.00 F2000
G1 X-16.501 Y-19.394 B-0.00 F2000
G1 Z10.000 F1000
G1 B90.00 F2000
G0 X-16.501 Y-19.394
G1 Z0.000 F1000
G1 X-16.501 Y-31.537 B90.00 F2000
G1 X-16.501 Y-31.537 B90.00 F2000
G1 Z10.000 F1000
G1 B180.00 F2000
G0 X-16.501 Y-31.537
G1 Z0.000 F1000
G1 X-19.651 Y-31.537 B180.00 F2000
G1 X-19.651 Y-31.537 B180.00 F2000
G1 Z10.000 F1000
G1 B270.00 F2000
G0 X-19.651 Y-31.537
G1 Z0.000 F1000
G1 X-19.651 Y-21.015 B270.00 F2000
G1 X-19.651 Y-21.015 B270.00 F2000
G1 Z10.000 F1000
G1 B144.57 F2000
G0 X-19.651 Y-21.015
G1 Z0.000 F1000
G1 X-31.977 Y-29.786 B144.57 F2000
G1 X-31.995 Y-29.797 B147.62 F2000
G1 X-32.014 Y-29.807 B153.68 F2000
G1 X-37.218 Y-32.046 B156.72 F2000
G1 X-37.243 Y-32.055 B160.54 F2000
G1 X-37.269 Y-32.060 B168.13 F2000
G1 X-45.496 Y-33.227 B171.93 F2000
G1 X-45.515 Y-33.229 B174.59 F2000
G1 X-45.515 Y-33.229 B179.96 F2000
G1 X-45.516 Y-33.229 B185.26 F2000
G1 X-45.534 Y-33.225 B190.60 F2000
G1 X-56.253 Y-30.698 B193.27 F2000
G1 X-56.278 Y-30.690 B196.99 F2000
G1 X-56.301 Y-30.680 B204.36 F2000
G1 X-58.752 Y-29.374 B208.05 F2000
G1 X-58.767 Y-29.365 B210.63 F2000
G1 X-58.768 Y-29.364 B215.84 F2000
G1 X-58.768 Y-29.364 B215.84 F2000
G1 Z10.000 F1000
G1 B236.49 F2000
G0 X-58.768 Y-29.364
G1 Z0.000 F1000
G1 X-58.768 Y-29.364 B236.49 F2000
G1 X-58.768 Y-29.364 B236.49 F2000
G1 Z10.000 F1000
G1 B257.13 F2000
G0 X-58.768 Y-29.364
G1 Z0.000 F1000
G1 X-58.768 Y-29.363 B257.13 F2000
G1 X-58.768 Y-29.363 B262.26 F2000
G1 X-58.769 Y-29.345 B267.42 F2000
G1 X-58.769 Y-23.312 B270.00 F2000
G1 X-58.769 Y-23.312 B270.00 F2000
G1 Z10.000 F1000
G1 B180.00 F2000
G0 X-58.769 Y-23.312
G1 Z0.000 F1000
G1 X-60.395 Y-23.312 B180.00 F2000
G1 X-60.395 Y-23.312 B180.00 F2000
G1 Z10.000 F1000
G1 B270.00 F2000
G0 X-60.395 Y-23.312
G1 Z0.000 F1000
G1 X-60.395 Y-3.444 B270.00 F2000
G1 X-60.395 Y-3.444 B270.00 F2000
G1 Z10.000 F1000
G1 B180.00 F2000
G0 X-60.395 Y-3.444
G1 Z0.000 F1000
G1 X-68.820 Y-3.444 B180.00 F2000
G1 X-68.820 Y-3.444 B180.00 F2000
G1 Z10.000 F1000
G1 B90.00 F2000
G0 X-68.820 Y-3.444
G1 Z0.000 F1000
G1 X-68.820 Y-41.180 B90.00 F2000
G1 X-68.820 Y-41.180 B90.00 F2000
G1 Z10.000 F1000
G1 B-0.00 F2000
G0 X-68.820 Y-41.180
G1 Z0.000 F1000
G1 X73.412 Y-41.180 B-0.00 F2000
G1 X73.412 Y-41.180 B-0.00 F2000
G1 Z10.000 F1000
G1 B-90.00 F2000
G0 X73.412 Y-41.180
G1 Z0.000 F1000
G1 X73.412 Y-3.444 B-90.00 F2000
G1 X73.412 Y-3.444 B-90.00 F2000
G1 Z10.000 F1000
G1 B-180.00 F2000
G0 X73.412 Y-3.444
G1 Z0.000 F1000
G1 X64.987 Y-3.444 B-180.00 F2000
G1 Z10.000 F1000
G1 Z10.000 F1000
G0 X63.863 Y43.500
G1 Z10.000 F1000
G1 B-270.00 F2000
G0 X63.863 Y43.500
G1 Z0.000 F1000
G1 X63.863 Y23.632 B-270.00 F2000
G1 X63.863 Y23.632 B-270.00 F2000
G1 Z10.000 F1000
G1 B-180.00 F2000
G0 X63.863 Y23.632
G1 Z0.000 F1000
G1 X60.713 Y23.632 B-180.00 F2000
G1 X60.713 Y23.632 B-180.00 F2000
G1 Z10.000 F1000
G1 B-90.00 F2000
G0 X60.713 Y23.632
G1 Z0.000 F1000
G1 X60.713 Y43.500 B-90.00 F2000
G1 X60.713 Y43.500 B-90.00 F2000
G1 Z10.000 F1000
G1 B-180.00 F2000
G0 X60.713 Y43.500
G1 Z0.000 F1000
G1 X23.119 Y43.500 B-180.00 F2000
G1 X23.119 Y43.500 B-180.00 F2000
G1 Z10.000 F1000
G1 B-270.00 F2000
G0 X23.119 Y43.500
G1 Z0.000 F1000
G1 X23.119 Y23.632 B-270.00 F2000
G1 X23.119 Y23.632 B-270.00 F2000
G1 Z10.000 F1000
G1 B-180.00 F2000
G0 X23.119 Y23.632
G1 Z0.000 F1000
G1 X19.969 Y23.632 B-180.00 F2000
G1 X19.969 Y23.632 B-180.00 F2000
G1 Z10.000 F1000
G1 B-90.00 F2000
G0 X19.969 Y23.632
G1 Z0.000 F1000
G1 X19.969 Y43.500 B-90.00 F2000
G1 X19.969 Y43.500 B-90.00 F2000
G1 Z10.000 F1000
G1 B-180.00 F2000
G0 X19.969 Y43.500
G1 Z0.000 F1000
G1 X-17.625 Y43.500 B-180.00 F2000
G1 X-17.625 Y43.500 B-180.00 F2000
G1 Z10.000 F1000
G1 B-270.00 F2000
G0 X-17.625 Y43.500
G1 Z0.000 F1000
G1 X-17.625 Y23.632 B-270.00 F2000
G1 X-17.625 Y23.632 B-270.00 F2000
G1 Z10.000 F1000
G1 B-180.00 F2000
G0 X-17.625 Y23.632
G1 Z0.000 F1000
G1 X-20.775 Y23.632 B-180.00 F2000
G1 X-20.775 Y23.632 B-180.00 F2000
G1 Z10.000 F1000
G1 B-90.00 F2000
G0 X-20.775 Y23.632
G1 Z0.000 F1000
G1 X-20.775 Y43.500 B-90.00 F2000
G1 X-20.775 Y43.500 B-90.00 F2000
G1 Z10.000 F1000
G1 B-180.00 F2000
G0 X-20.775 Y43.500
G1 Z0.000 F1000
G1 X-58.369 Y43.500 B-180.00 F2000
G1 X-58.369 Y43.500 B-180.00 F2000
G1 Z10.000 F1000
G1 B-270.00 F2000
G0 X-58.369 Y43.500
G1 Z0.000 F1000
G1 X-58.369 Y23.632 B-270.00 F2000
G1 X-58.369 Y23.632 B-270.00 F2000
G1 Z10.000 F1000
G1 B-180.00 F2000
G0 X-58.369 Y23.632
G1 Z0.000 F1000
G1 X-61.519 Y23.632 B-180.00 F2000
G1 X-61.519 Y23.632 B-180.00 F2000
G1 Z10.000 F1000
G1 B-90.00 F2000
G0 X-61.519 Y23.632
G1 Z0.000 F1000
G1 X-61.519 Y43.500 B-90.00 F2000
G1 X-61.519 Y43.500 B-90.00 F2000
G1 Z10.000 F1000
G1 B-180.00 F2000
G0 X-61.519 Y43.500
G1 Z0.000 F1000
G1 X-69.944 Y43.500 B-180.00 F2000
G1 X-69.944 Y43.500 B-180.00 F2000
G1 Z10.000 F1000
G1 B-270.00 F2000
G0 X-69.944 Y43.500
G1 Z0.000 F1000
G1 X-69.944 Y3.764 B-270.00 F2000
G1 X-69.944 Y3.764 B-270.00 F2000
G1 Z10.000 F1000
G1 B-360.00 F2000
G0 X-69.944 Y3.764
G1 Z0.000 F1000
G1 X72.288 Y3.764 B-360.00 F2000
G1 X72.288 Y3.764 B-360.00 F2000
G1 Z10.000 F1000
G1 B-450.00 F2000
G0 X72.288 Y3.764
G1 Z0.000 F1000
G1 X72.288 Y43.500 B-450.00 F2000
G1 X72.288 Y43.500 B-450.00 F2000
G1 Z10.000 F1000
G1 B-540.00 F2000
G0 X72.288 Y43.500
G1 Z0.000 F1000
G1 X63.863 Y43.500 B-540.00 F2000
G1 Z10.000 F1000
M5 (Stop Oscillation)
M9 (Lights OFF)

M2