(Generated by custom-packaging - grblHAL Multi-Axis)
M8 (Lights ON)

G21  (mm)
G90  (absolute)
G1 Z10.000 F1000
G1 B-0.00 F2000
G1 Z10.000 F1000
G1 B90.00 F2000
G1 Z10.000 F1000
G0 X61.054 Y-1.673
M3 S2000 (Start Oscillation)
G1 Z10.000 F1000
G1 B90.00 F2000
G0 X61.054 Y-1.673
G1 Z0.000 F1000
G1 X61.054 Y-21.539 B90.00 F3000
G1 X61.054 Y-21.539 B90.00 F3000
G1 Z10.000 F1000
G1 B180.00 F2000
G0 X61.054 Y-21.539
G1 Z0.000 F1000
G1 X57.904 Y-21.539 B180.00 F3000
G1 X57.904 Y-21.539 B180.00 F3000
G1 Z10.000 F1000
G1 B270.00 F2000
G0 X57.904 Y-21.539
G1 Z0.000 F1000
G1 X57.904 Y-1.673 B270.00 F3000
G1 X57.904 Y-1.673 B270.00 F3000
G1 Z10.000 F1000
G1 B180.00 F2000
G0 X57.904 Y-1.673
G1 Z0.000 F1000
G1 X20.310 Y-1.673 B180.00 F3000
G1 X20.310 Y-1.673 B180.00 F3000
G1 Z10.000 F1000
G1 B90.00 F2000
G0 X20.310 Y-1.673
G1 Z0.000 F1000
G1 X20.310 Y-21.539 B90.00 F3000
G1 X20.310 Y-21.539 B90.00 F3000
G1 Z10.000 F1000
G1 B180.00 F2000
G0 X20.310 Y-21.539
G1 Z0.000 F1000
G1 X17.160 Y-21.539 B180.00 F3000
G1 X17.160 Y-21.539 B180.00 F3000
G1 Z10.000 F1000
G1 B270.00 F2000
G0 X17.160 Y-21.539
G1 Z0.000 F1000
G1 X17.160 Y-1.673 B270.00 F3000
G1 X17.160 Y-1.673 B270.00 F3000
G1 Z10.000 F1000
G1 B180.00 F2000
G0 X17.160 Y-1.673
G1 Z0.000 F1000
G1 X-20.434 Y-1.673 B180.00 F3000
G1 X-20.434 Y-1.673 B180.00 F3000
G1 Z10.000 F1000
G1 B90.00 F2000
G0 X-20.434 Y-1.673
G1 Z0.000 F1000
G1 X-20.434 Y-21.539 B90.00 F3000
G1 X-20.434 Y-21.539 B90.00 F3000
G1 Z10.000 F1000
G1 B180.00 F2000
G0 X-20.434 Y-21.539
G1 Z0.000 F1000
G1 X-23.584 Y-21.539 B180.00 F3000
G1 X-23.584 Y-21.539 B180.00 F3000
G1 Z10.000 F1000
G1 B270.00 F2000
G0 X-23.584 Y-21.539
G1 Z0.000 F1000
G1 X-23.584 Y-1.673 B270.00 F3000
G1 X-23.584 Y-1.673 B270.00 F3000
G1 Z10.000 F1000
G1 B180.00 F2000
G0 X-23.584 Y-1.673
G1 Z0.000 F1000
G1 X-61.178 Y-1.673 B180.00 F3000
G1 X-61.178 Y-1.673 B180.00 F3000
G1 Z10.000 F1000
G1 B90.00 F2000
G0 X-61.178 Y-1.673
G1 Z0.000 F1000
G1 X-61.178 Y-21.539 B90.00 F3000
G1 X-61.178 Y-21.539 B90.00 F3000
G1 Z10.000 F1000
G1 B180.00 F2000
G0 X-61.178 Y-21.539
G1 Z0.000 F1000
G1 X-64.328 Y-21.539 B180.00 F3000
G1 X-64.328 Y-21.539 B180.00 F3000
G1 Z10.000 F1000
G1 B270.00 F2000
G0 X-64.328 Y-21.539
G1 Z0.000 F1000
G1 X-64.328 Y-1.673 B270.00 F3000
G1 X-64.328 Y-1.673 B270.00 F3000
G1 Z10.000 F1000
G1 B180.00 F2000
G0 X-64.328 Y-1.673
G1 Z0.000 F1000
G1 X-72.753 Y-1.673 B180.00 F3000
G1 X-72.753 Y-1.673 B180.00 F3000
G1 Z10.000 F1000
G1 B90.00 F2000
G0 X-72.753 Y-1.673
G1 Z0.000 F1000
G1 X-72.753 Y-41.404 B90.00 F3000
G1 X-72.753 Y-41.404 B90.00 F3000
G1 Z10.000 F1000
G1 B-0.00 F2000
G0 X-72.753 Y-41.404
G1 Z0.000 F1000
G1 X69.479 Y-41.404 B-0.00 F3000
G1 X69.479 Y-41.404 B-0.00 F3000
G1 Z10.000 F1000
G1 B-90.00 F2000
G0 X69.479 Y-41.404
G1 Z0.000 F1000
G1 X69.479 Y-1.673 B-90.00 F3000
G1 X69.479 Y-1.673 B-90.00 F3000
G1 Z10.000 F1000
G1 B-180.00 F2000
G0 X69.479 Y-1.673
G1 Z0.000 F1000
G1 X61.054 Y-1.673 B-180.00 F3000
G1 Z10.000 F1000
G1 Z10.000 F1000
G0 X60.492 Y44.642
G1 Z10.000 F1000
G1 B-270.00 F2000
G0 X60.492 Y44.642
G1 Z0.000 F1000
G1 X60.492 Y25.776 B-270.00 F3000
G1 X60.492 Y25.776 B-270.00 F3000
G1 Z10.000 F1000
G1 B-180.00 F2000
G0 X60.492 Y25.776
G1 Z0.000 F1000
G1 X57.342 Y25.776 B-180.00 F3000
G1 X57.342 Y25.776 B-180.00 F3000
G1 Z10.000 F1000
G1 B-90.00 F2000
G0 X57.342 Y25.776
G1 Z0.000 F1000
G1 X57.342 Y33.993 B-90.00 F3000
G1 X57.342 Y33.993 B-90.00 F3000
G1 Z10.000 F1000
G1 B-180.00 F2000
G0 X57.342 Y33.993
G1 Z0.000 F1000
G1 X53.983 Y33.993 B-180.00 F3000
G1 X53.972 Y33.994 B-177.40 F3000
G1 X53.972 Y33.994 B-172.22 F3000
G1 X53.972 Y33.994 B-172.22 F3000
G1 Z10.000 F1000
G1 B-151.41 F2000
G0 X53.972 Y33.994
G1 Z0.000 F1000
G1 X53.971 Y33.994 B-151.41 F3000
G1 X53.971 Y33.994 B-151.41 F3000
G1 Z10.000 F1000
G1 B-130.60 F2000
G0 X53.971 Y33.994
G1 Z0.000 F1000
G1 X53.971 Y33.994 B-130.60 F3000
G1 X53.971 Y33.994 B-130.60 F3000
G1 Z10.000 F1000
G1 B-109.72 F2000
G0 X53.971 Y33.994
G1 Z0.000 F1000
G1 X53.971 Y33.995 B-109.72 F3000
G1 X53.971 Y33.995 B-104.55 F3000
G1 X53.969 Y34.006 B-99.35 F3000
G1 X53.895 Y34.635 B-96.74 F3000
G1 X53.887 Y34.682 B-99.52 F3000
G1 X53.874 Y34.729 B-105.07 F3000
G1 X53.857 Y34.775 B-110.62 F3000
G1 X53.836 Y34.818 B-116.17 F3000
G1 X53.810 Y34.859 B-121.72 F3000
G1 X53.781 Y34.898 B-127.27 F3000
G1 X53.748 Y34.933 B-132.82 F3000
G1 X53.712 Y34.965 B-138.37 F3000
G1 X53.673 Y34.994 B-143.92 F3000
G1 X53.631 Y35.018 B-149.47 F3000
G1 X53.587 Y35.039 B-155.03 F3000
G1 X53.541 Y35.055 B-160.58 F3000
G1 X53.494 Y35.067 B-166.13 F3000
G1 X24.938 Y40.668 B-168.90 F3000
G1 X24.876 Y40.676 B-172.45 F3000
G1 X19.748 Y41.035 B-176.00 F3000
G1 X19.748 Y41.035 B-176.00 F3000
G1 Z10.000 F1000
G1 B-270.00 F2000
G0 X19.748 Y41.035
G1 Z0.000 F1000
G1 X19.748 Y24.027 B-270.00 F3000
G1 X19.748 Y24.027 B-270.00 F3000
G1 Z10.000 F1000
G1 B-180.00 F2000
G0 X19.748 Y24.027
G1 Z0.000 F1000
G1 X16.598 Y24.027 B-180.00 F3000
G1 X16.598 Y24.027 B-180.00 F3000
G1 Z10.000 F1000
G1 B-90.00 F2000
G0 X16.598 Y24.027
G1 Z0.000 F1000
G1 X16.598 Y41.255 B-90.00 F3000
G1 X16.598 Y41.255 B-90.00 F3000
G1 Z10.000 F1000
G1 B-176.00 F2000
G0 X16.598 Y41.255
G1 Z0.000 F1000
G1 X12.734 Y41.525 B-176.00 F3000
G1 X12.689 Y41.526 B-178.61 F3000
G1 X12.644 Y41.523 B-183.82 F3000
G1 X7.386 Y40.931 B-186.42 F3000
G1 X7.316 Y40.918 B-190.47 F3000
G1 X-5.547 Y37.586 B-194.52 F3000
G1 X-5.611 Y37.565 B-198.39 F3000
G1 X-11.594 Y35.116 B-202.26 F3000
G1 X-11.638 Y35.096 B-205.03 F3000
G1 X-11.679 Y35.071 B-210.58 F3000
G1 X-11.718 Y35.043 B-216.13 F3000
G1 X-11.755 Y35.011 B-221.68 F3000
G1 X-11.787 Y34.975 B-227.23 F3000
G1 X-11.817 Y34.936 B-232.78 F3000
G1 X-11.842 Y34.895 B-238.34 F3000
G1 X-11.863 Y34.852 B-243.89 F3000
G1 X-11.880 Y34.806 B-249.44 F3000
G1 X-11.893 Y34.760 B-254.99 F3000
G1 X-11.901 Y34.712 B-260.54 F3000
G1 X-11.984 Y34.008 B-263.31 F3000
G1 X-11.986 Y33.995 B-260.29 F3000
G1 X-11.986 Y33.994 B-254.22 F3000
G1 X-11.986 Y33.994 B-254.22 F3000
G1 Z10.000 F1000
G1 B-230.06 F2000
G0 X-11.986 Y33.994
G1 Z0.000 F1000
G1 X-11.986 Y33.994 B-230.06 F3000
G1 X-11.986 Y33.994 B-230.06 F3000
G1 Z10.000 F1000
G1 B-205.90 F2000
G0 X-11.986 Y33.994
G1 Z0.000 F1000
G1 X-11.986 Y33.994 B-205.90 F3000
G1 X-11.986 Y33.994 B-199.89 F3000
G1 X-11.999 Y33.991 B-193.85 F3000
G1 X-15.216 Y33.375 B-190.83 F3000
G1 X-15.260 Y33.365 B-193.45 F3000
G1 X-15.304 Y33.350 B-198.69 F3000
G1 X-15.346 Y33.331 B-203.93 F3000
G1 X-15.385 Y33.309 B-209.17 F3000
G1 X-20.996 Y29.832 B-211.79 F3000
G1 X-20.996 Y29.832 B-211.79 F3000
G1 Z10.000 F1000
G1 B-270.00 F2000
G0 X-20.996 Y29.832
G1 Z0.000 F1000
G1 X-20.996 Y17.883 B-270.00 F3000
G1 X-20.996 Y17.883 B-270.00 F3000
G1 Z10.000 F1000
G1 B-180.00 F2000
G0 X-20.996 Y17.883
G1 Z0.000 F1000
G1 X-24.146 Y17.883 B-180.00 F3000
G1 X-24.146 Y17.883 B-180.00 F3000
G1 Z10.000 F1000
G1 B-90.00 F2000
G0 X-24.146 Y17.883
G1 Z0.000 F1000
G1 X-24.146 Y27.765 B-90.00 F3000
G1 X-24.146 Y27.765 B-90.00 F3000
G1 Z10.000 F1000
G1 B-217.50 F2000
G0 X-24.146 Y27.765
G1 Z0.000 F1000
G1 X-36.528 Y18.263 B-217.50 F3000
G1 X-36.541 Y18.254 B-213.89 F3000
G1 X-36.555 Y18.247 B-206.73 F3000
G1 X-41.745 Y16.029 B-203.14 F3000
G1 X-41.761 Y16.024 B-199.32 F3000
G1 X-41.777 Y16.020 B-191.76 F3000
G1 X-50.047 Y14.863 B-187.97 F3000
G1 X-50.064 Y14.861 B-184.14 F3000
G1 X-50.081 Y14.862 B-176.53 F3000
G1 X-55.508 Y15.555 B-172.72 F3000
G1 X-55.521 Y15.558 B-169.71 F3000
G1 X-55.533 Y15.561 B-163.74 F3000
G1 X-60.731 Y17.378 B-160.74 F3000
G1 X-60.740 Y17.381 B-158.55 F3000
G1 X-60.749 Y17.385 B-154.20 F3000
G1 X-63.221 Y18.699 B-152.02 F3000
G1 X-63.230 Y18.704 B-149.44 F3000
G1 X-63.231 Y18.705 B-144.28 F3000
G1 X-63.231 Y18.705 B-144.28 F3000
G1 Z10.000 F1000
G1 B-123.60 F2000
G0 X-63.231 Y18.705
G1 Z0.000 F1000
G1 X-63.231 Y18.705 B-123.60 F3000
G1 X-63.231 Y18.705 B-123.60 F3000
G1 Z10.000 F1000
G1 B-102.89 F2000
G0 X-63.231 Y18.705
G1 Z0.000 F1000
G1 X-63.231 Y18.705 B-102.89 F3000
G1 X-63.231 Y18.705 B-97.75 F3000
G1 X-63.231 Y18.716 B-92.58 F3000
G1 X-63.231 Y25.776 B-90.00 F3000
G1 X-63.231 Y25.776 B-90.00 F3000
G1 Z10.000 F1000
G1 B-180.00 F2000
G0 X-63.231 Y25.776
G1 Z0.000 F1000
G1 X-64.890 Y25.776 B-180.00 F3000
G1 X-64.890 Y25.776 B-180.00 F3000
G1 Z10.000 F1000
G1 B-90.00 F2000
G0 X-64.890 Y25.776
G1 Z0.000 F1000
G1 X-64.890 Y44.642 B-90.00 F3000
G1 X-64.890 Y44.642 B-90.00 F3000
G1 Z10.000 F1000
G1 B-180.00 F2000
G0 X-64.890 Y44.642
G1 Z0.000 F1000
G1 X-73.315 Y44.642 B-180.00 F3000
G1 X-73.315 Y44.642 B-180.00 F3000
G1 Z10.000 F1000
G1 B-270.00 F2000
G0 X-73.315 Y44.642
G1 Z0.000 F1000
G1 X-73.315 Y6.910 B-270.00 F3000
G1 X-73.315 Y6.910 B-270.00 F3000
G1 Z10.000 F1000
G1 B-360.00 F2000
G0 X-73.315 Y6.910
G1 Z0.000 F1000
G1 X68.917 Y6.910 B-360.00 F3000
G1 X68.917 Y6.910 B-360.00 F3000
G1 Z10.000 F1000
G1 B-450.00 F2000
G0 X68.917 Y6.910
G1 Z0.000 F1000
G1 X68.917 Y44.642 B-450.00 F3000
G1 X68.917 Y44.642 B-450.00 F3000
G1 Z10.000 F1000
G1 B-540.00 F2000
G0 X68.917 Y44.642
G1 Z0.000 F1000
G1 X60.492 Y44.642 B-540.00 F3000
G1 Z10.000 F1000
M5 (Stop Oscillation)
M9 (Lights OFF)

M2