(Generated by custom-packaging - grblHAL Multi-Axis)
M8 (Lights ON)

G21  (mm)
G90  (absolute)
G1 Z10.000 F1000
G1 B-0.00 F2000
G1 Z10.000 F1000
G1 B90.00 F2000
G1 Z10.000 F1000
G0 X-46.798 Y43.224
M3 S2000 (Start Oscillation)
G1 Z10.000 F1000
G1 B90.00 F2000
G0 X-46.798 Y43.224
G1 Z0.000 F1000
G1 X-46.798 Y34.799 B90.00 F3000
G1 X-46.798 Y34.799 B90.00 F3000
G1 Z10.000 F1000
G1 B-0.00 F2000
G0 X-46.798 Y34.799
G1 Z0.000 F1000
G1 X-27.932 Y34.799 B-0.00 F3000
G1 X-27.932 Y34.799 B-0.00 F3000
G1 Z10.000 F1000
G1 B90.00 F2000
G0 X-27.932 Y34.799
G1 Z0.000 F1000
G1 X-27.932 Y31.649 B90.00 F3000
G1 X-27.932 Y31.649 B90.00 F3000
G1 Z10.000 F1000
G1 B180.00 F2000
G0 X-27.932 Y31.649
G1 Z0.000 F1000
G1 X-46.798 Y31.649 B180.00 F3000
G1 X-46.798 Y31.649 B180.00 F3000
G1 Z10.000 F1000
G1 B90.00 F2000
G0 X-46.798 Y31.649
G1 Z0.000 F1000
G1 X-46.798 Y29.248 B90.00 F3000
G1 X-46.798 Y29.248 B90.00 F3000
G1 Z10.000 F1000
G1 B0.43 F2000
G0 X-46.798 Y29.248
G1 Z0.000 F1000
G1 X-42.101 Y29.213 B0.43 F3000
G1 X-42.085 Y29.212 B4.12 F3000
G1 X-42.069 Y29.208 B11.43 F3000
G1 X-36.955 Y27.828 B15.10 F3000
G1 X-36.943 Y27.825 B17.86 F3000
G1 X-36.932 Y27.820 B23.34 F3000
G1 X-32.138 Y25.472 B26.09 F3000
G1 X-32.127 Y25.466 B28.84 F3000
G1 X-32.117 Y25.460 B34.29 F3000
G1 X-27.906 Y22.284 B37.02 F3000
G1 X-27.896 Y22.276 B39.81 F3000
G1 X-27.888 Y22.267 B45.35 F3000
G1 X-24.235 Y18.193 B48.12 F3000
G1 X-24.227 Y18.183 B50.91 F3000
G1 X-24.221 Y18.173 B56.43 F3000
G1 X-21.580 Y13.743 B59.20 F3000
G1 X-21.580 Y13.743 B59.20 F3000
G1 Z10.000 F1000
G1 B-0.00 F2000
G0 X-21.580 Y13.743
G1 Z0.000 F1000
G1 X-15.023 Y13.743 B-0.00 F3000
G1 X-15.023 Y13.743 B-0.00 F3000
G1 Z10.000 F1000
G1 B90.00 F2000
G0 X-15.023 Y13.743
G1 Z0.000 F1000
G1 X-15.023 Y10.593 B90.00 F3000
G1 X-15.023 Y10.593 B90.00 F3000
G1 Z10.000 F1000
G1 B180.00 F2000
G0 X-15.023 Y10.593
G1 Z0.000 F1000
G1 X-20.414 Y10.593 B180.00 F3000
G1 X-20.414 Y10.593 B180.00 F3000
G1 Z10.000 F1000
G1 B70.22 F2000
G0 X-20.414 Y10.593
G1 Z0.000 F1000
G1 X-19.680 Y8.553 B70.22 F3000
G1 X-19.677 Y8.542 B72.99 F3000
G1 X-19.674 Y8.530 B78.50 F3000
G1 X-18.857 Y3.213 B81.27 F3000
G1 X-18.856 Y3.201 B84.08 F3000
G1 X-18.856 Y3.189 B89.66 F3000
G1 X-19.090 Y-2.264 B92.46 F3000
G1 X-19.091 Y-2.279 B95.92 F3000
G1 X-19.095 Y-2.294 B102.79 F3000
G1 X-20.557 Y-7.313 B106.24 F3000
G1 X-20.557 Y-7.313 B106.24 F3000
G1 Z10.000 F1000
G1 B-0.00 F2000
G0 X-20.557 Y-7.313
G1 Z0.000 F1000
G1 X-15.041 Y-7.313 B-0.00 F3000
G1 X-15.041 Y-7.313 B-0.00 F3000
G1 Z10.000 F1000
G1 B90.00 F2000
G0 X-15.041 Y-7.313
G1 Z0.000 F1000
G1 X-15.041 Y-10.463 B90.00 F3000
G1 X-15.041 Y-10.463 B90.00 F3000
G1 Z10.000 F1000
G1 B180.00 F2000
G0 X-15.041 Y-10.463
G1 Z0.000 F1000
G1 X-21.632 Y-10.463 B180.00 F3000
G1 X-21.632 Y-10.463 B180.00 F3000
G1 Z10.000 F1000
G1 B119.95 F2000
G0 X-21.632 Y-10.463
G1 Z0.000 F1000
G1 X-24.025 Y-14.615 B119.95 F3000
G1 X-24.031 Y-14.625 B122.77 F3000
G1 X-24.039 Y-14.635 B128.34 F3000
G1 X-27.597 Y-18.709 B131.14 F3000
G1 X-27.606 Y-18.718 B133.92 F3000
G1 X-27.615 Y-18.726 B139.44 F3000
G1 X-31.800 Y-21.971 B142.21 F3000
G1 X-31.810 Y-21.978 B145.01 F3000
G1 X-31.820 Y-21.984 B150.57 F3000
G1 X-36.774 Y-24.469 B153.36 F3000
G1 X-36.788 Y-24.475 B156.80 F3000
G1 X-36.803 Y-24.479 B163.62 F3000
G1 X-44.306 Y-26.206 B167.03 F3000
G1 X-44.320 Y-26.209 B170.27 F3000
G1 X-44.334 Y-26.210 B176.69 F3000
G1 X-46.798 Y-26.214 B179.91 F3000
G1 X-46.798 Y-26.214 B179.91 F3000
G1 Z10.000 F1000
G1 B90.00 F2000
G0 X-46.798 Y-26.214
G1 Z0.000 F1000
G1 X-46.798 Y-28.369 B90.00 F3000
G1 X-46.798 Y-28.369 B90.00 F3000
G1 Z10.000 F1000
G1 B-0.00 F2000
G0 X-46.798 Y-28.369
G1 Z0.000 F1000
G1 X-27.932 Y-28.369 B-0.00 F3000
G1 X-27.932 Y-28.369 B-0.00 F3000
G1 Z10.000 F1000
G1 B90.00 F2000
G0 X-27.932 Y-28.369
G1 Z0.000 F1000
G1 X-27.932 Y-31.519 B90.00 F3000
G1 X-27.932 Y-31.519 B90.00 F3000
G1 Z10.000 F1000
G1 B180.00 F2000
G0 X-27.932 Y-31.519
G1 Z0.000 F1000
G1 X-46.798 Y-31.519 B180.00 F3000
G1 X-46.798 Y-31.519 B180.00 F3000
G1 Z10.000 F1000
G1 B90.00 F2000
G0 X-46.798 Y-31.519
G1 Z0.000 F1000
G1 X-46.798 Y-39.944 B90.00 F3000
G1 X-46.798 Y-39.944 B90.00 F3000
G1 Z10.000 F1000
G1 B-0.00 F2000
G0 X-46.798 Y-39.944
G1 Z0.000 F1000
G1 X-9.066 Y-39.944 B-0.00 F3000
G1 X-9.066 Y-39.944 B-0.00 F3000
G1 Z10.000 F1000
G1 B-90.00 F2000
G0 X-9.066 Y-39.944
G1 Z0.000 F1000
G1 X-9.066 Y43.224 B-90.00 F3000
G1 X-9.066 Y43.224 B-90.00 F3000
G1 Z10.000 F1000
G1 B-180.00 F2000
G0 X-9.066 Y43.224
G1 Z0.000 F1000
G1 X-46.798 Y43.224 B-180.00 F3000
G1 Z10.000 F1000
G1 Z10.000 F1000
G0 X-5.000 Y0.462
G1 Z10.000 F1000
G1 B-270.00 F2000
G0 X-5.000 Y0.462
G1 Z0.000 F1000
G1 X-5.000 Y-39.270 B-270.00 F3000
G1 X-5.000 Y-39.270 B-270.00 F3000
G1 Z10.000 F1000
G1 B-360.00 F2000
G0 X-5.000 Y-39.270
G1 Z0.000 F1000
G1 X3.425 Y-39.270 B-360.00 F3000
G1 X3.425 Y-39.270 B-360.00 F3000
G1 Z10.000 F1000
G1 B-450.00 F2000
G0 X3.425 Y-39.270
G1 Z0.000 F1000
G1 X3.425 Y-19.404 B-450.00 F3000
G1 X3.425 Y-19.404 B-450.00 F3000
G1 Z10.000 F1000
G1 B-360.00 F2000
G0 X3.425 Y-19.404
G1 Z0.000 F1000
G1 X6.575 Y-19.404 B-360.00 F3000
G1 X6.575 Y-19.404 B-360.00 F3000
G1 Z10.000 F1000
G1 B-270.00 F2000
G0 X6.575 Y-19.404
G1 Z0.000 F1000
G1 X6.575 Y-39.270 B-270.00 F3000
G1 X6.575 Y-39.270 B-270.00 F3000
G1 Z10.000 F1000
G1 B-360.00 F2000
G0 X6.575 Y-39.270
G1 Z0.000 F1000
G1 X24.481 Y-39.270 B-360.00 F3000
G1 X24.481 Y-39.270 B-360.00 F3000
G1 Z10.000 F1000
G1 B-450.00 F2000
G0 X24.481 Y-39.270
G1 Z0.000 F1000
G1 X24.481 Y-19.404 B-450.00 F3000
G1 X24.481 Y-19.404 B-450.00 F3000
G1 Z10.000 F1000
G1 B-360.00 F2000
G0 X24.481 Y-19.404
G1 Z0.000 F1000
G1 X27.631 Y-19.404 B-360.00 F3000
G1 X27.631 Y-19.404 B-360.00 F3000
G1 Z10.000 F1000
G1 B-270.00 F2000
G0 X27.631 Y-19.404
G1 Z0.000 F1000
G1 X27.631 Y-39.270 B-270.00 F3000
G1 X27.631 Y-39.270 B-270.00 F3000
G1 Z10.000 F1000
G1 B-360.00 F2000
G0 X27.631 Y-39.270
G1 Z0.000 F1000
G1 X45.537 Y-39.270 B-360.00 F3000
G1 X45.537 Y-39.270 B-360.00 F3000
G1 Z10.000 F1000
G1 B-450.00 F2000
G0 X45.537 Y-39.270
G1 Z0.000 F1000
G1 X45.537 Y-19.404 B-450.00 F3000
G1 X45.537 Y-19.404 B-450.00 F3000
G1 Z10.000 F1000
G1 B-360.00 F2000
G0 X45.537 Y-19.404
G1 Z0.000 F1000
G1 X48.687 Y-19.404 B-360.00 F3000
G1 X48.687 Y-19.404 B-360.00 F3000
G1 Z10.000 F1000
G1 B-270.00 F2000
G0 X48.687 Y-19.404
G1 Z0.000 F1000
G1 X48.687 Y-39.270 B-270.00 F3000
G1 X48.687 Y-39.270 B-270.00 F3000
G1 Z10.000 F1000
G1 B-360.00 F2000
G0 X48.687 Y-39.270
G1 Z0.000 F1000
G1 X66.593 Y-39.270 B-360.00 F3000
G1 X66.593 Y-39.270 B-360.00 F3000
G1 Z10.000 F1000
G1 B-450.00 F2000
G0 X66.593 Y-39.270
G1 Z0.000 F1000
G1 X66.593 Y-19.404 B-450.00 F3000
G1 X66.593 Y-19.404 B-450.00 F3000
G1 Z10.000 F1000
G1 B-360.00 F2000
G0 X66.593 Y-19.404
G1 Z0.000 F1000
G1 X69.743 Y-19.404 B-360.00 F3000
G1 X69.743 Y-19.404 B-360.00 F3000
G1 Z10.000 F1000
G1 B-270.00 F2000
G0 X69.743 Y-19.404
G1 Z0.000 F1000
G1 X69.743 Y-39.270 B-270.00 F3000
G1 X69.743 Y-39.270 B-270.00 F3000
G1 Z10.000 F1000
G1 B-360.00 F2000
G0 X69.743 Y-39.270
G1 Z0.000 F1000
G1 X78.168 Y-39.270 B-360.00 F3000
G1 X78.168 Y-39.270 B-360.00 F3000
G1 Z10.000 F1000
G1 B-450.00 F2000
G0 X78.168 Y-39.270
G1 Z0.000 F1000
G1 X78.168 Y0.462 B-450.00 F3000
G1 X78.168 Y0.462 B-450.00 F3000
G1 Z10.000 F1000
G1 B-540.00 F2000
G0 X78.168 Y0.462
G1 Z0.000 F1000
G1 X-5.000 Y0.462 B-540.00 F3000
G1 Z10.000 F1000
G1 Z10.000 F1000
G0 X-88.933 Y44.460
G1 Z10.000 F1000
G1 B-630.00 F2000
G0 X-88.933 Y44.460
G1 Z0.000 F1000
G1 X-88.933 Y36.035 B-630.00 F3000
G1 X-88.933 Y36.035 B-630.00 F3000
G1 Z10.000 F1000
G1 B-720.00 F2000
G0 X-88.933 Y36.035
G1 Z0.000 F1000
G1 X-70.067 Y36.035 B-720.00 F3000
G1 X-70.067 Y36.035 B-720.00 F3000
G1 Z10.000 F1000
G1 B-630.00 F2000
G0 X-70.067 Y36.035
G1 Z0.000 F1000
G1 X-70.067 Y32.885 B-630.00 F3000
G1 X-70.067 Y32.885 B-630.00 F3000
G1 Z10.000 F1000
G1 B-540.00 F2000
G0 X-70.067 Y32.885
G1 Z0.000 F1000
G1 X-88.933 Y32.885 B-540.00 F3000
G1 X-88.933 Y32.885 B-540.00 F3000
G1 Z10.000 F1000
G1 B-630.00 F2000
G0 X-88.933 Y32.885
G1 Z0.000 F1000
G1 X-88.933 Y21.400 B-630.00 F3000
G1 X-88.933 Y21.400 B-630.00 F3000
G1 Z10.000 F1000
G1 B-719.48 F2000
G0 X-88.933 Y21.400
G1 Z0.000 F1000
G1 X-84.795 Y21.362 B-719.48 F3000
G1 X-84.782 Y21.361 B-716.43 F3000
G1 X-84.781 Y21.361 B-710.31 F3000
G1 X-84.781 Y21.361 B-704.25 F3000
G1 X-84.769 Y21.356 B-698.16 F3000
G1 X-77.463 Y17.968 B-695.12 F3000
G1 X-77.453 Y17.963 B-692.49 F3000
G1 X-77.452 Y17.962 B-687.21 F3000
G1 X-77.452 Y17.962 B-681.99 F3000
G1 X-77.444 Y17.954 B-676.74 F3000
G1 X-74.559 Y14.979 B-674.12 F3000
G1 X-74.559 Y14.979 B-674.12 F3000
G1 Z10.000 F1000
G1 B-720.00 F2000
G0 X-74.559 Y14.979
G1 Z0.000 F1000
G1 X-62.210 Y14.979 B-720.00 F3000
G1 X-62.210 Y14.979 B-720.00 F3000
G1 Z10.000 F1000
G1 B-630.00 F2000
G0 X-62.210 Y14.979
G1 Z0.000 F1000
G1 X-62.210 Y11.829 B-630.00 F3000
G1 X-62.210 Y11.829 B-630.00 F3000
G1 Z10.000 F1000
G1 B-540.00 F2000
G0 X-62.210 Y11.829
G1 Z0.000 F1000
G1 X-72.328 Y11.829 B-540.00 F3000
G1 X-72.328 Y11.829 B-540.00 F3000
G1 Z10.000 F1000
G1 B-659.52 F2000
G0 X-72.328 Y11.829
G1 Z0.000 F1000
G1 X-71.564 Y10.480 B-659.52 F3000
G1 X-71.559 Y10.472 B-657.31 F3000
G1 X-71.559 Y10.471 B-652.87 F3000
G1 X-71.559 Y10.471 B-648.48 F3000
G1 X-71.557 Y10.462 B-644.06 F3000
G1 X-69.975 Y2.922 B-641.85 F3000
G1 X-69.973 Y2.911 B-639.25 F3000
G1 X-69.973 Y2.911 B-634.01 F3000
G1 X-69.973 Y2.911 B-628.84 F3000
G1 X-69.974 Y2.899 B-623.63 F3000
G1 X-70.902 Y-2.974 B-621.03 F3000
G1 X-70.904 Y-2.985 B-618.44 F3000
G1 X-70.904 Y-2.985 B-613.23 F3000
G1 X-70.904 Y-2.985 B-608.08 F3000
G1 X-70.909 Y-2.995 B-602.90 F3000
G1 X-72.666 Y-6.077 B-600.32 F3000
G1 X-72.666 Y-6.077 B-600.32 F3000
G1 Z10.000 F1000
G1 B-720.00 F2000
G0 X-72.666 Y-6.077
G1 Z0.000 F1000
G1 X-62.382 Y-6.077 B-720.00 F3000
G1 X-62.382 Y-6.077 B-720.00 F3000
G1 Z10.000 F1000
G1 B-630.00 F2000
G0 X-62.382 Y-6.077
G1 Z0.000 F1000
G1 X-62.382 Y-9.227 B-630.00 F3000
G1 X-62.382 Y-9.227 B-630.00 F3000
G1 Z10.000 F1000
G1 B-540.00 F2000
G0 X-62.382 Y-9.227
G1 Z0.000 F1000
G1 X-74.461 Y-9.227 B-540.00 F3000
G1 X-74.461 Y-9.227 B-540.00 F3000
G1 Z10.000 F1000
G1 B-600.32 F2000
G0 X-74.461 Y-9.227
G1 Z0.000 F1000
G1 X-74.693 Y-9.633 B-600.32 F3000
G1 X-74.699 Y-9.643 B-597.38 F3000
G1 X-74.700 Y-9.644 B-591.47 F3000
G1 X-74.700 Y-9.644 B-585.63 F3000
G1 X-74.710 Y-9.652 B-579.75 F3000
G1 X-80.897 Y-14.284 B-576.82 F3000
G1 X-80.908 Y-14.291 B-573.94 F3000
G1 X-80.908 Y-14.291 B-568.16 F3000
G1 X-80.908 Y-14.291 B-562.44 F3000
G1 X-80.920 Y-14.295 B-556.69 F3000
G1 X-87.947 Y-16.022 B-553.81 F3000
G1 X-87.962 Y-16.025 B-550.34 F3000
G1 X-87.977 Y-16.026 B-543.45 F3000
G1 X-88.933 Y-16.026 B-540.00 F3000
G1 X-88.933 Y-16.026 B-540.00 F3000
G1 Z10.000 F1000
G1 B-630.00 F2000
G0 X-88.933 Y-16.026
G1 Z0.000 F1000
G1 X-88.933 Y-27.133 B-630.00 F3000
G1 X-88.933 Y-27.133 B-630.00 F3000
G1 Z10.000 F1000
G1 B-720.00 F2000
G0 X-88.933 Y-27.133
G1 Z0.000 F1000
G1 X-70.067 Y-27.133 B-720.00 F3000
G1 X-70.067 Y-27.133 B-720.00 F3000
G1 Z10.000 F1000
G1 B-630.00 F2000
G0 X-70.067 Y-27.133
G1 Z0.000 F1000
G1 X-70.067 Y-30.283 B-630.00 F3000
G1 X-70.067 Y-30.283 B-630.00 F3000
G1 Z10.000 F1000
G1 B-540.00 F2000
G0 X-70.067 Y-30.283
G1 Z0.000 F1000
G1 X-88.933 Y-30.283 B-540.00 F3000
G1 X-88.933 Y-30.283 B-540.00 F3000
G1 Z10.000 F1000
G1 B-630.00 F2000
G0 X-88.933 Y-30.283
G1 Z0.000 F1000
G1 X-88.933 Y-38.708 B-630.00 F3000
G1 X-88.933 Y-38.708 B-630.00 F3000
G1 Z10.000 F1000
G1 B-720.00 F2000
G0 X-88.933 Y-38.708
G1 Z0.000 F1000
G1 X-51.201 Y-38.708 B-720.00 F3000
G1 X-51.201 Y-38.708 B-720.00 F3000
G1 Z10.000 F1000
G1 B-810.00 F2000
G0 X-51.201 Y-38.708
G1 Z0.000 F1000
G1 X-51.201 Y44.460 B-810.00 F3000
G1 X-51.201 Y44.460 B-810.00 F3000
G1 Z10.000 F1000
G1 B-900.00 F2000
G0 X-51.201 Y44.460
G1 Z0.000 F1000
G1 X-88.933 Y44.460 B-900.00 F3000
G1 Z10.000 F1000
G1 Z10.000 F1000
G0 X-3.652 Y42.844
G1 Z10.000 F1000
G1 B-990.00 F2000
G0 X-3.652 Y42.844
G1 Z0.000 F1000
G1 X-3.652 Y5.112 B-990.00 F3000
G1 X-3.652 Y5.112 B-990.00 F3000
G1 Z10.000 F1000
G1 B-1080.00 F2000
G0 X-3.652 Y5.112
G1 Z0.000 F1000
G1 X4.773 Y5.112 B-1080.00 F3000
G1 X4.773 Y5.112 B-1080.00 F3000
G1 Z10.000 F1000
G1 B-1170.00 F2000
G0 X4.773 Y5.112
G1 Z0.000 F1000
G1 X4.773 Y23.978 B-1170.00 F3000
G1 X4.773 Y23.978 B-1170.00 F3000
G1 Z10.000 F1000
G1 B-1080.00 F2000
G0 X4.773 Y23.978
G1 Z0.000 F1000
G1 X7.923 Y23.978 B-1080.00 F3000
G1 X7.923 Y23.978 B-1080.00 F3000
G1 Z10.000 F1000
G1 B-990.00 F2000
G0 X7.923 Y23.978
G1 Z0.000 F1000
G1 X7.923 Y5.112 B-990.00 F3000
G1 X7.923 Y5.112 B-990.00 F3000
G1 Z10.000 F1000
G1 B-1080.00 F2000
G0 X7.923 Y5.112
G1 Z0.000 F1000
G1 X25.829 Y5.112 B-1080.00 F3000
G1 X25.829 Y5.112 B-1080.00 F3000
G1 Z10.000 F1000
G1 B-1170.00 F2000
G0 X25.829 Y5.112
G1 Z0.000 F1000
G1 X25.829 Y25.380 B-1170.00 F3000
G1 X25.829 Y25.380 B-1170.00 F3000
G1 Z10.000 F1000
G1 B-1080.00 F2000
G0 X25.829 Y25.380
G1 Z0.000 F1000
G1 X28.979 Y25.380 B-1080.00 F3000
G1 X28.979 Y25.380 B-1080.00 F3000
G1 Z10.000 F1000
G1 B-990.00 F2000
G0 X28.979 Y25.380
G1 Z0.000 F1000
G1 X28.979 Y11.330 B-990.00 F3000
G1 X28.979 Y11.330 B-990.00 F3000
G1 Z10.000 F1000
G1 B-1135.91 F2000
G0 X28.979 Y11.330
G1 Z0.000 F1000
G1 X29.844 Y12.608 B-1135.91 F3000
G1 X29.852 Y12.618 B-1132.95 F3000
G1 X29.852 Y12.618 B-1127.00 F3000
G1 X29.852 Y12.618 B-1121.12 F3000
G1 X29.863 Y12.626 B-1115.20 F3000
G1 X34.625 Y15.629 B-1112.24 F3000
G1 X34.637 Y15.636 B-1108.93 F3000
G1 X34.638 Y15.637 B-1102.26 F3000
G1 X34.638 Y15.637 B-1095.67 F3000
G1 X34.652 Y15.639 B-1089.04 F3000
G1 X39.064 Y16.081 B-1085.73 F3000
G1 X39.076 Y16.082 B-1082.78 F3000
G1 X39.077 Y16.082 B-1076.86 F3000
G1 X39.077 Y16.082 B-1071.01 F3000
G1 X39.089 Y16.079 B-1065.12 F3000
G1 X43.365 Y14.704 B-1062.18 F3000
G1 X43.377 Y14.700 B-1059.21 F3000
G1 X43.377 Y14.699 B-1053.24 F3000
G1 X43.377 Y14.699 B-1047.33 F3000
G1 X43.387 Y14.691 B-1041.39 F3000
G1 X46.766 Y11.694 B-1038.43 F3000
G1 X46.775 Y11.685 B-1035.49 F3000
G1 X46.776 Y11.685 B-1029.57 F3000
G1 X46.776 Y11.684 B-1023.73 F3000
G1 X46.782 Y11.673 B-1017.85 F3000
G1 X46.885 Y11.450 B-1014.91 F3000
G1 X46.885 Y11.450 B-1014.91 F3000
G1 Z10.000 F1000
G1 B-1170.00 F2000
G0 X46.885 Y11.450
G1 Z0.000 F1000
G1 X46.885 Y25.451 B-1170.00 F3000
G1 X46.885 Y25.451 B-1170.00 F3000
G1 Z10.000 F1000
G1 B-1080.00 F2000
G0 X46.885 Y25.451
G1 Z0.000 F1000
G1 X50.035 Y25.451 B-1080.00 F3000
G1 X50.035 Y25.451 B-1080.00 F3000
G1 Z10.000 F1000
G1 B-990.00 F2000
G0 X50.035 Y25.451
G1 Z0.000 F1000
G1 X50.035 Y5.112 B-990.00 F3000
G1 X50.035 Y5.112 B-990.00 F3000
G1 Z10.000 F1000
G1 B-1080.00 F2000
G0 X50.035 Y5.112
G1 Z0.000 F1000
G1 X67.941 Y5.112 B-1080.00 F3000
G1 X67.941 Y5.112 B-1080.00 F3000
G1 Z10.000 F1000
G1 B-1170.00 F2000
G0 X67.941 Y5.112
G1 Z0.000 F1000
G1 X67.941 Y23.978 B-1170.00 F3000
G1 X67.941 Y23.978 B-1170.00 F3000
G1 Z10.000 F1000
G1 B-1080.00 F2000
G0 X67.941 Y23.978
G1 Z0.000 F1000
G1 X71.091 Y23.978 B-1080.00 F3000
G1 X71.091 Y23.978 B-1080.00 F3000
G1 Z10.000 F1000
G1 B-990.00 F2000
G0 X71.091 Y23.978
G1 Z0.000 F1000
G1 X71.091 Y5.112 B-990.00 F3000
G1 X71.091 Y5.112 B-990.00 F3000
G1 Z10.000 F1000
G1 B-1080.00 F2000
G0 X71.091 Y5.112
G1 Z0.000 F1000
G1 X79.516 Y5.112 B-1080.00 F3000
G1 X79.516 Y5.112 B-1080.00 F3000
G1 Z10.000 F1000
G1 B-1170.00 F2000
G0 X79.516 Y5.112
G1 Z0.000 F1000
G1 X79.516 Y42.844 B-1170.00 F3000
G1 X79.516 Y42.844 B-1170.00 F3000
G1 Z10.000 F1000
G1 B-1260.00 F2000
G0 X79.516 Y42.844
G1 Z0.000 F1000
G1 X-3.652 Y42.844 B-1260.00 F3000
G1 Z10.000 F1000
M5 (Stop Oscillation)
M9 (Lights OFF)

M2