(Generated by custom-packaging - grblHAL Multi-Axis)
M8 (Lights ON)

G21  (mm)
G90  (absolute)
G1 Z10.000 F1000
G1 B-0.00 F2000
G1 Z10.000 F1000
G1 B90.00 F2000
G1 Z10.000 F1000
G0 X62.740 Y-5.133
M3 S2000 (Start Oscillation)
G1 Z10.000 F1000
G1 B90.00 F2000
G0 X62.740 Y-5.133
G1 Z0.000 F1000
G1 X62.740 Y-23.999 B90.00 F3000
G1 X62.740 Y-23.999 B90.00 F3000
G1 Z10.000 F1000
G1 B180.00 F2000
G0 X62.740 Y-23.999
G1 Z0.000 F1000
G1 X59.590 Y-23.999 B180.00 F3000
G1 X59.590 Y-23.999 B180.00 F3000
G1 Z10.000 F1000
G1 B270.00 F2000
G0 X59.590 Y-23.999
G1 Z0.000 F1000
G1 X59.590 Y-15.792 B270.00 F3000
G1 X59.590 Y-15.792 B270.00 F3000
G1 Z10.000 F1000
G1 B180.00 F2000
G0 X59.590 Y-15.792
G1 Z0.000 F1000
G1 X56.230 Y-15.792 B180.00 F3000
G1 X56.219 Y-15.791 B182.60 F3000
G1 X56.219 Y-15.791 B187.78 F3000
G1 X56.219 Y-15.791 B187.78 F3000
G1 Z10.000 F1000
G1 B208.60 F2000
G0 X56.219 Y-15.791
G1 Z0.000 F1000
G1 X56.218 Y-15.791 B208.60 F3000
G1 X56.218 Y-15.791 B208.60 F3000
G1 Z10.000 F1000
G1 B229.41 F2000
G0 X56.218 Y-15.791
G1 Z0.000 F1000
G1 X56.218 Y-15.791 B229.41 F3000
G1 X56.218 Y-15.791 B229.41 F3000
G1 Z10.000 F1000
G1 B250.29 F2000
G0 X56.218 Y-15.791
G1 Z0.000 F1000
G1 X56.218 Y-15.791 B250.29 F3000
G1 X56.218 Y-15.791 B255.47 F3000
G1 X56.216 Y-15.779 B260.67 F3000
G1 X56.142 Y-15.148 B263.28 F3000
G1 X56.134 Y-15.100 B260.50 F3000
G1 X56.121 Y-15.053 B254.94 F3000
G1 X56.104 Y-15.008 B249.39 F3000
G1 X56.083 Y-14.965 B243.83 F3000
G1 X56.057 Y-14.923 B238.28 F3000
G1 X56.028 Y-14.885 B232.72 F3000
G1 X55.995 Y-14.849 B227.17 F3000
G1 X55.959 Y-14.817 B221.61 F3000
G1 X55.920 Y-14.789 B216.06 F3000
G1 X55.878 Y-14.764 B210.50 F3000
G1 X55.834 Y-14.744 B204.95 F3000
G1 X55.788 Y-14.727 B199.39 F3000
G1 X55.741 Y-14.716 B193.84 F3000
G1 X27.185 Y-9.135 B191.06 F3000
G1 X27.124 Y-9.127 B187.52 F3000
G1 X21.996 Y-8.771 B183.97 F3000
G1 X21.996 Y-8.771 B183.97 F3000
G1 Z10.000 F1000
G1 B90.00 F2000
G0 X21.996 Y-8.771
G1 Z0.000 F1000
G1 X21.996 Y-25.763 B90.00 F3000
G1 X21.996 Y-25.763 B90.00 F3000
G1 Z10.000 F1000
G1 B180.00 F2000
G0 X21.996 Y-25.763
G1 Z0.000 F1000
G1 X18.846 Y-25.763 B180.00 F3000
G1 X18.846 Y-25.763 B180.00 F3000
G1 Z10.000 F1000
G1 B270.00 F2000
G0 X18.846 Y-25.763
G1 Z0.000 F1000
G1 X18.846 Y-8.552 B270.00 F3000
G1 X18.846 Y-8.552 B270.00 F3000
G1 Z10.000 F1000
G1 B183.97 F2000
G0 X18.846 Y-8.552
G1 Z0.000 F1000
G1 X14.981 Y-8.284 B183.97 F3000
G1 X14.936 Y-8.282 B181.38 F3000
G1 X14.891 Y-8.285 B176.21 F3000
G1 X9.633 Y-8.873 B173.62 F3000
G1 X9.564 Y-8.886 B169.58 F3000
G1 X-3.300 Y-12.203 B165.54 F3000
G1 X-3.364 Y-12.225 B161.67 F3000
G1 X-9.346 Y-14.665 B157.81 F3000
G1 X-9.390 Y-14.685 B155.03 F3000
G1 X-9.432 Y-14.710 B149.47 F3000
G1 X-9.471 Y-14.739 B143.91 F3000
G1 X-9.507 Y-14.771 B138.35 F3000
G1 X-9.540 Y-14.806 B132.79 F3000
G1 X-9.569 Y-14.845 B127.24 F3000
G1 X-9.595 Y-14.886 B121.68 F3000
G1 X-9.616 Y-14.930 B116.12 F3000
G1 X-9.633 Y-14.975 B110.56 F3000
G1 X-9.646 Y-15.022 B105.00 F3000
G1 X-9.654 Y-15.070 B99.44 F3000
G1 X-9.736 Y-15.778 B96.66 F3000
G1 X-9.739 Y-15.791 B99.69 F3000
G1 X-9.739 Y-15.791 B105.77 F3000
G1 X-9.739 Y-15.791 B105.77 F3000
G1 Z10.000 F1000
G1 B129.96 F2000
G0 X-9.739 Y-15.791
G1 Z0.000 F1000
G1 X-9.739 Y-15.791 B129.96 F3000
G1 X-9.739 Y-15.791 B129.96 F3000
G1 Z10.000 F1000
G1 B154.15 F2000
G0 X-9.739 Y-15.791
G1 Z0.000 F1000
G1 X-9.739 Y-15.791 B154.15 F3000
G1 X-9.739 Y-15.792 B160.16 F3000
G1 X-9.752 Y-15.795 B166.20 F3000
G1 X-12.969 Y-16.407 B169.23 F3000
G1 X-13.013 Y-16.417 B166.60 F3000
G1 X-13.057 Y-16.432 B161.34 F3000
G1 X-13.098 Y-16.451 B156.09 F3000
G1 X-13.139 Y-16.473 B150.83 F3000
G1 X-18.748 Y-19.950 B148.20 F3000
G1 X-18.748 Y-19.950 B148.20 F3000
G1 Z10.000 F1000
G1 B90.00 F2000
G0 X-18.748 Y-19.950
G1 Z0.000 F1000
G1 X-18.748 Y-31.896 B90.00 F3000
G1 X-18.748 Y-31.896 B90.00 F3000
G1 Z10.000 F1000
G1 B180.00 F2000
G0 X-18.748 Y-31.896
G1 Z0.000 F1000
G1 X-21.898 Y-31.896 B180.00 F3000
G1 X-21.898 Y-31.896 B180.00 F3000
G1 Z10.000 F1000
G1 B270.00 F2000
G0 X-21.898 Y-31.896
G1 Z0.000 F1000
G1 X-21.898 Y-22.017 B270.00 F3000
G1 X-21.898 Y-22.017 B270.00 F3000
G1 Z10.000 F1000
G1 B142.50 F2000
G0 X-21.898 Y-22.017
G1 Z0.000 F1000
G1 X-34.281 Y-31.519 B142.50 F3000
G1 X-34.294 Y-31.528 B146.08 F3000
G1 X-34.308 Y-31.535 B153.19 F3000
G1 X-39.501 Y-33.765 B156.75 F3000
G1 X-39.513 Y-33.770 B159.82 F3000
G1 X-39.526 Y-33.773 B165.91 F3000
G1 X-44.957 Y-34.832 B168.96 F3000
G1 X-44.970 Y-34.834 B171.99 F3000
G1 X-44.983 Y-34.835 B177.99 F3000
G1 X-50.410 Y-34.740 B181.00 F3000
G1 X-50.427 Y-34.739 B184.81 F3000
G1 X-50.443 Y-34.735 B192.36 F3000
G1 X-58.480 Y-32.409 B196.14 F3000
G1 X-58.493 Y-32.405 B199.15 F3000
G1 X-58.505 Y-32.399 B205.11 F3000
G1 X-60.974 Y-31.081 B208.10 F3000
G1 X-60.983 Y-31.075 B210.68 F3000
G1 X-60.983 Y-31.075 B215.83 F3000
G1 X-60.983 Y-31.075 B215.83 F3000
G1 Z10.000 F1000
G1 B236.46 F2000
G0 X-60.983 Y-31.075
G1 Z0.000 F1000
G1 X-60.984 Y-31.075 B236.46 F3000
G1 X-60.984 Y-31.075 B236.46 F3000
G1 Z10.000 F1000
G1 B257.13 F2000
G0 X-60.984 Y-31.075
G1 Z0.000 F1000
G1 X-60.984 Y-31.074 B257.13 F3000
G1 X-60.984 Y-31.074 B262.26 F3000
G1 X-60.984 Y-31.063 B267.42 F3000
G1 X-60.984 Y-23.999 B270.00 F3000
G1 X-60.984 Y-23.999 B270.00 F3000
G1 Z10.000 F1000
G1 B180.00 F2000
G0 X-60.984 Y-23.999
G1 Z0.000 F1000
G1 X-62.642 Y-23.999 B180.00 F3000
G1 X-62.642 Y-23.999 B180.00 F3000
G1 Z10.000 F1000
G1 B270.00 F2000
G0 X-62.642 Y-23.999
G1 Z0.000 F1000
G1 X-62.642 Y-5.133 B270.00 F3000
G1 X-62.642 Y-5.133 B270.00 F3000
G1 Z10.000 F1000
G1 B180.00 F2000
G0 X-62.642 Y-5.133
G1 Z0.000 F1000
G1 X-71.067 Y-5.133 B180.00 F3000
G1 X-71.067 Y-5.133 B180.00 F3000
G1 Z10.000 F1000
G1 B90.00 F2000
G0 X-71.067 Y-5.133
G1 Z0.000 F1000
G1 X-71.067 Y-42.865 B90.00 F3000
G1 X-71.067 Y-42.865 B90.00 F3000
G1 Z10.000 F1000
G1 B-0.00 F2000
G0 X-71.067 Y-42.865
G1 Z0.000 F1000
G1 X71.165 Y-42.865 B-0.00 F3000
G1 X71.165 Y-42.865 B-0.00 F3000
G1 Z10.000 F1000
G1 B-90.00 F2000
G0 X71.165 Y-42.865
G1 Z0.000 F1000
G1 X71.165 Y-5.133 B-90.00 F3000
G1 X71.165 Y-5.133 B-90.00 F3000
G1 Z10.000 F1000
G1 B-180.00 F2000
G0 X71.165 Y-5.133
G1 Z0.000 F1000
G1 X62.740 Y-5.133 B-180.00 F3000
G1 Z10.000 F1000
G1 Z10.000 F1000
G0 X62.740 Y40.124
G1 Z10.000 F1000
G1 B-270.00 F2000
G0 X62.740 Y40.124
G1 Z0.000 F1000
G1 X62.740 Y20.258 B-270.00 F3000
G1 X62.740 Y20.258 B-270.00 F3000
G1 Z10.000 F1000
G1 B-180.00 F2000
G0 X62.740 Y20.258
G1 Z0.000 F1000
G1 X59.590 Y20.258 B-180.00 F3000
G1 X59.590 Y20.258 B-180.00 F3000
G1 Z10.000 F1000
G1 B-90.00 F2000
G0 X59.590 Y20.258
G1 Z0.000 F1000
G1 X59.590 Y40.124 B-90.00 F3000
G1 X59.590 Y40.124 B-90.00 F3000
G1 Z10.000 F1000
G1 B-180.00 F2000
G0 X59.590 Y40.124
G1 Z0.000 F1000
G1 X21.996 Y40.124 B-180.00 F3000
G1 X21.996 Y40.124 B-180.00 F3000
G1 Z10.000 F1000
G1 B-270.00 F2000
G0 X21.996 Y40.124
G1 Z0.000 F1000
G1 X21.996 Y20.258 B-270.00 F3000
G1 X21.996 Y20.258 B-270.00 F3000
G1 Z10.000 F1000
G1 B-180.00 F2000
G0 X21.996 Y20.258
G1 Z0.000 F1000
G1 X18.846 Y20.258 B-180.00 F3000
G1 X18.846 Y20.258 B-180.00 F3000
G1 Z10.000 F1000
G1 B-90.00 F2000
G0 X18.846 Y20.258
G1 Z0.000 F1000
G1 X18.846 Y40.124 B-90.00 F3000
G1 X18.846 Y40.124 B-90.00 F3000
G1 Z10.000 F1000
G1 B-180.00 F2000
G0 X18.846 Y40.124
G1 Z0.000 F1000
G1 X-18.748 Y40.124 B-180.00 F3000
G1 X-18.748 Y40.124 B-180.00 F3000
G1 Z10.000 F1000
G1 B-270.00 F2000
G0 X-18.748 Y40.124
G1 Z0.000 F1000
G1 X-18.748 Y20.258 B-270.00 F3000
G1 X-18.748 Y20.258 B-270.00 F3000
G1 Z10.000 F1000
G1 B-180.00 F2000
G0 X-18.748 Y20.258
G1 Z0.000 F1000
G1 X-21.898 Y20.258 B-180.00 F3000
G1 X-21.898 Y20.258 B-180.00 F3000
G1 Z10.000 F1000
G1 B-90.00 F2000
G0 X-21.898 Y20.258
G1 Z0.000 F1000
G1 X-21.898 Y40.124 B-90.00 F3000
G1 X-21.898 Y40.124 B-90.00 F3000
G1 Z10.000 F1000
G1 B-180.00 F2000
G0 X-21.898 Y40.124
G1 Z0.000 F1000
G1 X-59.492 Y40.124 B-180.00 F3000
G1 X-59.492 Y40.124 B-180.00 F3000
G1 Z10.000 F1000
G1 B-270.00 F2000
G0 X-59.492 Y40.124
G1 Z0.000 F1000
G1 X-59.492 Y20.258 B-270.00 F3000
G1 X-59.492 Y20.258 B-270.00 F3000
G1 Z10.000 F1000
G1 B-180.00 F2000
G0 X-59.492 Y20.258
G1 Z0.000 F1000
G1 X-62.642 Y20.258 B-180.00 F3000
G1 X-62.642 Y20.258 B-180.00 F3000
G1 Z10.000 F1000
G1 B-90.00 F2000
G0 X-62.642 Y20.258
G1 Z0.000 F1000
G1 X-62.642 Y40.124 B-90.00 F3000
G1 X-62.642 Y40.124 B-90.00 F3000
G1 Z10.000 F1000
G1 B-180.00 F2000
G0 X-62.642 Y40.124
G1 Z0.000 F1000
G1 X-71.067 Y40.124 B-180.00 F3000
G1 X-71.067 Y40.124 B-180.00 F3000
G1 Z10.000 F1000
G1 B-270.00 F2000
G0 X-71.067 Y40.124
G1 Z0.000 F1000
G1 X-71.067 Y0.392 B-270.00 F3000
G1 X-71.067 Y0.392 B-270.00 F3000
G1 Z10.000 F1000
G1 B-360.00 F2000
G0 X-71.067 Y0.392
G1 Z0.000 F1000
G1 X71.165 Y0.392 B-360.00 F3000
G1 X71.165 Y0.392 B-360.00 F3000
G1 Z10.000 F1000
G1 B-450.00 F2000
G0 X71.165 Y0.392
G1 Z0.000 F1000
G1 X71.165 Y40.124 B-450.00 F3000
G1 X71.165 Y40.124 B-450.00 F3000
G1 Z10.000 F1000
G1 B-540.00 F2000
G0 X71.165 Y40.124
G1 Z0.000 F1000
G1 X62.740 Y40.124 B-540.00 F3000
G1 Z10.000 F1000
M5 (Stop Oscillation)
M9 (Lights OFF)

M2